ncols         93
nrows         151
xllcorner     -123.807403564453
yllcorner     -226449.671875
cellsize      1500
NODATA_value  -9999
0.0 0 44 57 7 0 0 17 112 145 164 119 138 252 318 314 224 342 341 299 265 58 0 0 20 0 0 0 0 0 0 0 20 20 0 0 0 0 193 0 123 421 223 0 0 0 0 0 0 0 0 0 0 0 0 0 0 0 0 0 0 0 0 0 0 0 0 0 0 0 0 0 0 0 0 0 0 0 0 0 0 0 0 0 0 0 0 0 0 0 0 0 0
0 0 31 57 8 0 0 0 85 152 169 235 231 131 134 144 104 120 72 44 0 0 0 0 43 0 0 0 0 0 0 78 20 0 0 0 96 178 117 0 0 335 344 0 0 0 0 0 0 0 0 0 0 0 0 0 0 0 0 0 0 0 0 0 0 0 0 0 0 0 0 0 0 0 0 0 0 0 0 0 0 0 0 0 0 0 0 0 0 0 0 0 0
0 0 27 56 0 0 0 0 89 193 209 231 205 67 29 0 0 0 7 0 0 0 0 0 152 160 103 0 0 0 0 106 111 0 0 210 103 0 0 0 0 351 335 0 0 0 0 0 0 0 0 0 0 0 0 0 0 0 0 0 0 0 0 0 0 0 0 0 0 0 0 0 0 0 0 0 0 0 0 0 0 0 0 0 0 0 0 0 0 0 0 0 0
0 0 23 51 0 0 0 48 142 233 243 240 220 124 17 0 0 0 0 0 0 0 0 0 129 72 71 101 59 0 0 64 252 104 246 105 0 0 0 0 96 410 211 0 0 0 0 0 0 0 0 0 0 0 0 0 0 0 0 0 0 0 0 0 0 0 0 0 0 0 0 0 0 0 0 0 0 0 0 0 0 0 0 0 0 0 0 0 0 0 0 0 0
0 0 28 47 0 0 0 127 215 256 248 229 132 73 24 0 0 0 0 0 0 0 0 0 162 69 0 0 0 0 0 0 210 288 0 0 0 0 0 0 168 428 279 0 0 0 0 0 0 0 0 0 0 0 0 0 0 0 0 0 0 0 0 0 0 0 0 0 0 0 0 0 0 0 0 0 0 0 0 0 0 0 0 0 0 0 0 0 0 0 0 0 0
0 0 26 52 0 0 52 177 243 262 225 130 19 0 16 0 0 0 0 0 0 0 10 69 163 0 0 0 0 0 0 0 124 222 0 0 0 0 0 0 375 334 150 0 0 0 0 0 0 0 0 0 0 0 0 0 0 0 0 0 0 0 0 0 0 0 0 0 0 0 0 0 0 0 0 0 0 0 0 0 0 0 0 0 0 0 0 0 0 0 0 0 0
0 0 48 31 0 0 73 200 250 253 184 46 0 0 27 34 4 0 0 0 0 0 54 169 139 0 0 0 0 0 0 0 210 233 0 0 0 0 0 345 358 0 0 0 0 0 0 0 0 0 0 0 0 0 0 0 0 0 0 0 0 0 0 0 0 0 0 0 0 0 0 0 0 0 0 0 0 0 0 0 0 0 0 0 0 0 0 0 0 0 0 0 0
0 16 65 13 0 0 63 201 257 261 151 43 10 18 46 50 18 0 0 0 0 0 121 206 212 34 0 0 0 0 0 215 336 89 0 0 0 202 389 415 172 0 0 0 0 0 0 0 0 0 0 0 0 0 0 0 0 0 0 0 0 0 0 0 0 0 0 0 0 0 0 0 0 0 0 0 0 0 0 0 0 0 0 0 0 0 0 0 0 0 0 0 0
0 11 63 37 8 11 67 195 242 256 169 46 45 73 73 17 0 0 0 0 0 0 194 257 175 79 0 124 341 394 413 342 340 352 316 377 421 419 384 227 0 0 0 0 0 0 0 0 0 0 0 0 0 0 0 0 0 0 0 0 0 0 0 0 0 0 0 0 0 0 0 0 0 0 0 0 0 0 0 0 0 0 0 0 0 0 0 0 0 0 0 0 0
0 7 51 74 45 15 41 176 248 249 178 82 80 76 36 0 0 0 0 0 0 0 234 115 127 238 234 388 356 259 249 138 69 115 189 252 240 234 88 0 0 0 0 0 0 0 0 0 0 0 0 0 0 0 0 0 0 0 0 0 0 0 0 0 0 0 0 0 0 0 0 0 0 0 0 0 0 0 0 0 0 0 0 0 0 0 0 0 0 0 0 0 0
0 6 44 103 101 70 53 163 242 242 180 110 79 24 0 16 33 19 59 77 63 117 340 244 254 424 425 225 81 0 114 0 0 0 0 0 0 0 0 0 0 0 0 0 0 0 0 0 0 0 0 0 0 0 0 0 0 0 0 0 0 0 0 0 0 0 0 0 0 0 0 0 0 0 0 0 0 0 0 0 0 0 0 0 0 0 0 0 0 0 0 0 0
0 4 35 100 155 149 140 211 256 231 169 109 51 20 24 90 72 20 144 289 291 305 273 229 296 240 284 342 308 269 216 78 25 0 0 0 0 0 0 0 0 0 0 0 0 0 0 0 0 0 0 0 0 0 0 0 0 0 0 0 0 0 0 0 0 0 0 0 0 0 0 0 0 0 0 0 0 0 0 0 0 0 0 0 0 0 0 0 0 0 0 0 0
0 7 29 82 158 189 232 265 255 194 146 128 82 89 96 102 88 60 206 295 167 122 146 0 0 28 0 0 0 0 105 42 0 0 0 0 0 0 0 0 0 0 0 0 0 0 0 0 0 0 0 0 0 0 0 0 0 0 0 0 0 0 0 0 0 0 0 0 0 0 0 0 0 0 0 0 0 0 0 0 0 0 0 0 0 0 0 0 0 0 0 0 0
0 11 28 80 147 201 267 286 246 172 130 136 146 125 90 0 58 143 212 271 226 181 113 0 0 11 0 0 0 0 0 0 0 0 0 0 0 0 0 0 0 0 0 0 0 0 0 0 0 0 0 0 0 0 0 0 0 0 0 0 0 0 0 0 0 0 0 0 0 0 0 0 0 0 0 0 0 0 0 0 0 0 0 0 0 0 0 0 0 0 0 0 0
0 10 32 79 134 186 272 291 267 171 76 105 155 102 58 0 0 50 173 267 258 152 46 0 0 50 12 0 0 0 0 0 0 0 0 0 0 0 0 0 0 0 0 0 0 0 0 0 0 0 0 0 0 0 0 0 0 0 0 0 0 0 0 0 0 0 0 0 0 0 0 0 0 0 0 0 0 0 0 0 0 0 0 0 0 0 0 0 0 0 0 0 0
0 4 30 85 136 173 268 288 283 184 101 103 157 122 76 0 0 0 161 264 255 171 29 0 0 0 16 0 0 0 0 0 0 0 0 0 0 0 0 0 0 0 0 0 0 0 0 0 0 0 0 0 0 0 0 0 0 0 0 0 0 0 0 0 0 0 0 0 0 0 0 0 0 0 0 0 0 0 0 0 0 0 0 0 0 0 0 0 0 0 0 0 0
0 0 16 77 129 150 255 295 271 162 165 176 179 161 104 29 7 36 173 250 246 128 32 0 0 0 0 0 0 0 0 0 0 0 0 0 0 0 0 0 0 0 0 0 0 0 0 0 0 0 0 0 0 0 0 0 0 0 0 0 0 0 0 0 0 0 0 0 0 0 0 0 0 0 0 0 0 0 0 0 0 0 0 0 0 0 0 0 0 0 0 0 0
0 0 13 72 108 137 238 300 220 54 152 188 201 187 120 58 27 58 173 226 207 124 80 0 0 0 0 0 0 0 0 0 0 0 0 0 0 0 0 0 0 0 0 0 0 0 0 0 0 0 0 0 0 0 0 0 0 0 0 0 0 0 0 0 0 0 0 0 0 0 0 0 0 0 0 0 0 0 0 0 0 0 0 0 0 0 0 0 0 0 0 0 0
0 0 16 68 104 131 219 300 225 42 102 151 214 216 129 77 34 31 117 156 160 163 119 38 0 0 0 0 0 0 0 0 0 0 0 0 0 0 0 0 0 0 0 0 0 0 0 0 0 0 0 0 0 0 0 0 0 0 0 0 0 0 0 0 0 0 0 0 0 0 0 0 0 0 0 0 0 0 0 0 0 0 0 0 0 0 0 0 0 0 0 0 0
0 0 10 59 101 125 211 288 283 113 104 139 188 230 162 97 66 0 27 49 73 142 122 65 0 0 0 0 0 0 0 0 0 0 0 0 0 0 0 0 0 0 0 0 0 0 0 0 0 0 0 0 0 0 0 0 0 0 0 0 0 0 0 0 0 0 0 0 0 0 0 0 0 0 0 0 0 0 0 0 0 0 0 0 0 0 0 0 0 0 0 0 0
0 0 0 30 92 117 191 259 302 240 154 151 190 233 208 140 91 24 4 0 0 47 74 96 0 0 0 0 0 0 0 0 0 0 0 0 0 0 0 0 0 0 0 0 0 0 0 0 0 0 0 0 0 0 0 0 0 0 0 0 0 0 0 0 0 0 0 0 0 0 0 0 0 0 0 0 0 0 0 0 0 0 0 0 0 0 0 0 0 0 0 0 0
0 0 0 11 69 106 168 220 277 286 206 102 178 246 231 174 110 29 18 35 12 6 40 111 0 0 0 0 0 0 0 0 0 0 0 0 0 0 0 0 0 0 0 0 0 0 0 0 0 0 0 0 0 0 0 0 0 0 0 0 0 0 0 0 0 0 0 0 0 0 0 0 0 0 0 0 0 0 0 0 0 0 0 0 0 0 0 0 0 0 0 0 0
0 0 0 4 38 98 149 195 234 290 259 109 173 264 248 173 98 62 67 80 45 11 41 134 59 0 0 0 0 0 0 0 0 0 0 0 0 0 0 0 0 0 0 0 0 0 0 0 0 0 0 0 0 0 0 0 0 0 0 0 0 0 0 0 0 0 0 0 0 0 0 0 70 0 0 0 0 0 0 0 0 0 0 0 0 0 0 0 0 0 0 0 0
0 0 0 0 28 80 129 180 201 270 297 235 245 283 258 163 45 61 90 108 97 40 24 109 122 0 0 0 0 0 0 0 0 0 0 0 0 0 0 0 0 0 0 0 0 0 0 0 0 0 0 0 0 0 0 0 0 0 0 0 0 0 0 0 0 0 0 0 0 0 0 59 182 0 0 0 0 0 0 0 0 0 0 0 0 0 0 0 0 0 0 0 0
0 0 0 0 27 60 100 148 186 229 289 315 290 298 252 157 37 16 43 90 130 88 29 84 143 68 0 0 0 0 0 0 0 0 0 0 0 0 0 0 0 0 0 0 0 0 0 0 0 0 0 0 0 0 0 0 0 0 0 0 0 0 0 0 0 0 0 0 0 0 0 0 237 115 0 0 0 0 0 0 0 0 0 0 0 0 0 0 0 0 0 0 0
0 0 0 0 13 55 80 96 143 193 238 322 322 310 252 175 78 46 25 35 126 131 119 129 150 88 17 0 0 0 0 0 0 0 0 0 0 0 0 0 0 0 0 0 0 0 0 0 0 0 0 0 0 0 0 0 0 0 0 0 0 0 0 0 0 0 0 0 0 0 0 0 105 284 0 0 0 0 0 0 0 0 0 0 0 0 0 0 0 0 0 0 0
0 0 0 0 6 40 69 80 123 168 204 297 332 320 260 195 120 114 74 76 123 113 137 138 142 116 48 0 0 0 0 0 0 0 0 0 0 0 0 0 0 0 0 0 0 0 0 0 0 0 0 0 0 0 0 0 0 0 0 0 0 0 0 0 0 0 0 0 0 0 0 0 0 282 223 0 0 0 0 0 0 0 0 0 0 0 0 0 0 0 0 0 0
0 0 0 0 0 28 53 69 102 147 187 277 332 326 264 195 170 165 136 135 148 129 137 125 86 85 68 0 0 0 0 0 0 0 0 0 0 0 0 0 0 0 0 0 0 0 0 0 0 0 0 0 0 0 0 0 0 0 0 0 0 0 0 0 0 0 0 0 0 0 0 0 0 91 310 198 0 0 0 0 0 0 0 0 0 0 0 0 0 0 0 0 0
0 0 0 0 0 19 45 68 86 126 168 248 333 336 268 194 194 192 166 150 137 124 85 29 0 42 98 37 0 0 0 0 0 0 0 0 0 0 0 0 0 0 0 0 0 0 0 0 0 0 0 0 0 0 0 0 0 0 0 0 0 0 0 0 0 0 0 0 0 0 0 0 0 0 154 296 110 0 0 0 0 0 0 0 0 0 0 0 0 0 0 0 0
0 0 0 0 0 11 41 64 72 111 157 217 327 344 296 226 223 205 174 148 116 81 30 0 0 36 127 71 0 0 0 0 0 0 0 0 0 0 0 0 0 0 0 0 0 0 0 0 0 0 0 0 0 0 0 0 0 0 0 0 0 0 0 0 0 0 0 0 0 0 0 0 0 0 0 308 316 0 0 0 0 0 0 0 0 0 0 0 0 0 0 0 0
0 0 0 0 0 0 38 54 65 104 144 206 307 344 330 285 257 218 181 143 102 110 44 26 32 82 163 100 54 0 0 0 0 0 0 0 0 0 0 0 0 0 0 0 0 0 0 0 0 0 0 0 0 0 0 0 0 0 0 0 0 0 0 0 0 0 0 0 0 0 0 0 0 0 0 191 343 82 0 0 0 0 0 0 0 0 0 0 0 0 0 0 0
0 0 0 0 0 0 10 38 60 97 139 203 293 336 348 333 255 228 203 150 84 106 102 153 180 192 212 143 77 0 0 0 0 0 0 0 0 0 0 0 0 0 0 0 0 0 0 0 0 0 0 0 0 0 0 0 0 0 0 0 0 0 0 0 0 0 0 0 0 0 0 0 0 0 0 201 324 91 0 0 0 0 0 0 0 0 0 0 0 0 0 0 0
0 0 0 0 0 0 0 14 54 92 138 208 287 333 352 331 238 216 211 172 109 77 109 190 260 264 241 179 102 21 0 0 0 0 0 0 0 0 0 0 0 0 0 0 0 0 0 0 0 0 0 0 0 0 0 0 0 0 0 0 0 0 0 0 0 0 0 0 0 0 0 0 0 0 0 179 295 62 0 0 0 0 0 0 0 0 0 0 0 0 0 0 0
0 0 0 0 0 0 0 6 34 84 137 209 277 330 351 352 280 204 204 177 121 76 38 78 204 297 256 172 98 0 0 0 0 0 0 0 0 0 0 0 0 0 0 0 0 0 0 0 0 0 0 0 0 0 0 0 0 0 0 0 0 0 0 0 0 0 0 0 0 0 0 0 0 0 0 0 266 168 0 0 0 0 0 0 0 0 0 0 0 0 0 0 0
4 4 0 0 0 0 0 4 17 74 126 201 265 318 347 353 335 248 200 159 99 44 0 0 155 307 255 146 63 0 0 0 0 0 0 0 0 0 0 0 0 0 0 0 0 0 0 0 0 0 0 0 0 0 0 0 0 0 0 0 0 0 0 0 0 0 0 0 0 0 0 0 0 0 178 288 401 363 0 0 0 0 0 0 0 0 0 0 0 0 0 0 0
0 8 12 0 0 0 6 7 19 74 124 188 247 301 337 349 354 279 180 120 99 36 0 0 150 308 260 125 0 0 0 0 0 0 0 0 0 0 0 0 0 0 0 0 0 0 0 0 0 0 0 0 0 0 0 0 0 0 0 0 0 0 102 247 319 181 0 132 124 123 151 180 223 366 428 383 249 152 47 0 0 0 0 0 0 0 0 0 0 0 0 0 0
0 8 22 10 5 18 47 28 25 78 127 176 216 270 319 335 353 326 194 122 62 0 0 0 140 300 292 154 30 0 0 0 0 0 0 0 0 0 0 0 0 0 0 0 0 0 0 0 0 0 0 0 0 0 0 0 0 0 0 0 0 267 420 333 240 407 408 375 348 274 299 364 403 424 340 0 0 0 0 0 0 0 0 0 0 0 0 0 0 0 0 0 0
0 0 27 35 10 27 66 66 37 81 130 160 192 228 301 319 343 351 259 82 0 0 0 0 75 259 315 274 139 32 0 0 0 0 0 0 0 0 0 0 0 0 0 0 0 0 0 0 0 0 0 0 0 0 0 0 0 0 0 0 134 393 190 0 0 0 0 0 0 0 0 0 0 0 0 0 0 0 0 0 0 0 0 0 0 0 0 0 0 0 0 0 0
0 0 29 34 11 27 73 80 55 95 130 147 175 205 282 298 318 345 316 167 0 0 0 0 0 131 277 319 279 143 21 0 0 0 0 0 0 0 0 0 0 0 0 0 0 0 0 0 0 0 0 0 0 0 0 0 0 0 0 0 218 312 0 0 0 0 0 0 0 0 0 0 0 0 0 0 0 0 0 0 0 0 0 0 0 0 0 0 0 0 0 0 0
0 0 29 34 10 23 78 84 66 113 131 138 146 176 243 267 293 333 341 242 0 0 0 0 0 0 150 287 318 240 64 0 0 0 0 0 0 0 0 0 0 0 0 0 0 0 0 0 0 0 0 0 0 0 0 0 0 48 0 0 211 195 0 0 0 0 0 0 0 0 0 0 0 0 0 0 0 0 0 0 0 0 0 0 0 0 0 0 0 0 0 0 0
0 0 32 33 8 20 78 76 63 116 134 133 128 154 199 210 204 306 352 279 154 0 0 0 0 0 57 204 306 311 180 37 0 0 0 0 0 0 0 0 0 0 0 0 0 0 0 0 0 0 0 0 0 0 0 0 243 75 0 0 249 193 0 0 0 0 0 0 0 0 0 0 0 0 0 0 0 0 0 0 0 0 0 0 0 0 0 0 0 0 0 0 0
0 0 35 32 9 18 79 66 55 100 138 140 103 120 169 162 156 231 361 281 216 112 0 0 0 0 0 89 239 313 311 182 32 8 0 0 0 0 0 0 0 0 0 0 0 0 0 0 0 0 0 0 0 0 186 360 140 0 0 0 351 226 0 0 0 0 0 0 0 0 0 0 0 0 0 0 0 0 0 0 0 0 0 0 0 0 0 0 0 0 0 0 0
0 17 37 13 0 13 69 70 60 84 129 143 128 102 131 67 115 183 353 320 192 154 35 0 0 0 0 0 0 219 307 302 161 69 36 18 0 0 0 0 0 0 0 0 0 0 0 0 0 0 0 0 0 258 419 212 0 0 0 0 291 331 0 0 0 0 0 0 0 0 0 0 0 0 0 0 0 0 0 0 0 0 0 0 0 0 0 0 0 0 0 0 0
0 29 19 0 0 9 53 86 79 73 113 138 146 118 104 64 83 151 275 342 218 184 95 0 0 0 0 0 0 0 162 300 281 149 93 84 24 0 0 0 0 0 0 0 0 0 0 0 0 0 0 0 0 162 383 82 0 0 0 0 0 398 359 172 87 0 0 0 0 0 0 0 0 0 0 0 0 0 0 0 0 0 0 0 0 0 0 0 0 0 0 0 0
0 30 0 0 0 0 35 73 91 95 108 136 151 136 105 88 82 133 205 309 312 225 139 29 0 0 0 0 0 0 0 166 321 279 181 123 72 15 0 49 98 0 0 0 0 0 0 0 0 0 42 70 0 212 416 139 0 0 0 0 0 0 428 244 0 0 0 0 0 0 0 0 0 0 0 0 0 0 0 0 0 0 0 0 0 0 0 0 0 0 0 0 0
0 34 0 0 0 0 23 55 67 95 121 140 153 152 123 101 86 123 178 251 320 282 181 59 9 0 0 0 0 0 0 0 235 313 255 156 81 21 0 157 321 325 234 109 0 0 0 0 0 0 110 266 151 263 409 140 0 0 0 0 0 0 415 217 0 0 0 0 0 0 0 0 0 0 0 0 0 0 0 0 0 0 0 0 0 0 0 0 0 0 0 0 0
0 34 0 0 0 0 17 39 36 64 107 137 155 162 150 126 100 121 170 229 280 321 243 133 37 0 0 0 0 0 0 0 181 312 283 157 124 97 153 273 183 246 334 346 344 201 0 92 116 69 287 427 428 428 235 0 0 0 0 0 0 383 406 132 0 0 0 0 0 0 0 0 0 0 0 0 0 0 0 0 0 0 0 0 0 0 0 0 0 0 0 0 0
0 21 21 0 0 0 19 31 18 25 74 128 151 167 168 152 118 127 169 214 251 309 309 131 23 0 0 0 0 0 0 0 163 313 262 133 150 196 271 214 0 0 71 101 222 390 421 421 414 327 395 428 428 364 0 0 0 0 0 0 398 414 143 0 0 0 0 0 0 0 0 0 0 0 0 0 0 0 0 0 0 0 0 0 0 0 0 0 0 0 0 0 0
0 17 35 0 0 0 24 12 4 4 30 100 141 164 174 171 149 142 166 192 234 288 326 182 63 0 0 0 0 0 0 0 149 310 209 92 132 232 265 82 16 41 29 0 0 0 214 171 0 242 321 387 428 428 301 0 73 258 163 369 402 223 0 0 0 0 0 0 0 0 0 0 0 0 0 0 0 0 0 0 0 0 0 0 0 0 0 0 0 0 0 0 0
0 0 35 0 0 0 27 4 0 0 0 55 120 156 175 177 171 156 160 185 223 271 313 264 86 0 0 0 0 0 0 0 133 306 254 138 183 274 210 52 34 39 0 0 0 0 0 0 0 0 0 0 161 181 353 383 380 428 414 399 135 0 0 0 0 0 0 0 0 0 0 0 0 0 0 0 0 0 0 0 0 0 0 0 0 0 0 0 0 0 0 0 0
0 4 34 21 0 0 27 0 0 0 0 0 96 137 173 177 178 169 162 178 205 269 302 322 127 0 0 0 0 0 0 0 118 308 353 322 283 253 138 41 0 0 0 0 0 0 0 0 0 0 0 0 0 113 201 274 274 188 0 0 0 0 0 0 0 0 0 0 0 0 0 0 0 0 0 0 0 0 0 0 0 0 0 0 0 0 0 0 0 0 0 0 0
0 6 45 28 0 0 35 0 0 0 0 0 38 124 167 178 180 179 161 162 182 218 290 339 206 45 0 0 0 0 0 0 78 303 346 358 319 233 90 0 0 0 0 0 0 0 0 0 47 64 69 85 92 78 126 42 0 0 0 0 0 0 0 0 0 0 0 0 0 0 0 0 0 0 0 0 0 0 0 0 0 0 0 0 0 0 0 0 0 0 0 0 0
0 0 23 37 15 0 9 27 0 0 4 8 0 55 160 179 184 185 129 129 174 196 221 331 282 113 0 0 0 0 0 0 0 266 340 353 318 213 53 0 0 0 0 0 0 0 0 60 82 0 0 0 0 0 0 13 0 0 0 0 0 0 0 0 0 0 0 0 0 0 0 0 0 0 0 0 0 0 0 0 0 0 0 0 0 0 0 0 0 0 0 0 0
0 0 0 8 7 20 15 73 25 19 14 24 37 31 100 182 195 183 131 135 174 178 176 292 317 199 65 0 0 0 0 0 0 190 333 349 335 243 167 50 0 0 0 0 0 107 118 60 0 0 0 0 0 0 0 22 0 0 0 0 0 0 0 0 0 0 0 0 0 0 0 0 0 0 0 0 0 0 0 0 0 0 0 0 0 0 0 0 0 0 0 0 0
0 0 0 0 0 18 39 102 104 92 62 45 86 123 77 152 193 170 154 170 170 145 136 202 317 316 168 32 0 0 0 0 0 152 302 348 351 225 220 110 27 0 0 0 0 128 0 0 0 0 0 0 0 0 0 0 0 0 0 0 0 0 0 0 0 0 0 0 0 0 0 0 0 0 0 0 0 0 0 0 0 0 0 0 0 0 0 0 0 0 0 0 0
0 0 0 0 0 6 37 85 134 159 124 97 110 184 165 197 184 166 185 169 152 124 128 128 209 328 273 94 0 0 0 0 0 114 273 339 357 243 207 148 68 28 0 30 138 60 0 0 0 0 0 0 0 0 0 0 0 0 0 0 0 0 0 0 0 0 0 0 0 0 0 0 0 0 0 0 0 0 0 0 0 0 0 0 0 0 0 0 0 0 0 0 0
0 0 0 0 0 0 24 71 120 164 179 163 154 203 242 247 180 173 188 177 140 109 98 73 117 231 332 247 79 0 0 0 0 0 244 333 369 265 202 220 169 95 51 75 0 0 0 0 0 0 0 0 0 0 0 0 0 0 0 0 0 0 0 0 0 0 0 0 0 0 0 0 0 0 0 0 0 0 0 0 0 0 0 0 0 0 0 0 0 0 0 0 0
0 0 0 0 0 0 16 52 98 145 174 216 233 242 301 287 209 178 174 183 148 96 62 23 46 124 239 327 205 0 0 0 0 0 194 296 354 223 166 220 194 116 45 30 0 0 0 0 0 0 0 0 0 0 0 0 0 0 0 0 0 0 0 0 0 0 0 0 0 0 0 0 0 0 0 0 0 0 0 0 0 0 0 0 0 0 0 0 0 0 0 0 0
0 0 0 0 0 0 5 36 77 124 144 188 245 296 324 317 255 190 117 168 160 73 24 0 9 54 130 250 293 82 0 0 0 0 125 295 319 209 175 212 243 151 72 37 0 0 0 0 0 0 0 0 0 0 0 0 0 0 0 0 0 0 0 0 0 0 0 0 0 0 0 0 0 0 0 0 0 0 0 0 0 0 0 0 0 0 0 0 0 0 0 0 0
0 0 0 0 0 0 4 18 59 112 136 159 216 279 325 334 304 222 158 187 175 65 11 0 0 0 64 136 241 282 62 0 0 0 45 266 385 339 318 281 271 194 79 0 0 0 0 0 0 0 0 0 0 0 0 0 0 0 0 0 0 0 0 0 0 0 0 0 0 0 0 0 0 0 0 0 0 0 0 0 0 0 0 0 0 0 0 0 0 0 0 0 0
0 0 0 0 0 0 0 8 40 90 133 156 190 243 312 336 338 326 289 269 237 140 34 0 0 0 0 44 97 183 230 0 0 0 0 212 373 364 339 274 256 193 69 7 0 0 0 0 0 0 0 0 0 0 0 0 0 0 0 0 0 0 0 0 0 0 0 0 0 0 0 0 0 0 0 0 0 0 0 0 0 0 0 0 0 0 0 0 0 0 0 0 0
0 0 0 0 0 0 0 5 32 70 111 153 180 217 292 331 338 338 328 326 315 252 77 0 0 0 0 0 19 27 227 169 0 0 0 178 360 367 320 248 171 142 44 37 0 0 0 0 0 0 0 0 0 0 0 0 0 0 0 0 0 0 0 0 0 0 0 0 0 0 0 0 0 0 0 0 0 0 0 0 0 0 0 0 0 0 0 0 0 0 0 0 0
0 0 0 0 0 0 0 0 9 40 84 123 162 197 259 325 340 341 337 331 332 306 245 69 0 0 0 0 0 19 76 194 74 0 0 160 368 376 307 211 157 113 45 78 0 0 0 0 0 0 0 0 0 0 0 0 0 0 0 0 0 0 0 0 0 0 0 0 0 0 0 0 0 0 0 0 0 0 0 0 0 0 0 0 0 0 0 0 0 0 0 0 0
0 0 0 0 0 0 0 0 0 8 53 97 122 161 210 284 336 345 347 342 337 329 298 171 18 0 0 0 0 17 40 67 148 0 0 185 388 363 276 211 154 96 82 56 0 0 0 0 0 0 0 0 0 0 0 0 0 0 0 0 0 0 0 0 0 0 0 0 0 0 0 0 0 0 0 0 0 0 0 0 0 0 0 0 0 0 0 0 0 0 0 0 0
0 0 0 0 0 0 0 0 0 0 15 59 83 106 169 210 280 329 347 350 347 335 321 242 47 35 0 0 0 0 30 29 141 0 0 240 416 310 234 203 140 89 109 45 0 0 0 0 0 0 0 0 0 0 0 0 0 0 0 0 0 0 0 0 0 0 0 0 0 0 0 0 0 0 0 0 0 0 0 0 0 0 0 0 0 0 0 0 0 0 0 0 0
0 0 0 0 0 0 0 0 0 0 0 0 35 85 125 169 201 263 326 347 349 340 331 278 159 155 121 64 0 0 0 69 182 89 0 319 400 218 173 124 67 102 116 57 0 0 0 0 0 0 0 0 0 0 0 0 0 0 0 0 0 0 0 0 0 0 0 0 0 0 0 0 0 0 0 0 0 0 0 0 0 0 0 0 0 0 0 0 0 0 0 0 0
0 0 0 0 0 0 0 0 0 0 0 0 7 42 72 108 135 155 233 302 342 348 335 317 273 225 173 91 85 0 0 80 233 195 225 390 372 173 132 32 18 57 118 67 0 0 0 0 0 0 0 0 0 0 0 0 0 0 0 0 0 0 0 0 0 0 0 0 0 0 0 0 0 0 0 0 0 0 0 0 0 0 0 0 0 0 0 0 0 0 0 0 0
0 0 0 0 0 0 0 0 0 0 0 0 0 0 0 24 57 77 127 232 283 331 346 321 283 263 209 88 113 57 0 136 271 275 349 390 363 187 113 42 13 21 84 48 0 0 0 0 0 0 0 0 0 0 0 0 0 0 0 0 0 0 0 0 0 0 0 0 0 0 0 0 0 0 0 0 0 0 0 0 0 0 0 0 0 0 0 0 0 0 0 0 0
0 0 0 0 0 0 0 0 0 0 0 0 0 0 0 0 9 41 84 168 261 297 334 341 298 289 266 189 81 109 104 134 247 331 378 389 373 225 134 100 43 0 40 25 0 0 0 0 0 0 0 0 0 0 0 0 0 0 0 0 0 0 0 0 0 0 0 0 0 0 0 0 0 0 0 0 0 0 0 0 0 0 0 0 0 0 0 0 0 0 0 0 0
0 0 0 0 0 0 0 0 0 0 0 0 0 0 0 0 0 18 67 119 207 282 320 337 322 319 316 277 221 166 127 138 138 320 382 389 377 290 163 145 90 0 0 69 42 17 0 0 0 0 0 0 0 0 0 0 0 0 0 0 0 0 0 0 0 0 0 0 0 0 0 0 0 0 0 0 0 0 0 0 0 0 0 0 0 0 0 0 0 0 0 0 0
0 0 0 0 0 0 0 0 0 0 0 0 0 0 0 0 0 0 38 76 167 242 281 318 326 330 330 305 267 275 204 217 167 324 384 394 386 340 216 175 144 0 17 97 89 0 0 0 0 0 0 0 0 0 0 0 0 0 0 0 0 0 0 0 0 0 0 0 0 0 0 0 0 0 0 0 0 0 0 0 0 0 0 0 0 0 0 0 0 0 0 0 0
0 0 0 0 0 0 0 0 0 0 0 0 0 0 0 0 0 0 10 57 124 207 278 287 316 324 344 351 299 297 301 284 240 347 389 399 395 367 269 197 196 86 76 110 75 0 0 0 0 0 0 0 0 0 0 0 0 0 0 0 0 0 0 0 0 0 0 0 0 0 0 0 0 0 0 0 0 0 0 0 0 0 0 0 0 0 0 0 0 0 0 0 0
0 0 0 0 0 0 0 0 0 0 0 0 0 0 0 0 0 0 0 0 45 150 232 269 295 303 294 325 327 278 276 309 320 366 394 401 400 385 319 226 210 213 191 131 83 0 0 0 0 0 0 0 0 0 0 0 0 0 0 0 0 0 0 0 0 0 0 0 0 0 0 0 0 0 0 0 0 0 0 0 0 0 0 0 0 0 0 0 0 0 0 0 0
0 0 0 0 0 0 0 0 0 0 0 0 0 0 0 0 0 0 0 0 0 56 150 185 252 246 172 269 336 283 255 261 284 336 390 401 403 400 346 272 222 206 218 221 184 78 0 0 0 0 0 0 0 0 0 0 0 0 0 0 0 0 0 0 0 0 0 0 0 0 0 0 0 0 0 0 0 0 0 0 0 0 0 0 0 0 0 0 0 0 0 0 0
0 0 0 0 0 0 0 0 0 0 0 0 0 0 0 0 0 0 0 0 0 27 86 92 220 237 81 201 388 374 305 247 243 247 324 394 401 410 368 309 257 222 214 223 220 165 64 47 21 0 0 0 0 0 0 0 0 0 0 0 0 0 0 0 0 0 0 0 0 0 0 0 0 0 0 0 0 0 0 0 0 0 0 0 0 0 0 0 0 0 0 0 0
0 0 0 0 0 0 0 0 0 0 0 0 0 0 0 0 0 0 0 0 0 0 46 43 114 217 171 127 372 408 361 259 255 216 238 324 392 404 400 328 278 227 211 216 220 204 165 119 41 16 17 0 0 0 0 0 0 0 0 0 0 0 0 0 0 0 0 0 0 0 0 0 0 0 0 0 0 0 0 0 0 0 0 0 149 179 162 138 70 11 4 0 0
0 0 0 0 0 0 0 0 0 0 0 0 0 0 0 0 0 0 0 0 0 0 0 0 28 68 171 236 327 404 408 366 322 271 222 244 345 394 409 365 314 269 206 195 201 206 211 191 145 72 76 51 0 0 0 0 0 0 0 0 0 0 0 0 0 0 0 0 0 0 0 0 0 0 0 0 0 0 0 0 0 0 0 131 228 146 98 97 90 27 0 0 0
0 0 0 0 0 0 0 0 0 0 0 0 0 0 0 0 0 0 0 0 0 0 0 0 20 48 66 232 354 398 409 413 402 344 270 253 303 370 400 394 331 325 252 191 174 159 161 172 185 161 129 92 0 0 0 0 0 0 0 0 0 0 0 0 0 0 0 0 0 0 0 0 0 0 0 0 0 0 0 0 0 0 0 201 240 63 0 0 0 0 0 0 0
0 0 0 0 0 0 0 0 0 0 0 0 0 0 0 0 0 0 0 0 0 0 0 0 0 24 65 159 257 332 399 412 415 408 364 331 329 347 389 419 313 286 311 216 178 144 102 110 152 169 154 85 0 0 0 0 0 0 0 0 0 0 0 0 0 0 0 0 0 0 0 0 0 0 0 0 0 0 0 0 0 0 97 263 208 38 0 0 0 0 0 0 0
0 0 0 0 0 0 0 0 0 0 0 0 0 0 0 0 0 0 0 0 0 0 9 12 0 0 35 59 82 204 326 407 413 414 409 393 364 351 368 413 338 306 360 259 193 169 92 106 130 167 164 114 37 7 0 0 0 0 0 0 0 0 0 0 0 0 82 168 196 223 201 215 216 203 111 80 139 140 115 31 0 127 266 212 54 0 0 0 0 0 0 0 0
0 0 0 0 0 0 0 0 0 0 0 0 0 0 0 0 0 0 0 0 0 0 0 16 16 12 22 41 50 123 214 365 411 413 413 411 391 376 351 367 404 394 392 318 221 187 155 128 127 160 174 121 86 38 0 0 0 0 0 0 0 0 0 0 0 0 132 194 173 61 0 113 99 192 217 200 154 165 133 105 214 267 175 0 0 0 0 0 0 0 0 0 0
0 0 0 0 0 0 0 0 0 0 0 0 0 0 0 0 0 0 0 0 0 0 0 0 0 0 31 49 64 86 146 303 404 414 414 413 409 396 357 336 357 400 398 371 266 205 190 164 130 138 172 173 149 76 18 0 0 0 0 0 0 0 0 0 0 0 113 193 0 0 0 0 0 67 212 177 0 94 140 125 212 130 0 0 0 0 0 0 0 0 0 0 0
0 0 0 0 0 0 0 0 0 0 0 0 0 0 0 0 0 0 0 0 0 0 0 0 0 0 0 24 61 91 168 275 359 409 412 413 413 413 368 340 288 386 400 382 323 225 119 176 151 118 144 171 172 145 79 20 0 0 0 0 0 0 0 0 0 106 136 0 0 0 0 0 0 79 226 80 0 71 159 125 66 0 0 0 0 0 0 0 0 0 0 0 0
0 0 0 0 0 0 0 0 0 0 0 0 0 0 0 0 0 0 0 0 0 0 0 0 0 0 0 0 11 46 128 205 281 371 395 408 414 416 410 398 331 371 399 374 348 265 111 115 179 166 130 151 172 173 144 91 29 0 0 0 0 0 0 0 0 93 57 0 0 0 0 0 0 74 232 96 50 143 174 60 0 0 0 0 0 0 0 0 0 0 0 0 0
0 0 0 0 0 0 0 0 0 0 0 0 0 0 0 0 0 0 0 0 0 0 0 0 0 0 0 0 0 6 37 131 227 321 349 376 411 413 412 410 402 394 395 361 349 301 172 67 151 195 175 133 147 173 172 149 91 28 0 0 0 0 0 0 37 90 28 0 30 17 35 0 0 78 233 147 216 195 0 0 0 0 0 0 0 0 0 0 0 0 0 0 0
0 0 0 0 0 0 0 0 0 0 0 0 0 0 0 0 0 0 0 0 0 0 0 0 0 0 0 0 0 0 8 67 184 263 318 325 371 409 412 411 408 408 397 329 342 326 237 67 113 188 214 151 93 150 170 170 142 89 0 0 0 0 0 50 82 50 42 121 74 47 20 8 0 109 204 167 239 179 0 0 0 0 0 0 0 0 0 0 0 0 0 0 0
0 0 0 0 0 0 0 0 0 0 0 0 0 0 0 0 0 0 0 0 0 0 0 0 0 0 0 0 0 0 0 11 71 195 283 296 299 376 411 411 409 409 404 327 288 328 289 155 98 191 228 190 110 94 151 173 160 104 23 0 0 36 65 74 96 112 155 181 147 90 22 0 0 157 236 208 240 133 0 0 0 0 0 0 0 0 0 0 0 0 0 0 0
0 0 0 0 0 0 0 0 0 0 0 0 0 0 0 0 0 0 0 0 0 0 0 0 0 0 0 0 0 0 0 0 35 58 208 226 242 287 388 410 409 408 408 386 307 285 306 237 132 185 236 244 164 111 111 166 175 155 100 80 48 37 34 0 32 145 220 234 193 61 64 81 63 221 244 245 189 0 0 0 0 0 0 0 0 0 0 0 0 0 0 0 0
0 0 0 0 0 0 0 0 0 0 0 0 0 0 0 0 0 0 0 0 0 0 0 0 0 0 0 0 0 0 24 19 35 87 158 147 172 256 318 396 408 407 406 405 370 277 300 277 187 167 251 272 243 162 101 152 167 178 176 143 104 80 98 86 90 180 159 130 184 211 243 223 194 246 246 211 104 0 0 0 0 0 0 0 0 0 0 0 0 0 0 0 0
0 0 0 0 0 0 0 0 0 0 0 0 0 0 0 0 0 0 0 0 0 0 0 0 0 0 0 0 0 0 0 0 28 122 61 104 119 173 258 305 393 406 404 404 404 358 336 300 247 182 239 290 284 221 151 139 160 161 191 140 51 28 44 107 109 52 31 0 0 0 103 154 245 195 225 185 0 0 0 0 0 0 0 0 0 0 0 0 0 0 0 0 0
0 0 0 0 0 0 0 0 0 0 0 0 0 0 0 0 0 0 0 0 0 0 0 0 0 0 0 0 0 0 4 5 35 127 51 67 85 129 172 190 288 390 403 400 400 397 374 344 289 239 224 302 306 266 189 152 156 158 175 195 105 51 81 41 0 0 0 0 0 0 0 163 241 86 202 145 0 0 0 0 0 0 0 0 0 0 0 0 0 0 0 0 0
0 0 0 0 0 0 0 0 0 0 0 0 0 0 0 0 0 0 0 0 0 0 0 0 0 0 0 0 0 0 7 15 57 109 24 9 30 51 68 104 210 338 397 397 394 394 390 377 341 292 250 291 325 299 228 176 155 153 157 211 170 111 45 0 0 0 0 0 0 62 212 238 231 199 188 0 0 0 0 0 0 0 0 0 0 0 0 0 0 0 0 0 0
0 0 0 0 0 0 0 0 0 0 0 0 0 0 0 0 0 0 0 0 0 0 0 0 0 0 0 0 0 0 4 12 60 80 0 0 0 46 142 135 124 288 373 396 393 391 388 384 372 347 320 308 340 322 268 204 167 155 151 168 214 168 69 0 0 0 0 0 92 207 215 191 174 88 0 0 0 0 0 0 0 0 0 0 0 0 0 0 0 0 0 0 0
0 0 0 0 0 0 0 0 0 0 0 0 0 0 0 0 0 0 0 0 0 0 0 0 0 0 0 0 0 0 4 8 66 65 0 0 0 11 81 169 185 217 349 392 391 388 385 381 377 371 359 362 345 334 304 245 187 164 152 149 190 226 150 97 45 0 81 142 227 200 67 26 0 0 0 0 0 0 0 0 0 0 0 0 0 0 0 0 0 0 0 0 0
0 0 0 0 0 0 0 0 0 0 0 0 0 0 0 0 0 0 0 0 0 0 0 0 0 0 0 0 0 0 0 0 28 70 0 0 0 0 16 79 158 201 273 358 374 384 384 379 374 370 365 359 352 343 326 284 226 183 162 151 188 236 193 173 189 194 204 156 95 109 23 0 0 0 0 0 0 0 0 0 0 0 0 0 0 0 0 0 0 0 0 0 0
0 0 0 0 0 0 0 0 0 0 0 0 0 0 0 0 0 0 0 0 0 0 0 0 0 0 0 0 0 0 0 0 0 14 44 0 0 0 5 33 101 159 210 303 354 376 381 378 374 370 365 359 353 346 332 311 263 216 178 155 176 237 255 251 216 174 128 97 83 81 17 0 0 0 0 0 0 0 0 0 0 0 0 0 0 0 0 0 0 0 0 0 0
0 0 0 0 0 0 0 0 0 0 0 0 0 0 0 0 0 0 0 0 0 0 0 0 0 0 0 0 0 0 0 0 0 0 30 11 0 0 0 0 41 111 181 215 297 347 383 380 366 370 364 357 350 342 332 318 289 246 206 168 175 242 254 238 180 165 152 138 122 70 26 15 0 0 0 0 0 0 0 0 0 0 0 0 0 0 0 0 0 0 0 0 0
0 0 0 0 0 0 0 0 0 0 0 0 0 0 0 0 0 0 0 0 0 0 0 0 0 0 0 0 0 0 0 0 0 0 0 17 4 0 0 0 0 37 118 179 228 267 359 386 370 360 363 355 346 336 326 314 304 265 238 211 216 247 250 224 161 148 137 131 122 107 84 60 30 6 0 0 0 0 0 0 0 0 0 0 0 0 0 0 0 0 0 0 0
0 0 0 0 0 0 0 0 0 0 0 0 0 0 0 0 0 0 0 0 0 0 0 0 0 0 0 0 0 0 0 0 0 0 9 37 27 18 0 4 0 12 35 104 186 207 291 381 379 355 356 352 340 329 318 308 303 286 258 242 241 248 244 212 151 111 83 73 79 83 63 51 44 23 0 0 0 0 0 0 0 0 0 0 0 0 0 0 0 0 0 0 0
0 0 0 0 0 0 0 0 0 0 0 0 0 0 0 0 0 0 0 0 0 0 0 0 0 0 0 0 0 0 0 0 0 0 28 55 33 27 45 12 12 17 25 33 98 179 231 357 380 361 349 347 339 320 307 300 300 297 278 256 248 246 230 202 137 84 37 18 20 39 46 36 31 35 29 0 0 0 0 0 0 0 0 0 0 0 0 0 0 0 0 0 0
0 0 0 0 0 0 0 0 0 0 0 0 0 0 0 0 0 0 0 0 0 0 0 0 0 0 0 0 0 0 0 0 0 0 41 62 39 18 55 0 10 29 40 95 117 179 199 315 386 366 347 341 332 323 308 299 298 296 289 264 244 233 212 185 136 66 11 4 0 5 21 25 22 18 15 0 0 0 0 0 0 0 0 0 0 0 0 0 0 0 0 0 0
0 0 0 0 0 0 0 0 0 0 0 0 0 0 0 0 0 0 0 0 0 0 0 0 0 0 0 0 0 0 0 0 0 0 47 68 56 24 46 0 0 37 80 155 173 210 209 302 384 365 347 338 324 310 293 297 290 286 277 258 235 216 194 165 111 31 5 0 0 0 4 14 15 12 0 0 0 0 0 0 0 0 0 0 0 0 0 0 0 0 0 6 0
0 0 0 0 0 0 0 0 0 0 0 0 0 0 0 0 0 0 0 0 0 0 0 0 0 0 0 0 0 0 0 0 0 0 41 69 67 34 33 0 14 42 97 185 204 231 238 322 380 365 345 332 318 303 272 266 279 272 256 232 208 187 163 125 52 9 4 4 0 0 0 0 6 6 0 0 0 0 0 0 0 0 0 0 0 0 0 0 0 0 0 6 0
0 0 0 0 0 0 0 0 0 0 0 0 0 0 0 0 0 0 0 0 0 0 0 0 0 0 0 0 0 0 0 0 0 0 32 65 53 41 17 28 14 55 129 201 221 245 268 334 374 360 343 325 311 293 259 241 261 258 235 211 186 161 128 63 15 5 4 4 0 0 0 0 0 0 0 0 0 0 0 0 0 0 0 0 0 0 0 0 0 0 0 6 0
0 0 0 0 0 0 0 0 0 0 0 0 0 0 0 0 0 0 0 0 0 0 0 0 0 0 0 0 0 0 0 0 18 16 51 66 52 46 41 30 0 52 149 209 233 252 256 308 366 355 339 319 302 283 250 231 223 233 218 190 164 135 81 19 6 4 4 4 0 0 0 0 0 0 0 0 0 0 0 0 0 0 0 0 0 0 0 0 0 0 0 6 0
0 0 0 0 0 0 0 0 0 0 0 0 0 0 0 0 0 0 0 0 0 0 0 0 0 0 0 0 0 4 0 0 31 65 62 36 38 41 41 0 0 34 141 206 239 255 255 311 353 348 336 318 292 272 236 209 172 204 212 171 140 104 32 6 4 4 4 4 4 4 0 0 0 0 0 0 0 0 0 0 0 0 0 0 0 0 0 0 0 0 0 6 0
0 0 0 0 0 0 0 0 0 0 0 0 0 0 0 0 0 0 0 0 0 0 0 0 0 0 0 0 0 7 7 0 34 69 49 12 22 37 40 14 0 25 139 203 235 256 276 292 340 341 327 306 281 257 226 193 172 189 178 147 113 63 9 4 4 4 4 0 0 6 6 0 0 0 0 0 0 0 0 0 0 0 0 0 0 0 0 0 0 0 0 6 0
0 0 0 0 0 0 0 0 0 0 0 0 0 0 0 0 0 0 0 0 0 0 0 0 0 0 0 0 0 6 30 37 58 70 43 0 5 29 36 30 0 29 128 197 236 265 293 290 334 335 319 297 271 247 220 189 170 161 145 115 81 23 4 4 4 4 4 0 0 0 4 0 0 0 0 0 0 0 0 0 0 0 0 0 0 0 0 0 0 0 0 6 0
0 0 0 0 0 0 0 0 0 0 0 0 0 0 0 0 0 0 0 0 0 0 0 0 0 0 0 0 0 0 22 65 82 74 23 0 0 17 24 38 0 30 124 186 228 279 313 308 327 329 313 290 266 241 213 185 159 134 106 74 27 5 4 4 4 4 4 4 6 6 6 6 6 6 0 0 0 0 0 0 0 0 0 0 0 0 0 0 0 0 0 6 0
0 0 0 0 0 0 0 0 0 0 0 0 0 0 0 0 0 0 0 0 0 0 0 0 0 0 0 0 0 0 11 67 84 62 12 0 4 16 15 38 20 24 97 176 216 266 312 333 326 321 307 280 257 228 203 173 140 101 57 17 5 4 4 4 4 4 0 0 0 0 0 0 0 6 6 0 0 0 0 0 0 0 0 0 0 0 0 0 0 0 0 6 0
0 0 0 0 0 0 0 0 0 0 0 0 0 0 0 0 0 0 0 0 0 0 0 0 0 0 0 0 0 0 11 64 88 62 19 4 0 12 25 47 24 0 77 163 203 239 287 329 328 316 296 278 253 228 201 167 120 51 13 9 9 8 7 9 5 0 0 0 0 0 0 0 0 0 6 6 6 0 0 0 0 0 0 0 0 0 0 0 0 0 0 6 0
0 0 0 0 0 0 0 0 0 0 0 0 0 0 0 0 0 0 0 0 0 0 0 0 0 0 0 0 0 0 0 45 88 76 38 0 0 19 22 46 0 0 61 134 192 228 252 311 327 312 294 269 250 232 203 164 101 22 4 4 4 4 4 4 9 0 0 0 0 0 0 0 0 0 0 0 6 6 6 0 0 0 0 0 0 0 0 0 0 0 0 6 0
0 0 0 0 0 0 0 0 0 0 0 0 0 0 0 0 0 0 0 0 0 0 0 0 0 0 0 0 0 0 0 15 62 88 42 0 8 24 14 41 0 0 56 119 177 206 228 279 321 308 285 262 245 224 198 160 100 21 4 4 4 4 4 4 6 7 0 0 0 0 0 0 0 0 0 0 0 0 6 6 6 0 0 0 0 0 0 0 0 0 6 6 0
0 0 0 0 0 0 0 0 0 0 0 0 0 0 0 0 0 0 0 0 0 0 0 0 0 0 0 0 0 0 0 4 39 96 74 21 27 29 26 36 34 0 44 105 158 179 203 248 304 298 277 254 236 220 195 162 108 31 5 4 4 4 4 4 0 10 7 0 0 0 0 0 0 10 10 10 0 0 0 0 7 8 10 10 10 10 10 10 0 0 6 6 0
0 0 0 0 0 0 0 0 0 0 0 0 0 0 0 0 0 0 0 0 0 0 0 0 0 0 0 0 0 0 0 4 19 99 89 33 35 0 20 18 51 0 19 75 127 169 169 224 281 285 267 245 230 215 194 162 119 48 7 4 4 4 4 4 0 0 5 7 9 8 10 7 8 12 0 10 10 10 0 6 10 0 0 0 0 0 0 9 10 10 10 0 0
0 0 0 0 0 0 0 0 0 0 0 0 0 0 0 0 0 0 0 0 0 0 0 0 0 0 0 0 0 0 0 4 12 79 114 75 44 0 0 22 36 0 0 39 86 143 154 209 256 268 252 235 220 208 192 166 130 78 14 4 4 4 4 4 0 6 4 0 0 0 0 0 0 0 0 0 0 10 10 12 5 0 0 0 0 0 0 0 0 0 0 0 0
0 0 0 0 0 0 0 0 0 0 0 0 0 0 0 0 0 0 0 0 0 0 0 0 0 0 0 0 0 0 0 0 4 43 161 122 0 0 0 23 35 44 0 0 59 113 152 189 236 249 235 222 211 199 187 167 138 101 42 6 4 4 4 4 6 4 0 0 0 0 0 0 0 0 0 0 0 0 0 0 0 0 0 0 0 0 0 0 0 0 0 0 0
0 0 0 0 0 0 0 0 0 0 0 0 0 0 0 0 0 0 0 0 0 0 0 0 0 0 0 0 0 0 0 0 14 77 180 124 0 0 0 0 31 46 23 0 16 81 143 178 217 226 218 209 200 190 178 166 145 118 84 24 4 4 4 4 4 0 0 0 0 0 0 0 0 0 0 0 0 0 0 0 0 0 0 0 0 0 0 0 0 0 0 0 0
0 0 0 0 0 0 0 0 0 0 0 0 0 0 0 0 0 0 0 0 0 0 0 0 0 0 0 0 0 0 0 0 0 89 199 142 0 0 0 0 23 43 38 9 0 39 122 167 198 209 206 198 191 182 170 160 150 131 105 69 18 4 4 4 4 0 0 0 0 0 0 0 0 0 0 0 0 0 0 0 0 0 0 0 0 0 0 0 0 0 0 0 0
0 0 0 0 0 0 0 0 0 0 0 0 0 0 0 0 0 0 0 0 0 0 0 0 0 0 0 0 0 0 0 0 0 81 193 130 21 0 0 0 14 35 46 18 0 0 70 157 173 197 197 188 181 174 164 153 145 136 119 97 66 21 13 5 4 4 0 0 0 0 0 0 0 0 0 0 0 0 0 0 0 0 0 0 0 0 0 0 0 0 0 0 0
0 0 0 0 0 0 0 0 0 0 0 0 0 0 0 0 0 0 0 0 0 0 0 0 0 0 0 0 0 0 0 0 0 100 157 39 0 0 0 0 0 30 44 27 8 0 23 121 146 187 191 182 173 166 157 148 139 133 125 113 94 67 19 6 4 0 0 0 4 4 4 4 4 0 0 0 0 0 0 0 0 0 0 0 0 0 0 0 0 0 0 0 0
0 0 0 0 0 0 0 0 0 0 0 0 0 0 0 0 0 0 0 0 0 0 0 0 0 0 0 0 0 0 0 0 0 116 0 0 0 0 0 0 0 25 39 37 0 0 0 45 131 161 189 180 167 159 151 142 135 128 123 118 107 92 62 12 4 0 0 0 4 4 4 4 4 4 4 4 4 4 4 0 0 0 0 0 0 0 0 0 0 0 0 0 0
0 0 0 0 0 0 0 0 0 0 0 0 0 0 0 0 0 0 0 0 0 0 0 0 0 0 0 0 0 0 0 16 77 152 0 0 0 0 0 4 0 15 36 40 10 0 0 0 51 137 180 182 163 154 146 138 131 125 119 115 111 108 92 32 4 0 0 0 4 4 4 4 4 4 4 4 4 4 4 0 0 0 0 0 0 0 0 0 0 0 0 0 0
0 0 0 0 0 0 0 0 0 0 0 0 0 0 0 0 0 0 0 0 0 0 0 0 0 0 0 0 0 0 0 0 0 123 0 0 0 0 0 4 4 11 45 44 27 0 0 0 13 90 165 191 166 151 143 136 129 123 118 113 110 116 112 49 0 0 0 0 4 5 5 5 4 4 4 4 4 0 0 0 0 0 0 0 0 0 0 0 0 0 0 0 0
0 0 0 0 0 0 0 0 0 0 0 0 0 0 0 0 0 0 0 0 0 0 0 0 0 0 0 0 0 0 0 0 50 105 47 0 0 0 0 0 13 25 63 45 47 26 0 0 7 54 128 181 178 150 141 134 128 123 119 114 112 117 128 85 16 0 0 4 5 6 7 6 5 5 4 4 4 0 0 0 0 0 0 0 0 0 0 0 0 0 0 0 0
0 0 0 0 0 0 0 0 0 0 0 0 0 0 0 0 0 0 0 0 0 0 0 0 0 0 0 0 21 0 0 30 33 0 0 0 0 0 0 0 16 43 32 0 58 77 33 16 25 27 58 145 192 153 141 134 129 124 120 117 114 115 132 113 60 24 5 5 8 11 16 12 7 6 5 4 4 0 0 0 0 0 0 0 0 0 0 0 0 0 0 0 0
0 0 0 0 0 0 0 0 0 0 0 0 0 0 0 0 0 0 0 0 0 0 0 0 0 0 0 0 25 54 0 42 0 0 0 0 0 0 0 0 17 36 23 0 32 79 28 10 12 0 30 101 193 162 143 135 130 127 123 121 118 118 122 122 102 51 26 10 16 23 29 31 26 15 8 6 6 5 4 0 0 0 0 0 0 0 0 0 0 0 0 0 0
0 0 0 0 0 0 0 0 0 0 0 0 0 0 0 0 0 0 0 0 0 0 0 0 0 0 0 0 0 36 63 57 0 0 0 0 0 0 0 0 0 39 35 15 44 89 39 0 0 0 19 62 168 178 149 139 133 130 126 124 123 122 125 130 132 104 66 18 18 24 25 28 28 27 22 16 16 13 8 0 0 0 0 0 0 0 0 0 0 0 0 0 0
0 0 0 0 0 0 0 0 0 0 0 0 0 0 0 0 0 0 0 0 0 0 0 0 0 0 0 0 0 0 56 79 0 0 0 0 0 0 0 0 0 22 44 56 101 37 21 11 0 0 12 51 117 196 159 145 138 134 130 128 126 127 131 134 132 131 104 56 24 30 27 28 26 23 20 18 17 15 12 6 0 0 0 0 0 0 0 0 0 0 0 0 0
0 0 0 0 0 0 0 0 0 0 0 0 0 0 0 0 0 0 0 0 0 0 0 0 0 0 0 0 0 0 37 79 29 0 0 0 0 12 0 0 0 0 49 77 79 19 0 30 24 0 11 30 75 180 182 154 144 138 136 134 133 140 148 152 144 133 117 89 43 34 30 27 23 19 16 13 13 13 10 6 0 0 0 0 0 0 0 0 0 0 0 0 0
0 0 0 0 0 0 0 0 0 0 0 0 0 0 0 0 0 0 0 0 0 0 0 0 0 0 0 0 0 0 30 74 47 0 0 0 0 19 18 0 0 34 60 87 41 0 0 0 54 20 9 14 52 134 191 192 160 148 147 148 152 158 166 177 172 152 127 97 73 41 42 28 21 19 17 14 11 7 0 4 0 0 0 0 0 0 0 0 0 0 0 0 0
0 0 0 0 0 0 0 0 0 0 0 0 0 0 0 0 0 0 0 0 0 0 0 0 0 0 0 0 0 0 52 64 72 51 44 46 35 45 52 55 55 68 67 88 0 0 0 0 36 24 24 9 36 90 156 194 224 196 191 179 184 192 198 201 198 187 138 106 92 64 59 32 23 22 12 8 0 0 0 4 0 0 0 0 0 0 0 0 0 0 0 0 0
0 0 0 0 0 0 0 0 0 0 0 0 0 0 0 0 0 0 0 0 0 0 0 0 0 0 0 0 0 0 80 84 47 45 52 53 56 74 52 28 35 63 67 97 48 0 0 0 15 23 8 4 12 66 99 164 202 197 200 203 201 202 204 204 207 204 127 106 76 63 53 39 27 23 13 0 0 0 0 0 0 0 0 0 0 0 0 0 0 0 0 0 0
0 0 0 0 0 0 0 0 0 0 0 0 0 0 0 0 0 0 0 0 0 0 0 0 0 0 0 0 0 83 137 69 14 0 0 12 10 41 22 8 22 31 54 107 100 0 0 0 16 25 0 0 0 23 63 112 169 189 200 199 196 196 202 210 216 211 145 107 77 59 50 43 31 23 15 8 0 0 0 0 0 0 0 0 0 0 0 0 0 0 0 0 0
0 0 0 0 0 0 0 0 0 0 0 0 0 0 0 0 0 0 0 0 0 0 0 0 0 0 0 0 80 165 155 48 0 0 0 0 16 16 46 47 49 0 0 107 133 56 6 0 13 41 0 0 0 0 30 50 101 155 180 213 208 198 202 219 218 211 167 112 79 60 50 45 37 30 17 9 6 4 0 0 0 0 0 0 0 0 0 0 0 0 0 0 0
0 0 0 0 0 0 0 0 0 0 0 0 0 0 0 0 0 0 0 0 0 0 0 0 0 0 0 0 119 190 131 51 14 0 0 4 8 0 43 46 51 0 0 106 167 105 35 0 0 26 63 0 0 0 0 34 36 65 98 146 214 221 217 219 216 210 180 112 80 63 52 49 38 27 14 8 4 4 0 0 0 0 0 0 0 0 0 0 0 0 0 0 0
0 0 0 0 0 0 0 0 0 0 0 0 0 0 0 0 0 0 0 0 0 0 0 0 0 0 0 0 148 174 53 0 0 0 0 0 22 15 47 39 44 47 62 149 217 232 194 115 0 24 89 101 63 21 0 36 30 23 40 62 156 207 205 214 211 201 168 107 75 68 56 50 50 38 11 0 0 0 0 0 0 0 0 0 0 0 0 0 0 0 0 0 0
0 0 0 0 0 0 0 0 0 0 0 0 0 0 0 0 0 0 0 0 0 0 0 0 0 0 0 96 209 94 0 0 0 0 0 10 27 33 35 34 31 54 96 256 326 301 253 232 177 173 165 141 128 118 94 168 156 123 163 174 194 212 184 187 202 187 156 98 37 60 62 54 49 45 25 0 0 0 0 0 0 0 0 0 0 0 0 0 0 0 0 0 0
0 0 0 0 0 0 0 0 0 0 0 0 0 0 0 0 0 0 0 0 0 0 0 0 0 0 0 210 142 0 0 0 0 0 12 23 36 28 23 41 33 50 176 322 173 143 150 186 212 227 191 155 133 127 140 172 201 210 170 159 185 129 66 133 181 188 175 102 25 24 59 60 52 42 37 6 0 0 0 0 0 0 0 0 0 0 0 0 0 0 0 0 0
0 0 0 0 0 0 0 0 0 0 0 0 0 0 0 0 0 0 0 0 0 0 0 0 0 0 149 182 64 0 0 0 0 0 25 25 34 10 15 55 40 45 198 300 76 0 43 118 146 152 152 143 139 144 119 170 188 144 82 131 136 107 41 78 161 176 175 116 35 14 44 65 55 39 32 24 0 0 0 0 0 0 0 0 0 0 0 0 0 0 0 0 0
0 0 0 0 0 0 0 0 0 0 0 0 0 0 0 0 0 0 0 0 0 0 0 151 153 153 125 0 15 0 0 0 0 8 21 9 31 5 9 43 74 103 206 271 123 0 7 47 95 103 121 103 118 125 99 63 81 74 70 105 106 49 46 45 65 154 174 125 34 9 32 69 55 38 24 21 4 0 0 0 0 0 0 0 0 0 0 0 0 0 0 0 0
0 0 0 0 0 0 0 0 0 0 0 0 0 0 0 0 0 0 0 0 0 0 0 87 0 0 0 0 0 0 0 0 0 0 20 0 28 8 8 24 67 154 212 237 178 48 9 11 69 82 87 63 37 35 35 26 27 19 68 120 105 37 35 0 17 79 164 129 30 13 44 62 51 37 24 17 0 0 0 0 0 0 0 0 0 0 0 0 0 0 0 0 0
0 0 0 0 0 0 0 0 0 0 0 0 0 0 0 0 0 0 0 0 0 0 60 0 0 0 0 0 0 0 0 0 0 0 16 4 24 9 0 18 74 195 242 240 192 139 96 30 47 90 89 61 29 7 0 0 0 55 138 149 144 131 81 16 23 56 141 124 71 35 53 55 47 36 25 8 0 0 0 0 0 0 0 0 0 0 0 0 0 0 0 0 0
8 0 0 0 0 0 0 0 0 0 0 0 0 0 0 0 0 0 0 0 0 0 0 0 0 0 0 0 0 0 0 0 0 11 14 9 30 8 0 28 114 227 247 179 116 97 52 34 33 105 93 67 64 29 0 0 48 143 162 125 116 93 106 84 85 113 125 113 92 58 61 56 40 32 14 0 0 0 0 0 0 0 0 0 0 0 0 0 0 0 0 0 0
51 9 0 0 0 0 0 0 0 0 0 0 0 0 0 0 0 0 0 0 0 0 0 0 0 0 0 0 0 0 0 0 0 14 14 17 31 17 30 65 194 240 242 116 23 52 97 33 44 96 103 122 91 100 82 111 180 153 85 26 0 16 17 50 108 110 47 100 109 89 65 45 33 25 4 0 0 0 0 0 0 0 0 0 0 0 0 0 0 0 0 0 0
104 56 0 0 0 0 0 0 0 0 0 0 0 0 0 0 0 0 0 0 0 0 0 0 0 0 0 0 0 0 0 0 5 17 18 30 36 11 30 123 236 259 106 0 6 5 0 45 74 135 119 169 134 176 178 151 91 37 0 0 0 0 0 47 74 89 79 83 108 102 72 30 25 16 4 4 4 0 0 0 0 0 0 0 0 0 0 0 0 0 0 0 0
131 115 54 18 8 0 0 0 0 0 0 0 0 0 0 0 0 0 0 0 0 0 0 0 0 0 0 0 0 0 0 4 12 21 25 35 35 26 27 123 264 245 75 0 4 0 0 0 37 178 193 171 160 116 0 0 0 0 0 0 13 0 0 0 61 52 54 92 92 96 76 32 17 9 5 4 4 0 0 0 0 0 0 0 0 0 0 0 0 0 0 0 0
155 142 105 69 41 11 0 0 4 0 0 0 0 0 0 0 0 0 0 0 0 0 0 0 0 0 0 0 0 0 0 4 13 21 38 31 39 65 37 130 283 236 61 0 4 0 0 0 65 153 108 71 0 0 0 0 0 0 0 0 23 9 0 0 0 65 67 73 92 99 74 35 4 8 6 4 0 0 0 0 0 0 0 0 0 0 0 0 0 0 0 0 0
171 157 140 116 74 26 6 7 0 0 0 0 0 0 0 0 0 0 0 0 0 0 0 0 0 0 0 0 0 0 0 0 13 27 44 38 53 79 96 163 259 225 0 10 10 0 0 0 42 137 72 19 0 0 10 0 0 0 0 17 21 0 0 0 0 64 88 32 64 98 72 0 0 8 4 0 0 0 0 0 0 0 0 0 0 0 0 0 0 0 0 0 0
175 173 166 155 134 63 21 0 0 0 0 0 0 0 0 0 0 0 0 0 0 0 0 0 5 0 0 0 0 0 0 0 0 27 56 65 77 97 157 168 247 175 0 10 0 0 0 0 0 126 67 20 19 0 16 11 0 0 0 0 12 0 0 0 0 0 103 44 54 91 49 12 0 11 0 0 0 4 4 4 4 4 0 0 0 0 0 0 0 0 0 0 0
178 178 174 170 161 131 81 28 0 0 0 0 0 0 0 0 0 0 0 0 0 0 7 10 7 0 0 0 0 0 0 0 0 21 53 57 79 130 189 225 246 155 15 10 0 0 0 0 0 101 80 18 9 15 28 0 0 0 0 0 22 0 0 0 0 0 62 88 86 87 71 34 0 10 4 4 5 8 9 9 8 6 4 0 0 0 0 0 0 0 0 0 0
