ncols         93
nrows         151
xllcorner     -123.807403564453
yllcorner     -226449.671875
cellsize      1500
NODATA_value  -9999
0.0 0 11.3 9.1 39.5 0 0 16.7 16.8 17 17.3 17.6 17.8 18 18 18.1 18.3 18.4 18.6 18.7 18.7 18.7 0 0 16.5 0 0 0 0 0 0 0 16.2 16.5 0 0 0 0 17.1 0 17 17.1 17.2 0 0 0 0 0 0 0 0 0 0 0 0 0 0 0 0 0 0 0 0 0 0 0 0 0 0 0 0 0 0 0 0 0 0 0 0 0 0 0 0 0 0 0 0 0 0 0 0 0 0
0 0 16.2 9.4 35.6 0 0 0 17.1 17.4 17.8 18.3 18.7 19.1 19.5 19.1 19 19 19.2 19 0 0 0 0 17 0 0 0 0 0 0 16.2 16.4 0 0 0 17 17 17 0 0 17 17.2 0 0 0 0 0 0 0 0 0 0 0 0 0 0 0 0 0 0 0 0 0 0 0 0 0 0 0 0 0 0 0 0 0 0 0 0 0 0 0 0 0 0 0 0 0 0 0 0 0 0
0 0 19.9 9.6 0 0 0 0 17.4 17.8 18.4 18.9 19.4 19.9 19.9 0 0 0 25.5 0 0 0 0 0 17.5 17.2 17 0 0 0 0 16.3 16.6 0 0 16.9 16.9 0 0 0 0 17.1 17.1 0 0 0 0 0 0 0 0 0 0 0 0 0 0 0 0 0 0 0 0 0 0 0 0 0 0 0 0 0 0 0 0 0 0 0 0 0 0 0 0 0 0 0 0 0 0 0 0 0 0
0 0 22.8 10.8 0 0 0 17.4 17.8 18.2 18.8 19.3 19.7 20.1 20 0 0 0 0 0 0 0 0 0 17.4 17.4 17.3 17.2 17.1 0 0 16.6 16.8 17 17 16.9 0 0 0 0 17 17.1 17.1 0 0 0 0 0 0 0 0 0 0 0 0 0 0 0 0 0 0 0 0 0 0 0 0 0 0 0 0 0 0 0 0 0 0 0 0 0 0 0 0 0 0 0 0 0 0 0 0 0 0
0 0 19.5 11.4 0 0 0 17.6 18.1 18.5 19 19.5 19.8 20 19.6 0 0 0 0 0 0 0 0 0 17.7 17.3 0 0 0 0 0 0 17 17.1 0 0 0 0 0 0 17.1 17 17 0 0 0 0 0 0 0 0 0 0 0 0 0 0 0 0 0 0 0 0 0 0 0 0 0 0 0 0 0 0 0 0 0 0 0 0 0 0 0 0 0 0 0 0 0 0 0 0 0 0
0 0 21 10.4 0 0 17.5 18 18.5 18.9 19.3 19.6 19.9 0 19.1 0 0 0 0 0 0 0 16.9 17.4 17.7 0 0 0 0 0 0 0 17.1 17.3 0 0 0 0 0 0 17.6 17.2 17 0 0 0 0 0 0 0 0 0 0 0 0 0 0 0 0 0 0 0 0 0 0 0 0 0 0 0 0 0 0 0 0 0 0 0 0 0 0 0 0 0 0 0 0 0 0 0 0 0 0
0 0 11.3 17.4 0 0 17.5 18.2 18.8 19.2 19.5 19.9 0 0 19.8 20.1 33.5 0 0 0 0 0 17.4 17.6 17.7 0 0 0 0 0 0 0 17.4 17.5 0 0 0 0 0 17.4 17.7 0 0 0 0 0 0 0 0 0 0 0 0 0 0 0 0 0 0 0 0 0 0 0 0 0 0 0 0 0 0 0 0 0 0 0 0 0 0 0 0 0 0 0 0 0 0 0 0 0 0 0 0
0 26 6.4 32.9 0 0 18.2 18.6 19.1 19.5 19.7 20 20.4 20.2 20.2 20.2 20.5 0 0 0 0 0 17.8 18 17.9 17.6 0 0 0 0 0 17.8 17.7 17.7 0 0 0 17.2 17.3 17.4 17.3 0 0 0 0 0 0 0 0 0 0 0 0 0 0 0 0 0 0 0 0 0 0 0 0 0 0 0 0 0 0 0 0 0 0 0 0 0 0 0 0 0 0 0 0 0 0 0 0 0 0 0 0
0 28.8 7.9 13.9 24.4 21.2 17.7 19.2 19.3 19.5 19.6 19.8 20 19.9 20.2 20.5 0 0 0 0 0 0 18.1 18.2 18.1 18 0 18 18.1 18.3 18.5 18.4 18.2 18.2 18 17.8 17.6 17.5 17.4 17.4 0 0 0 0 0 0 0 0 0 0 0 0 0 0 0 0 0 0 0 0 0 0 0 0 0 0 0 0 0 0 0 0 0 0 0 0 0 0 0 0 0 0 0 0 0 0 0 0 0 0 0 0 0
0 35.2 10.9 7.6 11.4 19 18 19.9 19.7 19.7 19.6 19.5 19.6 20 20.2 0 0 0 0 0 0 0 18.7 18.6 18.5 18.5 18.7 18.8 18.9 19 19.2 19 18.6 18.5 18.3 18 17.7 17.4 17.2 0 0 0 0 0 0 0 0 0 0 0 0 0 0 0 0 0 0 0 0 0 0 0 0 0 0 0 0 0 0 0 0 0 0 0 0 0 0 0 0 0 0 0 0 0 0 0 0 0 0 0 0 0 0
0 34.3 13.9 8.8 11.3 19.3 20.7 20.6 20.5 20.5 20.5 20.3 20.3 20.9 0 17.9 18 18.4 18.7 19 19.2 19.6 19.8 19.3 19.1 19.1 19 19 19.1 0 19.2 0 0 0 0 0 0 0 0 0 0 0 0 0 0 0 0 0 0 0 0 0 0 0 0 0 0 0 0 0 0 0 0 0 0 0 0 0 0 0 0 0 0 0 0 0 0 0 0 0 0 0 0 0 0 0 0 0 0 0 0 0 0
0 37.4 18.3 12.5 15.9 22.9 22.1 21.6 21.2 21.2 21.1 21 20.6 21 19.7 19.1 19 19.6 19.8 20.1 20.4 20.5 20.7 20.1 19.6 19.6 19.4 19.3 19.2 19.2 19.3 19 18.7 0 0 0 0 0 0 0 0 0 0 0 0 0 0 0 0 0 0 0 0 0 0 0 0 0 0 0 0 0 0 0 0 0 0 0 0 0 0 0 0 0 0 0 0 0 0 0 0 0 0 0 0 0 0 0 0 0 0 0 0
0 33.9 23.2 17.9 21.5 24.8 23.4 22.3 21.8 21.5 21.1 20.7 20.2 19.8 20 20.4 20.2 20.4 20.7 21 21.2 21.2 20.9 0 0 19.4 0 0 0 0 19 18.8 0 0 0 0 0 0 0 0 0 0 0 0 0 0 0 0 0 0 0 0 0 0 0 0 0 0 0 0 0 0 0 0 0 0 0 0 0 0 0 0 0 0 0 0 0 0 0 0 0 0 0 0 0 0 0 0 0 0 0 0 0
0 27.4 25.4 21 24.4 25.8 24.1 23 22.4 22 21.5 21 20.5 20.4 20.3 0 20.9 21.1 21.4 21.6 21.7 21.6 20.8 0 0 18.7 0 0 0 0 0 0 0 0 0 0 0 0 0 0 0 0 0 0 0 0 0 0 0 0 0 0 0 0 0 0 0 0 0 0 0 0 0 0 0 0 0 0 0 0 0 0 0 0 0 0 0 0 0 0 0 0 0 0 0 0 0 0 0 0 0 0 0
0 29.2 27.6 24.3 26.6 26.6 24.8 23.6 23 22.5 22 21.5 21.1 20.8 20.6 0 0 21.4 21.8 22 22 21.8 20.9 0 0 17.5 17.8 0 0 0 0 0 0 0 0 0 0 0 0 0 0 0 0 0 0 0 0 0 0 0 0 0 0 0 0 0 0 0 0 0 0 0 0 0 0 0 0 0 0 0 0 0 0 0 0 0 0 0 0 0 0 0 0 0 0 0 0 0 0 0 0 0 0
0 0 27.2 26.6 27.6 26.9 25.3 24.1 23.5 22.9 22.4 22 21.7 21.5 21.4 0 0 0 22.2 22.2 22.2 22 21.1 0 0 0 18.1 0 0 0 0 0 0 0 0 0 0 0 0 0 0 0 0 0 0 0 0 0 0 0 0 0 0 0 0 0 0 0 0 0 0 0 0 0 0 0 0 0 0 0 0 0 0 0 0 0 0 0 0 0 0 0 0 0 0 0 0 0 0 0 0 0 0
0 0 26.5 28.1 28.2 27.2 25.8 24.6 24 23.4 22.9 22.5 22.3 22.2 22.1 22.3 28.8 22.5 22.4 22.3 22.2 22.1 21.3 0 0 0 0 0 0 0 0 0 0 0 0 0 0 0 0 0 0 0 0 0 0 0 0 0 0 0 0 0 0 0 0 0 0 0 0 0 0 0 0 0 0 0 0 0 0 0 0 0 0 0 0 0 0 0 0 0 0 0 0 0 0 0 0 0 0 0 0 0 0
0 0 27.6 28.6 29.3 28 26.4 25.2 24.5 23.8 23.2 22.7 22.2 21.8 21.3 20.8 22 21.1 21.7 21.9 22.2 22.3 21.6 0 0 0 0 0 0 0 0 0 0 0 0 0 0 0 0 0 0 0 0 0 0 0 0 0 0 0 0 0 0 0 0 0 0 0 0 0 0 0 0 0 0 0 0 0 0 0 0 0 0 0 0 0 0 0 0 0 0 0 0 0 0 0 0 0 0 0 0 0 0
0 0 25.5 26.8 29.1 28.3 26.9 25.6 24.8 24.4 23.7 23.3 22.9 22.6 22.2 21.7 21.5 22.1 21.8 22.3 22.8 22.7 21.6 19.8 0 0 0 0 0 0 0 0 0 0 0 0 0 0 0 0 0 0 0 0 0 0 0 0 0 0 0 0 0 0 0 0 0 0 0 0 0 0 0 0 0 0 0 0 0 0 0 0 0 0 0 0 0 0 0 0 0 0 0 0 0 0 0 0 0 0 0 0 0
0 0 30.8 26.8 29.9 29.1 27.5 26.1 25.1 24.4 23.9 23.5 23.2 22.9 22.7 22.6 22.6 0 23 23 23.3 23.2 22 20.4 0 0 0 0 0 0 0 0 0 0 0 0 0 0 0 0 0 0 0 0 0 0 0 0 0 0 0 0 0 0 0 0 0 0 0 0 0 0 0 0 0 0 0 0 0 0 0 0 0 0 0 0 0 0 0 0 0 0 0 0 0 0 0 0 0 0 0 0 0
0 0 0 28.6 30.3 29.5 27.8 26.4 25.4 24.7 24.3 24 23.7 23.4 23.3 23.3 23.2 23.2 0 0 0 23.9 22.5 21 0 0 0 0 0 0 0 0 0 0 0 0 0 0 0 0 0 0 0 0 0 0 0 0 0 0 0 0 0 0 0 0 0 0 0 0 0 0 0 0 0 0 0 0 0 0 0 0 0 0 0 0 0 0 0 0 0 0 0 0 0 0 0 0 0 0 0 0 0
0 0 0 29.1 27.6 29.6 28.1 26.7 25.7 25.1 24.6 24.3 24 23.6 23.2 22.9 22.8 23.3 23.4 22.5 22.7 32.4 22.7 21.2 0 0 0 0 0 0 0 0 0 0 0 0 0 0 0 0 0 0 0 0 0 0 0 0 0 0 0 0 0 0 0 0 0 0 0 0 0 0 0 0 0 0 0 0 0 0 0 0 0 0 0 0 0 0 0 0 0 0 0 0 0 0 0 0 0 0 0 0 0
0 0 0 41.5 29.1 30 28.5 27 26 25.4 24.9 24.6 24.4 24.1 23.8 23.4 22.8 22.7 23.1 23.5 23.1 23.1 21 21.1 19.1 0 0 0 0 0 0 0 0 0 0 0 0 0 0 0 0 0 0 0 0 0 0 0 0 0 0 0 0 0 0 0 0 0 0 0 0 0 0 0 0 0 0 0 0 0 0 0 13.8 0 0 0 0 0 0 0 0 0 0 0 0 0 0 0 0 0 0 0 0
0 0 0 0 30.3 29.9 28.6 27.3 26.3 25.7 25.2 24.9 24.7 24.5 24.3 24.2 23.8 23.5 23.7 23.9 24.4 23.3 23 21.8 20.4 0 0 0 0 0 0 0 0 0 0 0 0 0 0 0 0 0 0 0 0 0 0 0 0 0 0 0 0 0 0 0 0 0 0 0 0 0 0 0 0 0 0 0 0 0 0 13.8 13.8 0 0 0 0 0 0 0 0 0 0 0 0 0 0 0 0 0 0 0 0
0 0 0 0 29.4 29.5 28.8 27.6 26.7 26 25.5 25.2 25 24.9 24.8 24.7 24.6 25.9 24.3 24.3 24.5 24.5 23.9 22.8 21.3 19.1 0 0 0 0 0 0 0 0 0 0 0 0 0 0 0 0 0 0 0 0 0 0 0 0 0 0 0 0 0 0 0 0 0 0 0 0 0 0 0 0 0 0 0 0 0 0 13.8 13.8 0 0 0 0 0 0 0 0 0 0 0 0 0 0 0 0 0 0 0
0 0 0 0 28.4 26.9 28.8 27.9 27 26.3 25.8 25.5 25.2 25 25 24.9 24.8 24.5 25.4 24.6 24.4 24.4 23.9 23.1 22 20.1 18.2 0 0 0 0 0 0 0 0 0 0 0 0 0 0 0 0 0 0 0 0 0 0 0 0 0 0 0 0 0 0 0 0 0 0 0 0 0 0 0 0 0 0 0 0 0 13.8 13.9 0 0 0 0 0 0 0 0 0 0 0 0 0 0 0 0 0 0 0
0 0 0 0 41.6 29.7 29.5 28.4 27.4 26.6 26.1 25.7 25.5 25.3 25.1 25 24.9 25 24.9 24.8 24.6 24.3 24 23.3 22.9 21.5 19.4 0 0 0 0 0 0 0 0 0 0 0 0 0 0 0 0 0 0 0 0 0 0 0 0 0 0 0 0 0 0 0 0 0 0 0 0 0 0 0 0 0 0 0 0 0 0 13.9 13.9 0 0 0 0 0 0 0 0 0 0 0 0 0 0 0 0 0 0
0 0 0 0 0 29.9 29.5 28.6 27.7 27 26.5 26 25.7 25.5 25.3 25.2 25.1 25 25 24.8 24.5 24.1 23.8 23.3 23.3 22.4 20.3 0 0 0 0 0 0 0 0 0 0 0 0 0 0 0 0 0 0 0 0 0 0 0 0 0 0 0 0 0 0 0 0 0 0 0 0 0 0 0 0 0 0 0 0 0 0 13.9 14 14 0 0 0 0 0 0 0 0 0 0 0 0 0 0 0 0 0
0 0 0 0 0 29.8 29.8 29.1 28.3 27.6 26.9 26.4 26 25.6 25.4 25.3 25.2 25.2 25 24.7 24.3 23.8 23.6 23.7 0 22.4 20.4 18.5 0 0 0 0 0 0 0 0 0 0 0 0 0 0 0 0 0 0 0 0 0 0 0 0 0 0 0 0 0 0 0 0 0 0 0 0 0 0 0 0 0 0 0 0 0 0 14 14.1 14.1 0 0 0 0 0 0 0 0 0 0 0 0 0 0 0 0
0 0 0 0 0 30 28.5 29.6 28.8 28 27.3 26.7 26.2 25.8 25.5 25.4 25.3 25.2 25 24.6 24.1 23.5 24.2 0 0 22.1 20.5 19.1 0 0 0 0 0 0 0 0 0 0 0 0 0 0 0 0 0 0 0 0 0 0 0 0 0 0 0 0 0 0 0 0 0 0 0 0 0 0 0 0 0 0 0 0 0 0 0 14.1 14.1 0 0 0 0 0 0 0 0 0 0 0 0 0 0 0 0
0 0 0 0 0 0 30.2 30.5 29.6 28.7 27.9 27.1 26.5 26 25.6 25.5 25.3 25.2 25 24.6 24 23.4 23.7 23.5 23 22.3 20.9 19.4 18.4 0 0 0 0 0 0 0 0 0 0 0 0 0 0 0 0 0 0 0 0 0 0 0 0 0 0 0 0 0 0 0 0 0 0 0 0 0 0 0 0 0 0 0 0 0 0 14.1 14.2 14.2 0 0 0 0 0 0 0 0 0 0 0 0 0 0 0
0 0 0 0 0 0 32.8 29.4 30.3 29.4 28.5 27.5 26.8 26.1 25.7 25.5 25.4 25.2 25 24.6 24 23.4 23.5 23.8 23.5 22.6 21 19.2 18.1 0 0 0 0 0 0 0 0 0 0 0 0 0 0 0 0 0 0 0 0 0 0 0 0 0 0 0 0 0 0 0 0 0 0 0 0 0 0 0 0 0 0 0 0 0 0 14.2 14.2 14.2 0 0 0 0 0 0 0 0 0 0 0 0 0 0 0
0 0 0 0 0 0 0 30.4 29.5 29.9 29 27.9 27 26.3 25.8 25.5 25.3 25.1 24.9 24.5 24 23.9 23.9 23.9 23.7 22.7 21.3 19.5 18.2 17.7 0 0 0 0 0 0 0 0 0 0 0 0 0 0 0 0 0 0 0 0 0 0 0 0 0 0 0 0 0 0 0 0 0 0 0 0 0 0 0 0 0 0 0 0 0 14.1 14.2 14.2 0 0 0 0 0 0 0 0 0 0 0 0 0 0 0
0 0 0 0 0 0 0 41.7 29.8 30.3 29.4 28.3 27.2 26.4 25.8 25.5 25.2 25 24.7 24.4 23.9 24 24.6 24.1 23.7 22.6 21.3 19.7 18.2 0 0 0 0 0 0 0 0 0 0 0 0 0 0 0 0 0 0 0 0 0 0 0 0 0 0 0 0 0 0 0 0 0 0 0 0 0 0 0 0 0 0 0 0 0 0 0 14.2 14.1 0 0 0 0 0 0 0 0 0 0 0 0 0 0 0
0 0 0 0 0 0 0 0 29.4 30.2 29.5 28.4 27.3 26.4 25.8 25.4 25 24.7 24.3 24.1 23.5 23.2 0 0 24 22.8 21.4 19.5 18.2 0 0 0 0 0 0 0 0 0 0 0 0 0 0 0 0 0 0 0 0 0 0 0 0 0 0 0 0 0 0 0 0 0 0 0 0 0 0 0 0 0 0 0 0 0 14 14 14.1 14 0 0 0 0 0 0 0 0 0 0 0 0 0 0 0
0 32.7 27.3 0 0 0 39.5 37.6 27.6 29.7 29.4 28.3 27.2 26.3 25.7 25.2 24.8 24.4 23.9 23.8 23 22.9 0 0 24 23.1 21.4 18.8 0 0 0 0 0 0 0 0 0 0 0 0 0 0 0 0 0 0 0 0 0 0 0 0 0 0 0 0 0 0 0 0 0 0 13.1 13.2 13.3 13.4 0 13.8 13.9 13.9 13.9 13.9 13.9 14 14 14 14 13.9 13.9 0 0 0 0 0 0 0 0 0 0 0 0 0 0
0 31.2 27.8 29.6 43.2 31.5 31.2 31 29.1 29.2 28.9 28 27 26.1 25.5 25 24.5 24 23.6 23.3 22.5 0 0 0 23.9 23.3 21.3 18.7 16.4 0 0 0 0 0 0 0 0 0 0 0 0 0 0 0 0 0 0 0 0 0 0 0 0 0 0 0 0 0 0 0 0 13.2 13.4 13.5 13.5 13.7 14 14.1 14 14 13.9 13.9 13.9 13.9 13.9 0 0 0 0 0 0 0 0 0 0 0 0 0 0 0 0 0 0
0 0 29.5 18.2 31.3 29.3 30.5 30.1 29.7 29 28.4 27.6 26.7 25.8 25.3 24.8 24.3 23.8 23.2 22.3 0 0 0 0 24.2 23.8 21.5 19.8 17.6 16.1 0 0 0 0 0 0 0 0 0 0 0 0 0 0 0 0 0 0 0 0 0 0 0 0 0 0 0 0 0 0 13.1 13.4 13.5 0 0 0 0 0 0 0 0 0 0 0 0 0 0 0 0 0 0 0 0 0 0 0 0 0 0 0 0 0 0
0 0 29.5 18.7 29 28.8 30.5 30.1 29.5 28.8 28 27.2 26.4 25.6 25.1 24.7 24.2 23.6 23 22 0 0 0 0 0 24.6 22.7 21.2 19.2 17.3 16.1 0 0 0 0 0 0 0 0 0 0 0 0 0 0 0 0 0 0 0 0 0 0 0 0 0 0 0 0 0 13.3 13.5 0 0 0 0 0 0 0 0 0 0 0 0 0 0 0 0 0 0 0 0 0 0 0 0 0 0 0 0 0 0 0
0 0 29.2 24.8 30.3 28.9 30.5 30.1 29.4 28.6 27.8 27 26.2 25.5 25 24.6 24.1 23.6 23.1 22.3 0 0 0 0 0 0 23.3 22.2 20.8 19 17.4 0 0 0 0 0 0 0 0 0 0 0 0 0 0 0 0 0 0 0 0 0 0 0 0 0 0 13.3 0 0 13.4 13.5 0 0 0 0 0 0 0 0 0 0 0 0 0 0 0 0 0 0 0 0 0 0 0 0 0 0 0 0 0 0 0
0 0 29 28.9 34.3 30.4 30.3 30.1 29.3 28.5 27.6 26.8 26.1 25.3 24.9 24.5 24.1 23.6 23.2 22.6 21.3 0 0 0 0 0 24.1 23.3 22.4 20.7 18.6 16.6 0 0 0 0 0 0 0 0 0 0 0 0 0 0 0 0 0 0 0 0 0 0 0 0 13.9 13.6 0 0 13.4 13.6 0 0 0 0 0 0 0 0 0 0 0 0 0 0 0 0 0 0 0 0 0 0 0 0 0 0 0 0 0 0 0
0 0 29.1 28.9 33.4 30.1 30.2 30.3 29.4 28.5 27.6 26.8 26 25.3 24.9 24.5 24.1 23.5 23 22.4 22.1 21.3 0 0 0 0 0 24.2 23.6 22.3 20.1 18 16 17.1 0 0 0 0 0 0 0 0 0 0 0 0 0 0 0 0 0 0 0 0 13.8 14 14.2 0 0 0 13.5 13.7 0 0 0 0 0 0 0 0 0 0 0 0 0 0 0 0 0 0 0 0 0 0 0 0 0 0 0 0 0 0 0
0 25 24.9 26.9 0 29.1 30 30.3 29.4 28.5 27.6 26.8 26 25.3 24.9 24.5 24.2 23.8 23.3 22.7 22.3 21.9 21.6 0 0 0 0 0 0 23.1 21.8 19.8 17.9 16.6 15.7 15.3 0 0 0 0 0 0 0 0 0 0 0 0 0 0 0 0 0 14.1 14.1 14.2 0 0 0 0 13.6 13.9 0 0 0 0 0 0 0 0 0 0 0 0 0 0 0 0 0 0 0 0 0 0 0 0 0 0 0 0 0 0 0
0 23.4 25.5 0 0 32.1 30.9 30.7 29.7 28.8 27.8 27 26.2 25.5 25 24.6 24.2 23.8 23.3 22.8 22.4 21.9 21.5 0 0 0 0 0 0 0 22.9 21.6 19.6 17.9 16.7 16 15.5 0 0 0 0 0 0 0 0 0 0 0 0 0 0 0 0 14.5 14.4 14.4 0 0 0 0 0 14.3 13.9 13.6 13.5 0 0 0 0 0 0 0 0 0 0 0 0 0 0 0 0 0 0 0 0 0 0 0 0 0 0 0 0
0 27.5 0 0 0 0 31.3 31 30 29.1 28.1 27.2 26.5 25.7 25.2 24.7 24.3 23.9 23.4 23 22.5 22.2 22 21.9 0 0 0 0 0 0 0 22.5 20.9 19.1 17.7 16.6 15.8 15.1 0 14 14 0 0 0 0 0 0 0 0 0 14.5 14.6 0 14.7 14.6 14.4 0 0 0 0 0 0 13.7 13.6 0 0 0 0 0 0 0 0 0 0 0 0 0 0 0 0 0 0 0 0 0 0 0 0 0 0 0 0 0
0 27.9 0 0 0 0 31.5 31.2 30.4 29.6 28.6 27.6 26.8 26 25.4 24.8 24.4 23.9 23.4 22.9 22.4 22 21.7 21.4 25.7 0 0 0 0 0 0 0 21.5 20 18.6 17.4 16.5 15.8 0 14.5 14.5 14.4 14.3 14.1 0 0 0 0 0 0 14.6 14.7 14.8 14.8 14.6 14.4 0 0 0 0 0 0 13.6 13.6 0 0 0 0 0 0 0 0 0 0 0 0 0 0 0 0 0 0 0 0 0 0 0 0 0 0 0 0 0
0 24.9 0 0 0 0 31.5 31.2 30.7 30 29.1 28.1 27.2 26.3 25.6 25 24.4 24 23.5 23 22.5 22.1 21.8 21.6 21.5 0 0 0 0 0 0 0 22 20.7 19.3 18.1 17.3 16.5 15.8 15.4 15.1 14.9 14.9 14.8 14.6 14.8 0 14.2 14.4 14.6 14.8 14.8 14.9 14.8 14.6 0 0 0 0 0 0 13.6 13.7 13.6 0 0 0 0 0 0 0 0 0 0 0 0 0 0 0 0 0 0 0 0 0 0 0 0 0 0 0 0 0
0 24.9 26.8 0 0 0 31.2 30.9 30.9 30.4 29.8 28.8 27.8 26.8 25.9 25.1 24.5 23.9 23.4 22.9 22.4 22 21.6 21.5 22.4 0 0 0 0 0 0 0 22.1 21 19.9 18.7 17.9 17 16.4 15.9 0 0 15.6 15.5 15.5 15.8 15.3 15 15 15 15 15.1 15.1 14.9 0 0 0 0 0 0 13.7 13.8 13.7 0 0 0 0 0 0 0 0 0 0 0 0 0 0 0 0 0 0 0 0 0 0 0 0 0 0 0 0 0 0
0 25.8 27.4 0 0 0 29.2 30.3 0 44 30.2 29.5 28.4 27.3 26.3 25.3 24.6 24 23.4 22.9 22.4 22 21.6 21.2 20.7 0 0 0 0 0 0 0 22.1 21.3 20.2 19.2 18.3 17.5 16.9 16.3 16 15.9 16.1 0 0 0 14.9 14.9 0 15.1 15.1 15.3 15.3 15.1 14.8 0 14.2 14.1 13.9 13.9 13.9 13.9 0 0 0 0 0 0 0 0 0 0 0 0 0 0 0 0 0 0 0 0 0 0 0 0 0 0 0 0 0 0 0
0 0 28 0 0 0 29.9 0 0 0 0 29.7 29 27.9 26.7 25.6 24.7 24 23.4 22.9 22.4 21.9 21.5 21.2 21 0 0 0 0 0 0 0 22.1 21.4 20.5 19.5 18.7 17.9 17.2 16.7 16.4 16.1 0 0 0 0 0 0 0 0 0 0 15.4 15.2 15 14.8 14.5 14.3 14.1 13.8 13.7 0 0 0 0 0 0 0 0 0 0 0 0 0 0 0 0 0 0 0 0 0 0 0 0 0 0 0 0 0 0 0 0
0 40.7 27.7 27.8 0 0 29.8 0 0 0 0 0 29.4 28.4 27.2 25.9 24.9 24.1 23.5 23 22.5 22.1 21.6 21.4 21.2 0 0 0 0 0 0 0 22.3 21.7 20.8 19.8 19 18.1 17.5 16.7 0 0 0 0 0 0 0 0 0 0 0 0 0 15.6 15.3 15 14.6 14.3 0 0 0 0 0 0 0 0 0 0 0 0 0 0 0 0 0 0 0 0 0 0 0 0 0 0 0 0 0 0 0 0 0 0 0
0 34.8 28 28.2 0 0 26.7 0 0 0 0 0 29.7 28.9 27.7 26.2 25.1 24.3 23.6 23 22.5 22.1 21.8 21.5 21.5 21 0 0 0 0 0 0 22.4 22 21 20 19.1 18.2 17.3 0 0 0 0 0 0 0 0 0 15.8 15.9 16 16.1 16 15.7 15.1 14.8 0 0 0 0 0 0 0 0 0 0 0 0 0 0 0 0 0 0 0 0 0 0 0 0 0 0 0 0 0 0 0 0 0 0 0 0 0
0 0 27.7 26.9 25.8 0 33 29.7 0 0 0 35.5 0 28.5 27.7 26.4 25.3 24.4 23.7 23.1 22.6 22.2 21.8 21.5 21.4 21.3 0 0 0 0 0 0 0 22.1 21.2 20.2 19.3 18.3 17.3 0 0 0 0 0 0 0 0 15.7 16 0 0 0 0 0 0 14 0 0 0 0 0 0 0 0 0 0 0 0 0 0 0 0 0 0 0 0 0 0 0 0 0 0 0 0 0 0 0 0 0 0 0 0 0
0 0 0 31.5 35.1 27.3 29.4 30.6 30.8 27.7 28.3 28.7 28.9 28.6 27.6 26.4 25.3 24.5 23.8 23.2 22.6 22.3 21.9 21.7 21.6 21.7 21.2 0 0 0 0 0 0 22.1 21.3 20.4 19.5 18.5 17.3 16 0 0 0 0 0 15.7 15.8 15.9 0 0 0 0 0 0 0 14.5 0 0 0 0 0 0 0 0 0 0 0 0 0 0 0 0 0 0 0 0 0 0 0 0 0 0 0 0 0 0 0 0 0 0 0 0 0
0 0 0 0 0 29.3 31 31.7 31 30.1 29.7 29.4 28.8 28 27.1 26.1 25.3 24.5 23.8 23.2 22.6 22.3 22 21.8 21.6 21.7 21.8 21.4 0 0 0 0 0 22.2 21.6 20.7 19.6 18.6 17.5 16.5 15.8 0 0 0 0 16.2 0 0 0 0 0 0 0 0 0 0 0 0 0 0 0 0 0 0 0 0 0 0 0 0 0 0 0 0 0 0 0 0 0 0 0 0 0 0 0 0 0 0 0 0 0 0 0
0 0 0 0 0 40.8 31.8 31.7 31.2 30.6 30 29.4 28.7 27.9 27 26.1 25.4 24.6 24 23.3 22.8 22.5 22.2 22 21.8 21.8 21.8 21.7 0 0 0 0 0 22.3 21.8 20.9 19.9 18.9 18 17.1 16.3 15.7 0 15.5 15.1 16.1 0 0 0 0 0 0 0 0 0 0 0 0 0 0 0 0 0 0 0 0 0 0 0 0 0 0 0 0 0 0 0 0 0 0 0 0 0 0 0 0 0 0 0 0 0 0 0
0 0 0 0 0 0 31.3 31.3 31 30.4 29.9 29.2 28.5 27.8 27 26.2 25.5 24.8 24.2 23.5 22.9 22.6 22.4 22.3 22.1 22.1 22.2 22.1 21.7 0 0 0 0 0 21.9 21 20.1 19.2 18.3 17.5 16.8 16.3 16.1 15.8 0 0 0 0 0 0 0 0 0 0 0 0 0 0 0 0 0 0 0 0 0 0 0 0 0 0 0 0 0 0 0 0 0 0 0 0 0 0 0 0 0 0 0 0 0 0 0 0 0
0 0 0 0 0 0 30.8 30.9 30.8 30.3 29.7 29.1 28.5 27.8 27.1 26.4 25.7 25.1 24.4 23.8 23.3 23.1 22.3 22.9 22.3 22.6 22.6 22.4 22.2 0 0 0 0 0 21.9 21.1 20.3 19.5 18.7 17.9 17.3 16.7 16.4 16.2 0 0 0 0 0 0 0 0 0 0 0 0 0 0 0 0 0 0 0 0 0 0 0 0 0 0 0 0 0 0 0 0 0 0 0 0 0 0 0 0 0 0 0 0 0 0 0 0 0
0 0 0 0 0 0 40.3 30.7 30.5 30.2 29.6 29.1 28.6 28 27.4 26.7 26 25.3 24.7 24.1 23.6 23.3 21.8 0 25.7 23 23.3 23 22.8 22.1 0 0 0 0 22.1 21.5 20.6 19.8 18.9 18.2 17.5 17 16.6 16.1 0 0 0 0 0 0 0 0 0 0 0 0 0 0 0 0 0 0 0 0 0 0 0 0 0 0 0 0 0 0 0 0 0 0 0 0 0 0 0 0 0 0 0 0 0 0 0 0 0
0 0 0 0 0 0 0 30.5 30.4 30.1 29.7 29.2 28.7 28.2 27.6 26.9 26.2 25.6 25 24.4 23.9 23.4 23 0 0 0 23.8 23.7 23.2 22.6 22.2 0 0 0 22.2 21.8 20.9 20 19.2 18.4 17.8 17.3 16.8 0 0 0 0 0 0 0 0 0 0 0 0 0 0 0 0 0 0 0 0 0 0 0 0 0 0 0 0 0 0 0 0 0 0 0 0 0 0 0 0 0 0 0 0 0 0 0 0 0 0
0 0 0 0 0 0 0 34.5 30.5 30.3 29.9 29.4 29 28.5 27.9 27.3 26.6 25.9 25.2 24.6 24.1 23.6 21.7 0 0 0 0 23.9 23 22.5 22.6 0 0 0 0 21.9 21.1 20.2 19.4 18.6 18 17.5 16.8 20 0 0 0 0 0 0 0 0 0 0 0 0 0 0 0 0 0 0 0 0 0 0 0 0 0 0 0 0 0 0 0 0 0 0 0 0 0 0 0 0 0 0 0 0 0 0 0 0 0
0 0 0 0 0 0 0 42 30.3 30.3 30.1 29.7 29.3 28.8 28.2 27.6 27 26.2 25.5 24.9 24.4 24 23.3 0 0 0 0 0 22.1 21 22.8 21.7 0 0 0 21.9 21.2 20.4 19.5 18.8 18.2 17.6 17 16.4 0 0 0 0 0 0 0 0 0 0 0 0 0 0 0 0 0 0 0 0 0 0 0 0 0 0 0 0 0 0 0 0 0 0 0 0 0 0 0 0 0 0 0 0 0 0 0 0 0
0 0 0 0 0 0 0 0 31.6 30.2 30.4 30.1 29.9 29.3 28.7 28.1 27.4 26.6 25.9 25.2 24.6 24.3 23.8 22.3 0 0 0 0 0 21.4 22.5 21.9 21 0 0 22 21.4 20.5 19.7 18.9 18.3 17.7 17.1 16.6 0 0 0 0 0 0 0 0 0 0 0 0 0 0 0 0 0 0 0 0 0 0 0 0 0 0 0 0 0 0 0 0 0 0 0 0 0 0 0 0 0 0 0 0 0 0 0 0 0
0 0 0 0 0 0 0 0 0 32.2 30.1 30.2 30 29.5 29 28.4 27.8 27 26.3 25.5 24.7 24.2 23.8 22.9 22.5 0 0 0 0 21.7 22.3 22.1 21.6 0 0 22.1 21.5 20.5 19.7 19 18.4 17.9 17.4 16.8 0 0 0 0 0 0 0 0 0 0 0 0 0 0 0 0 0 0 0 0 0 0 0 0 0 0 0 0 0 0 0 0 0 0 0 0 0 0 0 0 0 0 0 0 0 0 0 0 0
0 0 0 0 0 0 0 0 0 0 30.1 30.4 30.4 30 29.5 28.9 28.3 27.6 26.8 26 25.2 24.7 24.2 23.6 22.6 22.8 0 0 0 0 22.8 22.9 22.2 0 0 22.1 21.5 20.5 19.7 19.1 18.5 18 17.5 16.9 0 0 0 0 0 0 0 0 0 0 0 0 0 0 0 0 0 0 0 0 0 0 0 0 0 0 0 0 0 0 0 0 0 0 0 0 0 0 0 0 0 0 0 0 0 0 0 0 0
0 0 0 0 0 0 0 0 0 0 0 0 30.4 30.2 29.9 29.5 28.8 28.1 27.2 26.3 25.4 24.8 24.2 23.8 23.6 23.3 22.5 22 0 0 0 21.4 22.5 21.5 0 22 21.3 20.4 19.5 19 18.5 18 17.7 17 0 0 0 0 0 0 0 0 0 0 0 0 0 0 0 0 0 0 0 0 0 0 0 0 0 0 0 0 0 0 0 0 0 0 0 0 0 0 0 0 0 0 0 0 0 0 0 0 0
0 0 0 0 0 0 0 0 0 0 0 0 34.2 30 30 29.9 29.5 28.8 27.9 27 26 25.3 24.6 24 23.5 23.2 22.8 22.4 21.8 0 0 23 22.4 21.8 21.4 21.3 20.8 20 19.3 18.5 17.8 18.1 17.8 17 0 0 0 0 0 0 0 0 0 0 0 0 0 0 0 0 0 0 0 0 0 0 0 0 0 0 0 0 0 0 0 0 0 0 0 0 0 0 0 0 0 0 0 0 0 0 0 0 0
0 0 0 0 0 0 0 0 0 0 0 0 0 0 0 29.7 29.6 29.3 28.5 27.5 26.4 25.6 24.8 24.3 23.8 23.4 23 22.6 22.3 22 0 22.9 22.2 21.5 21 20.6 20.2 19.6 19 17.5 16.1 17.1 17.7 16.7 0 0 0 0 0 0 0 0 0 0 0 0 0 0 0 0 0 0 0 0 0 0 0 0 0 0 0 0 0 0 0 0 0 0 0 0 0 0 0 0 0 0 0 0 0 0 0 0 0
0 0 0 0 0 0 0 0 0 0 0 0 0 0 0 0 29.4 29.4 29 28.2 27.1 26.1 25.2 24.5 23.9 23.5 23 22.6 22.4 22.3 22.2 22.1 21.7 21.1 20.7 20.2 19.8 19.3 18.8 18.3 16.5 0 17.6 16.1 0 0 0 0 0 0 0 0 0 0 0 0 0 0 0 0 0 0 0 0 0 0 0 0 0 0 0 0 0 0 0 0 0 0 0 0 0 0 0 0 0 0 0 0 0 0 0 0 0
0 0 0 0 0 0 0 0 0 0 0 0 0 0 0 0 0 29.4 29.4 28.8 27.7 26.7 25.7 24.9 24.2 23.5 23 22.6 22.3 22.1 21.8 21.4 21.2 20.8 20.4 20 19.6 19.1 18.7 18.3 17.7 0 0 13.6 14.8 14.8 0 0 0 0 0 0 0 0 0 0 0 0 0 0 0 0 0 0 0 0 0 0 0 0 0 0 0 0 0 0 0 0 0 0 0 0 0 0 0 0 0 0 0 0 0 0 0
0 0 0 0 0 0 0 0 0 0 0 0 0 0 0 0 0 0 28.9 29.1 28.2 27.2 26.2 25.2 24.4 23.7 23.1 22.6 22.2 21.9 21.5 21.1 20.8 20.4 20.1 19.7 19.4 19.1 18.8 18.4 18 0 16.4 15.2 15.2 0 0 0 0 0 0 0 0 0 0 0 0 0 0 0 0 0 0 0 0 0 0 0 0 0 0 0 0 0 0 0 0 0 0 0 0 0 0 0 0 0 0 0 0 0 0 0 0
0 0 0 0 0 0 0 0 0 0 0 0 0 0 0 0 0 0 28 29 28.9 27.8 26.7 25.7 24.8 24 23.3 22.7 22.2 21.8 21.4 21 20.6 20.3 20 19.6 19.4 19.1 18.8 18.5 18.1 17.2 16.8 16.2 15.6 0 0 0 0 0 0 0 0 0 0 0 0 0 0 0 0 0 0 0 0 0 0 0 0 0 0 0 0 0 0 0 0 0 0 0 0 0 0 0 0 0 0 0 0 0 0 0 0
0 0 0 0 0 0 0 0 0 0 0 0 0 0 0 0 0 0 0 0 28.9 28.3 27.3 26.3 25.4 24.5 23.6 22.9 22.3 21.8 21.3 20.9 20.5 20.2 19.9 19.6 19.4 19.1 18.8 18.5 18.1 17.7 17.4 16.8 16 0 0 0 0 0 0 0 0 0 0 0 0 0 0 0 0 0 0 0 0 0 0 0 0 0 0 0 0 0 0 0 0 0 0 0 0 0 0 0 0 0 0 0 0 0 0 0 0
0 0 0 0 0 0 0 0 0 0 0 0 0 0 0 0 0 0 0 0 0 28.3 27.7 26.9 25.9 25 24.1 23.2 22.5 21.9 21.4 21 20.6 20.2 19.9 19.6 19.5 19.3 19 18.8 18.5 18.2 17.8 17.2 16.3 15.1 0 0 0 0 0 0 0 0 0 0 0 0 0 0 0 0 0 0 0 0 0 0 0 0 0 0 0 0 0 0 0 0 0 0 0 0 0 0 0 0 0 0 0 0 0 0 0
0 0 0 0 0 0 0 0 0 0 0 0 0 0 0 0 0 0 0 0 0 28.2 28.1 27.5 26.6 25.6 24.6 23.6 22.9 22.1 21.6 21.1 20.6 20.2 19.9 19.7 19.5 19.3 19.1 18.9 18.7 18.4 18 17.5 16.8 15.9 14.7 14 13.7 0 0 0 0 0 0 0 0 0 0 0 0 0 0 0 0 0 0 0 0 0 0 0 0 0 0 0 0 0 0 0 0 0 0 0 0 0 0 0 0 0 0 0 0
0 0 0 0 0 0 0 0 0 0 0 0 0 0 0 0 0 0 0 0 0 0 28.1 28.1 27.4 26.2 25.2 24.1 23.3 22.5 21.9 21.3 20.8 20.4 20 19.7 19.6 19.4 19.2 19 18.8 18.6 18.2 17.8 17.2 16.6 15.9 15.3 14.6 13.9 13.6 0 0 0 0 0 0 0 0 0 0 0 0 0 0 0 0 0 0 0 0 0 0 0 0 0 0 0 0 0 0 0 0 0 13 13 12.9 12.8 12.8 12.2 0 0 0
0 0 0 0 0 0 0 0 0 0 0 0 0 0 0 0 0 0 0 0 0 0 0 0 27.6 26.9 25.9 24.8 23.8 22.9 22.2 21.5 21 20.5 20.1 19.8 19.6 19.4 19.3 19.1 18.9 18.7 18.5 18.2 17.7 17.2 16.8 16.2 15.6 14.9 14.4 13.7 0 0 0 0 0 0 0 0 0 0 0 0 0 0 0 0 0 0 0 0 0 0 0 0 0 0 0 0 0 0 0 13.1 13.2 13.1 12.9 12.7 12.6 12.6 0 0 0
0 0 0 0 0 0 0 0 0 0 0 0 0 0 0 0 0 0 0 0 0 0 0 0 27.7 27.4 26.6 25.5 24.4 23.5 22.6 21.9 21.3 20.8 20.3 20 19.7 19.5 19.3 19.1 19 18.8 18.6 18.4 18.1 17.8 17.4 16.9 16.4 15.8 15.2 14.4 0 0 0 0 0 0 0 0 0 0 0 0 0 0 0 0 0 0 0 0 0 0 0 0 0 0 0 0 0 0 0 13.5 13.2 13 0 0 0 0 0 0 0
0 0 0 0 0 0 0 0 0 0 0 0 0 0 0 0 0 0 0 0 0 0 0 0 0 27.5 27 26.1 25 24 23.1 22.3 21.6 21.1 20.5 20.1 19.9 19.6 19.4 19.2 19 18.8 18.6 18.4 18.2 18 17.6 17.2 16.8 16.3 15.7 14.9 0 0 0 0 0 0 0 0 0 0 0 0 0 0 0 0 0 0 0 0 0 0 0 0 0 0 0 0 0 0 13.6 13.4 13.2 12.9 0 0 0 0 0 0 0
0 0 0 0 0 0 0 0 0 0 0 0 0 0 0 0 0 0 0 0 0 0 28.9 25.6 0 0 27.2 26.7 25.6 24.6 23.7 22.8 22.1 21.4 20.8 20.4 20 19.7 19.4 19.2 19 18.8 18.6 18.5 18.3 18 17.8 17.4 17 16.6 16 15.1 13.7 17 0 0 0 0 0 0 0 0 0 0 0 0 13.1 13 13 13.1 13.4 13.6 13.6 13.6 13.6 13.6 13.6 13.5 13.5 13.4 0 13.7 13.8 13.4 13 0 0 0 0 0 0 0 0
0 0 0 0 0 0 0 0 0 0 0 0 0 0 0 0 0 0 0 0 0 0 0 25.6 24.8 25.6 26.9 27.3 26.3 25.3 24.4 23.4 22.6 21.8 21.1 20.6 20.2 19.9 19.5 19.2 19 18.8 18.6 18.4 18.2 18 17.8 17.5 17.2 16.7 16.2 15.3 14.3 13.3 0 0 0 0 0 0 0 0 0 0 0 0 13.4 13.1 12.9 12.9 0 13.2 13.3 13.5 13.5 13.6 13.6 13.5 13.4 13.4 13.5 13.6 13.4 0 0 0 0 0 0 0 0 0 0
0 0 0 0 0 0 0 0 0 0 0 0 0 0 0 0 0 0 0 0 0 0 0 0 0 0 27.6 27.6 26.9 26 25.1 24.1 23.1 22.3 21.5 20.9 20.4 20 19.6 19.3 19 18.8 18.5 18.4 18.2 18 17.8 17.5 17.2 16.9 16.4 15.7 14.8 13.9 12.9 0 0 0 0 0 0 0 0 0 0 0 13.8 13.3 0 0 0 0 0 13.4 13.5 13.6 0 13.4 13.3 13.3 13.2 13.1 0 0 0 0 0 0 0 0 0 0 0
0 0 0 0 0 0 0 0 0 0 0 0 0 0 0 0 0 0 0 0 0 0 0 0 0 0 0 27.5 27 26.7 25.8 24.8 23.8 22.9 22 21.3 20.7 20.2 19.8 19.4 19 18.7 18.5 18.3 18.1 17.9 17.7 17.5 17.3 17 16.6 16 15.2 14.3 13.5 12.8 0 0 0 0 0 0 0 0 0 13.8 13.7 0 0 0 0 0 0 13.6 13.7 13.7 0 13.6 13.4 13.2 12.9 0 0 0 0 0 0 0 0 0 0 0 0
0 0 0 0 0 0 0 0 0 0 0 0 0 0 0 0 0 0 0 0 0 0 0 0 0 0 0 0 25.9 26.4 26.6 25.6 24.5 23.5 22.5 21.7 21 20.5 19.9 19.5 19.1 18.7 18.4 18.2 18 17.8 17.6 17.5 17.3 17 16.7 16.2 15.6 14.8 14.1 13.4 12.7 0 0 0 0 0 0 0 0 14.1 13.8 0 0 0 0 0 0 13.8 13.9 13.9 13.9 13.9 13.4 13 0 0 0 0 0 0 0 0 0 0 0 0 0
0 0 0 0 0 0 0 0 0 0 0 0 0 0 0 0 0 0 0 0 0 0 0 0 0 0 0 0 0 34.2 26.7 26.2 25.1 24.1 23.1 22.2 21.5 20.8 20.2 19.6 19.2 18.8 18.4 18.1 17.9 17.7 17.6 17.4 17.2 17.1 16.8 16.4 15.9 15.3 14.7 14 13.2 12.6 0 0 0 0 0 0 14.4 14.2 14.1 0 14.2 14.2 14.2 0 0 14.2 14.2 14.1 14 13.7 0 0 0 0 0 0 0 0 0 0 0 0 0 0 0
0 0 0 0 0 0 0 0 0 0 0 0 0 0 0 0 0 0 0 0 0 0 0 0 0 0 0 0 0 0 30.7 26 25.6 24.7 23.7 22.8 22 21.2 20.5 19.9 19.3 18.8 18.4 18.1 17.9 17.7 17.5 17.4 17.2 17.1 16.9 16.6 16.2 15.7 15.2 14.6 13.9 13.3 0 0 0 0 0 14.2 14.3 14.2 14.2 14.3 14.3 14.3 14.2 16.4 0 14.4 14.4 14.3 14 13.5 0 0 0 0 0 0 0 0 0 0 0 0 0 0 0
0 0 0 0 0 0 0 0 0 0 0 0 0 0 0 0 0 0 0 0 0 0 0 0 0 0 0 0 0 0 0 24.4 25.3 25.3 24.3 23.4 22.5 21.6 20.8 20.1 19.5 19 18.5 18.2 17.9 17.7 17.5 17.3 17.2 17.1 17 16.7 16.4 16 15.6 15.1 14.7 14.1 13.7 0 0 13.6 13.9 14.1 14.1 14.2 14.2 14.2 14.3 14.4 14.6 0 0 14.5 14.4 14.2 13.9 13.4 0 0 0 0 0 0 0 0 0 0 0 0 0 0 0
0 0 0 0 0 0 0 0 0 0 0 0 0 0 0 0 0 0 0 0 0 0 0 0 0 0 0 0 0 0 0 0 26.1 25.6 24.9 23.9 23 22 21.2 20.4 19.7 19.1 18.6 18.2 17.9 17.7 17.5 17.3 17.2 17.2 17 16.9 16.6 16.4 16 15.6 15.2 14.8 14.5 14.2 14.1 14.1 14.1 0 14.2 14.4 14.4 14.5 14.6 14.7 14.9 14.8 14.7 14.6 14.4 14.1 13.7 0 0 0 0 0 0 0 0 0 0 0 0 0 0 0 0
0 0 0 0 0 0 0 0 0 0 0 0 0 0 0 0 0 0 0 0 0 0 0 0 0 0 0 0 0 0 25.7 26 26.1 25.7 25.2 24.4 23.5 22.6 21.6 20.8 20 19.4 18.8 18.4 18 17.7 17.5 17.3 17.2 17.2 17.1 17 16.8 16.6 16.3 16 15.6 15.2 15 14.8 14.6 14.4 14.4 14.5 14.6 14.7 14.7 14.7 14.7 14.8 15 14.9 14.7 14.6 14.3 14.1 13.5 0 0 0 0 0 0 0 0 0 0 0 0 0 0 0 0
0 0 0 0 0 0 0 0 0 0 0 0 0 0 0 0 0 0 0 0 0 0 0 0 0 0 0 0 0 0 0 0 25.9 25.8 25.5 24.8 24.1 23.1 22.1 21.2 20.4 19.6 19 18.5 18.1 17.8 17.5 17.4 17.3 17.2 17.2 17.2 17.1 16.9 16.7 16.4 16.1 15.8 15.5 15.2 15 14.8 14.8 14.7 14.8 14.8 14.6 0 0 0 14.9 14.9 14.8 14.6 14.2 13.8 0 0 0 0 0 0 0 0 0 0 0 0 0 0 0 0 0
0 0 0 0 0 0 0 0 0 0 0 0 0 0 0 0 0 0 0 0 0 0 0 0 0 0 0 0 0 0 0 38 25.8 25.8 25.7 25.2 24.7 23.9 22.7 21.7 20.8 20 19.3 18.7 18.3 17.9 17.6 17.4 17.3 17.3 17.3 17.3 17.3 17.2 17 16.8 16.6 16.3 16 15.8 15.5 15.3 15.2 14.9 0 0 0 0 0 0 0 15 14.8 14.5 14.1 13.6 0 0 0 0 0 0 0 0 0 0 0 0 0 0 0 0 0
0 0 0 0 0 0 0 0 0 0 0 0 0 0 0 0 0 0 0 0 0 0 0 0 0 0 0 0 0 0 30.5 25.4 25.6 25.9 25.8 27.2 24.9 24.3 23.2 22.2 21.2 20.4 19.6 19 18.5 18.1 17.8 17.5 17.4 17.4 17.4 17.5 17.5 17.5 17.4 17.2 17.1 16.9 16.6 16.3 16 15.8 15.6 0 0 0 0 0 0 14.8 14.8 14.9 14.6 14.4 13.9 0 0 0 0 0 0 0 0 0 0 0 0 0 0 0 0 0 0
0 0 0 0 0 0 0 0 0 0 0 0 0 0 0 0 0 0 0 0 0 0 0 0 0 0 0 0 0 0 0 24.3 25.6 25.8 0 0 0 23.8 23.5 22.7 21.7 20.8 20 19.4 18.8 18.3 18 17.7 17.6 17.5 17.5 17.6 17.7 17.7 17.7 17.6 17.5 17.3 17.1 16.8 16.5 16.2 15.9 0 0 0 0 0 14.8 14.9 14.8 14.8 14.5 14.2 0 0 0 0 0 0 0 0 0 0 0 0 0 0 0 0 0 0 0
0 0 0 0 0 0 0 0 0 0 0 0 0 0 0 0 0 0 0 0 0 0 0 0 0 0 0 0 0 0 0 29.6 26.2 25.8 0 0 0 22.1 23.1 22.9 22.2 21.3 20.5 19.7 19.1 18.6 18.1 17.9 17.7 17.6 17.7 17.8 17.9 17.9 18 18 17.9 17.7 17.6 17.3 17 16.6 16.3 15.6 15.3 0 15.1 15 15 14.9 14.9 14.8 0 0 0 0 0 0 0 0 0 0 0 0 0 0 0 0 0 0 0 0 0
0 0 0 0 0 0 0 0 0 0 0 0 0 0 0 0 0 0 0 0 0 0 0 0 0 0 0 0 0 0 0 0 26 20.6 0 0 0 0 22.9 23.2 22.8 21.9 20.9 20.1 19.4 18.8 18.4 18.1 17.9 17.8 17.8 17.9 18 18.2 18.2 18.3 18.3 18.2 18 17.8 17.5 17.1 16.7 16.3 16 15.8 15.6 15.3 15.1 15 14.9 0 0 0 0 0 0 0 0 0 0 0 0 0 0 0 0 0 0 0 0 0 0
0 0 0 0 0 0 0 0 0 0 0 0 0 0 0 0 0 0 0 0 0 0 0 0 0 0 0 0 0 0 0 0 0 21.6 11.4 0 0 0 34.9 24.1 23.5 22.5 21.4 20.5 19.7 19.1 18.6 18.3 18 18 18 18.1 18.2 18.4 18.5 18.6 18.7 18.7 18.5 18.4 18.1 17.7 17.3 17 16.6 16.3 15.9 15.5 15.3 15.1 15 0 0 0 0 0 0 0 0 0 0 0 0 0 0 0 0 0 0 0 0 0 0
0 0 0 0 0 0 0 0 0 0 0 0 0 0 0 0 0 0 0 0 0 0 0 0 0 0 0 0 0 0 0 0 0 0 12.2 22.2 0 0 0 0 23.6 23.2 22 21 20.1 19.4 18.9 18.5 18.3 18.1 18.2 18.3 18.5 18.6 18.8 19 19.1 19.1 19.1 18.9 18.7 18.4 18 17.6 17.3 16.8 16.4 15.9 15.6 15.4 15.3 15.2 0 0 0 0 0 0 0 0 0 0 0 0 0 0 0 0 0 0 0 0 0
0 0 0 0 0 0 0 0 0 0 0 0 0 0 0 0 0 0 0 0 0 0 0 0 0 0 0 0 0 0 0 0 0 0 0 16.6 0 0 0 0 0 21.8 22.2 21.3 20.4 19.7 19.2 18.8 18.5 18.4 18.4 18.5 18.7 18.9 19.1 19.4 19.5 19.6 19.6 19.5 19.3 19.1 18.7 18.4 17.9 17.5 16.9 16.4 15.9 15.6 15.5 15.5 15.2 19.3 0 0 0 0 0 0 0 0 0 0 0 0 0 0 0 0 0 0 0
0 0 0 0 0 0 0 0 0 0 0 0 0 0 0 0 0 0 0 0 0 0 0 0 0 0 0 0 0 0 0 0 0 0 25 14.6 22.1 22.4 0 0 0 20.9 21.9 21.5 20.7 20 19.4 19 18.7 18.6 18.6 18.7 18.9 19.2 19.5 19.7 19.9 20.1 20.1 20.1 20 19.7 19.4 19.1 18.6 18.1 17.5 16.9 16.4 15.9 15.8 15.7 15.7 15.5 0 0 0 0 0 0 0 0 0 0 0 0 0 0 0 0 0 0 0
0 0 0 0 0 0 0 0 0 0 0 0 0 0 0 0 0 0 0 0 0 0 0 0 0 0 0 0 0 0 0 0 0 0 22.7 22.4 22.8 21.1 13.1 21.6 22.9 19 21.8 21.8 21 20.3 19.7 19.3 19 18.8 18.8 19 19.2 19.5 19.8 20.1 20.4 20.6 20.7 20.7 20.6 20.4 20.1 19.7 19.3 18.6 17.6 17.4 16.6 16.4 16 15.9 15.6 15.6 14.6 0 0 0 0 0 0 0 0 0 0 0 0 0 0 0 0 0 0
0 0 0 0 0 0 0 0 0 0 0 0 0 0 0 0 0 0 0 0 0 0 0 0 0 0 0 0 0 0 0 0 0 0 23.2 23.2 23 23 21.1 0 23 21.8 22.9 22.1 21.3 20.5 19.9 19.5 19.2 19 19.1 19.2 19.4 19.8 20.1 20.5 20.8 21.1 21.2 21.3 21.2 20.9 0 0 0 0 0 0 0 24.6 16.7 15.8 15.5 15.4 14.6 0 0 0 0 0 0 0 0 0 0 0 0 0 0 0 0 0 0
0 0 0 0 0 0 0 0 0 0 0 0 0 0 0 0 0 0 0 0 0 0 0 0 0 0 0 0 0 0 0 0 0 0 23.2 23.3 23.2 23.1 22.8 0 0 23.4 23.2 22.4 21.5 20.7 20.1 19.7 19.4 19.2 19.3 19.4 19.7 20 20.5 20.9 21.3 21.6 21.8 21.8 21.7 0 0 0 0 0 0 0 0 0 0 15.4 15.9 15.2 0 0 0 0 0 0 0 0 0 0 0 0 0 0 0 0 0 0 0
0 0 0 0 0 0 0 0 0 0 0 0 0 0 0 0 0 0 0 0 0 0 0 0 0 0 0 0 0 0 0 0 0 0 23.2 23.2 23.2 23.1 22.6 0 19.2 21 23.3 22.6 21.7 20.9 20.3 19.8 19.5 19.4 19.4 19.6 19.9 20.3 20.8 21.2 21.7 22.1 22.3 22.3 22.1 0 0 0 0 0 0 0 0 0 0 0 24.4 24.9 0 0 0 0 0 0 0 0 0 0 0 0 0 0 0 0 0 0 0
0 0 0 0 0 0 0 0 0 0 0 0 0 0 0 0 0 0 0 0 0 0 0 0 0 0 0 0 0 0 0 0 0 0 23.1 23.2 23.4 21.2 20.7 14.4 22.2 18.6 22.8 22.6 21.8 21 20.4 20 19.6 19.5 19.6 19.8 20.1 20.6 21.1 21.6 22.1 22.6 22.8 22.8 0 0 0 0 0 0 0 0 0 0 0 0 0 0 0 0 0 0 0 0 0 0 0 0 0 0 0 0 0 0 0 0 0
0 0 0 0 0 0 0 0 0 0 0 0 0 0 0 0 0 0 0 0 0 0 0 0 0 0 0 0 0 0 0 0 19.6 20.8 21.8 23.3 23.7 23.7 21.8 21 0 23.5 23.2 22.5 21.8 21.1 20.5 20 19.7 19.6 19.7 19.9 20.3 20.8 21.4 22 22.6 23.1 23.3 0 0 0 0 0 0 0 0 0 0 0 0 0 0 0 0 0 0 0 0 0 0 0 0 0 0 0 0 0 0 0 0 0 0
0 0 0 0 0 0 0 0 0 0 0 0 0 0 0 0 0 0 0 0 0 0 0 0 0 0 0 0 0 0 0 0 22.2 22.6 23.1 23.1 24 24.3 24.3 0 0 23.5 23.2 22.6 21.9 21.2 20.6 20.1 19.8 19.7 19.8 20 20.4 21 21.7 22.4 23 23.5 23.7 0 0 0 0 0 0 0 0 0 0 0 0 0 0 0 0 0 0 0 0 0 0 0 0 0 0 0 0 0 0 0 0 0 0
0 0 0 0 0 0 0 0 0 0 0 0 0 0 0 0 0 0 0 0 0 0 0 0 0 0 0 0 0 28.9 29.5 0 23 23.5 21.1 21.1 22.1 24.1 24.1 23.1 0 23.5 23.4 22.9 22.1 21.4 20.7 20.2 19.9 19.8 19.9 20.1 20.6 21.2 21.9 22.7 23.5 24 0 0 0 0 0 0 0 0 0 0 0 0 0 0 0 0 0 0 0 0 0 0 0 0 0 0 0 0 0 0 0 0 0 0 0
0 0 0 0 0 0 0 0 0 0 0 0 0 0 0 0 0 0 0 0 0 0 0 0 0 0 0 0 0 30.4 22.4 22.9 23.4 24 24 0 37 23.3 23.9 23.8 0 22.4 23.8 23.3 22.4 21.6 20.9 20.4 20 19.9 20 20.3 20.8 21.4 22.2 23.1 23.9 24.5 0 0 0 0 0 0 0 0 0 0 0 0 0 0 0 0 0 0 0 0 0 0 0 0 0 0 0 0 0 0 0 0 0 0 0
0 0 0 0 0 0 0 0 0 0 0 0 0 0 0 0 0 0 0 0 0 0 0 0 0 0 0 0 0 0 21.5 22.8 23.4 24.1 21.4 0 0 22 22.8 22.7 0 19.7 21.1 23.2 22.7 21.8 21.1 20.5 20.2 20.1 20.1 20.4 20.9 21.6 22.5 23.3 24.2 24.7 0 0 0 0 0 0 0 0 0 0 0 0 0 0 0 0 0 0 0 0 0 0 0 0 0 0 0 0 0 0 0 0 0 0 0
0 0 0 0 0 0 0 0 0 0 0 0 0 0 0 0 0 0 0 0 0 0 0 0 0 0 0 0 0 0 20.4 22.7 23.5 24.1 21.2 0 0 18 20.8 12.4 20.1 16.4 17.7 22.2 22.7 21.9 21.2 20.7 20.3 20.2 20.3 20.6 21.1 21.8 22.6 23.5 24.1 24.4 0 0 0 0 0 0 0 0 0 0 0 0 0 0 0 0 0 0 0 0 0 0 0 0 0 0 0 0 0 0 0 0 0 0 0
0 0 0 0 0 0 0 0 0 0 0 0 0 0 0 0 0 0 0 0 0 0 0 0 0 0 0 0 0 0 20.8 22.3 23.5 24.1 21.4 0 0 21.8 16.1 11.6 17 0 23 23.4 22.8 22.1 21.4 20.8 20.5 20.3 20.5 20.8 21.3 22 22.8 23.7 23.3 19.6 0 0 0 0 0 0 0 0 0 0 0 0 0 0 0 0 0 0 0 0 0 0 0 0 0 0 0 0 0 0 0 0 0 0 0
0 0 0 0 0 0 0 0 0 0 0 0 0 0 0 0 0 0 0 0 0 0 0 0 0 0 0 0 0 0 0 22.5 23.5 24 23.6 0 0 16.6 16.1 12.9 0 0 23.9 23.6 23 22.3 21.6 21 20.6 20.5 20.6 20.9 21.4 22.2 23.1 24.1 23.5 21.4 0 0 0 0 0 0 0 0 0 0 0 0 0 0 0 0 0 0 0 0 0 0 0 0 0 0 0 0 0 0 0 0 0 0 0
0 0 0 0 0 0 0 0 0 0 0 0 0 0 0 0 0 0 0 0 0 0 0 0 0 0 0 0 0 0 0 21.2 22.9 23.9 24.3 0 29.5 14.3 22.1 12.2 0 0 23.9 23.8 23.2 22.5 21.9 21.3 20.9 20.8 20.8 21.1 21.6 22.3 23.3 24.4 24.7 22.3 0 0 0 0 0 0 0 0 0 0 0 0 0 0 0 0 0 0 0 0 0 0 0 0 0 0 0 0 0 0 0 0 0 0 0
0 0 0 0 0 0 0 0 0 0 0 0 0 0 0 0 0 0 0 0 0 0 0 0 0 0 0 0 0 0 0 0 23.2 23.9 22.9 22 20.2 16.4 13.5 10.9 12.5 0 23.6 23.8 23.4 22.8 22.2 21.6 21.2 21 21.1 21.3 21.8 22.5 23.5 24.5 25 21.6 0 0 0 0 0 0 0 0 0 0 0 0 0 0 0 0 0 0 0 0 0 0 0 0 0 0 0 0 0 0 0 0 0 0 0
0 0 0 0 0 0 0 0 0 0 0 0 0 0 0 0 0 0 0 0 0 0 0 0 0 0 0 0 0 0 0 0 21.2 23.7 24.3 24.5 24.3 0 15.2 17.8 10.4 0 23.6 23.9 23.7 23.1 22.5 21.9 21.5 21.3 21.3 21.5 21.9 22.6 23.6 24.6 25.6 23.5 0 0 0 0 0 0 0 0 0 0 0 0 0 0 0 0 0 0 0 0 0 0 0 0 0 0 0 0 0 0 0 0 0 0 0
0 0 0 0 0 0 0 0 0 0 0 0 0 0 0 0 0 0 0 0 0 0 0 0 0 0 0 0 0 0 0 0 20.5 22.3 24.2 24.5 24.2 0 0 15.9 11.6 0 0 23.8 23.9 23.4 22.9 22.3 21.9 21.6 21.6 21.7 22.1 22.7 23.7 24.8 25.8 21.4 0 0 0 0 0 0 0 0 0 0 0 0 0 0 0 0 0 0 0 0 0 0 0 0 0 0 0 0 0 0 0 0 0 0 0
0 0 0 0 0 0 0 0 0 0 0 0 0 0 0 0 0 0 0 0 0 0 0 0 0 0 0 0 0 0 0 0 36.1 23.5 24 24.2 0 0 0 16 11.5 11.3 0 0 23 23.4 23.1 22.6 22.2 21.9 21.9 22 22.3 22.9 23.8 24.9 26 24 0 0 0 0 0 0 0 0 0 0 0 0 0 0 0 0 0 0 0 0 0 0 0 0 0 0 0 0 0 0 0 0 0 0 0
0 0 0 0 0 0 0 0 0 0 0 0 0 0 0 0 0 0 0 0 0 0 0 0 0 0 0 0 0 0 0 0 21.7 23.1 23.7 24.1 0 0 0 0 13.1 11.2 19.6 0 22 23.1 23.3 22.9 22.5 22.2 22.2 22.2 22.5 23 23.8 24.9 26 26 0 0 0 0 0 0 0 0 0 0 0 0 0 0 0 0 0 0 0 0 0 0 0 0 0 0 0 0 0 0 0 0 0 0 0
0 0 0 0 0 0 0 0 0 0 0 0 0 0 0 0 0 0 0 0 0 0 0 0 0 0 0 0 0 0 0 0 0 23 23.5 23.9 0 0 0 0 17.1 12.6 15.2 33.3 0 23.5 23.6 23.2 22.9 22.6 22.5 22.5 22.7 23.1 23.9 24.9 26.1 26.4 0 0 0 0 0 0 0 0 0 0 0 0 0 0 0 0 0 0 0 0 0 0 0 0 0 0 0 0 0 0 0 0 0 0 0
0 0 0 0 0 0 0 0 0 0 0 0 0 0 0 0 0 0 0 0 0 0 0 0 0 0 0 0 0 0 0 0 0 22.9 23.5 24 24 0 0 0 23 13.9 13.7 22.2 0 0 23 23.2 23.1 22.9 22.8 22.8 22.9 23.3 24 25 26.1 27.3 0 0 0 0 0 0 0 0 0 0 0 0 0 0 0 0 0 0 0 0 0 0 0 0 0 0 0 0 0 0 0 0 0 0 0
0 0 0 0 0 0 0 0 0 0 0 0 0 0 0 0 0 0 0 0 0 0 0 0 0 0 0 0 0 0 0 0 0 22.9 23.6 23.6 0 0 0 0 0 16.5 16.2 19.8 35.4 0 22.8 23.1 23.2 23.1 23.1 23 23.1 23.4 24.1 25 26.2 27.5 29.2 0 0 0 0 0 0 0 0 0 0 0 0 0 0 0 0 0 0 0 0 0 0 0 0 0 0 0 0 0 0 0 0 0 0
0 0 0 0 0 0 0 0 0 0 0 0 0 0 0 0 0 0 0 0 0 0 0 0 0 0 0 0 0 0 0 0 0 22.7 0 0 0 0 0 0 0 17.5 18 18.9 0 0 0 23.4 24.1 23.9 24 23.8 23.6 23.7 24.2 25.1 26.4 27.7 29.4 0 0 0 0 0 0 0 0 0 0 0 0 0 0 0 0 0 0 0 0 0 0 0 0 0 0 0 0 0 0 0 0 0 0
0 0 0 0 0 0 0 0 0 0 0 0 0 0 0 0 0 0 0 0 0 0 0 0 0 0 0 0 0 0 0 21.8 20.5 17.5 0 0 0 0 0 0 0 24.9 19 19.7 30.9 0 0 0 20.9 23.5 24.1 24 24 24 24.5 25.3 26.6 28.1 30 32.2 0 0 0 0 0 0 0 0 0 0 0 0 0 0 0 0 0 0 0 0 0 0 0 0 0 0 0 0 0 0 0 0 0
0 0 0 0 0 0 0 0 0 0 0 0 0 0 0 0 0 0 0 0 0 0 0 0 0 0 0 0 0 0 0 0 0 14.8 0 0 0 0 0 0 0 30.1 18.4 21 25.3 0 0 0 22.5 21.7 24.5 24.6 24.4 24.4 24.7 25.5 26.7 28.3 30.2 32.5 34.7 36.6 0 0 0 0 0 0 0 50.6 50 50.9 0 0 0 0 0 0 0 0 0 0 0 0 0 0 0 0 0 0 0 0 0
0 0 0 0 0 0 0 0 0 0 0 0 0 0 0 0 0 0 0 0 0 0 0 0 0 0 0 0 0 0 0 0 9.3 8.5 20.5 0 0 0 0 0 28.4 21.4 16.3 20.6 22.7 27.7 0 0 33.7 15.5 20.8 25 25 24.8 25 25.8 27 28.6 30.5 33 35.9 38.1 36.9 27.9 0 0 0 0 52.7 50.5 48.4 47.9 49.6 49.2 50.6 0 0 0 0 0 0 0 0 0 0 0 0 0 0 0 0 0 0
0 0 0 0 0 0 0 0 0 0 0 0 0 0 0 0 0 0 0 0 0 0 0 0 0 0 0 0 29 0 0 14.9 13.3 0 0 0 0 0 0 0 25.8 19.1 21.6 0 17.8 14.1 17.8 28.8 19.9 17.6 15.8 23.9 25.1 25 25.2 26 27.2 28.7 30.6 33 35.8 38.1 38.1 31.3 28.4 37.7 51.7 51.9 46.4 42.3 39.7 41.3 47.1 48 48.8 50 0 0 0 0 0 0 0 0 0 0 0 0 0 0 0 0 0
0 0 0 0 0 0 0 0 0 0 0 0 0 0 0 0 0 0 0 0 0 0 0 0 0 0 0 0 29.7 30 0 11.9 0 0 0 0 0 0 0 0 25.5 19.5 25.1 0 24.7 19.6 20.5 34.5 30.6 0 19.8 24.5 24.9 24.9 25.3 26.1 27.4 29 30.9 33.2 35.8 38.2 39.8 40.6 39 34.1 37.8 45.1 40.3 37.1 35.8 36.9 38.8 40.2 44 46.4 47.3 48.9 0 0 0 0 0 0 0 0 0 0 0 0 0 0 0
0 0 0 0 0 0 0 0 0 0 0 0 0 0 0 0 0 0 0 0 0 0 0 0 0 0 0 0 0 29.2 19.2 12.7 0 0 0 0 0 0 0 0 0 17.5 20.8 28.4 19 19.9 24.4 0 0 0 19.4 22.8 24.7 24.9 25.3 26.2 27.5 29.1 31 33.2 35.6 37.7 39.3 40.4 40.8 39 33.3 39.8 40.3 39 40.4 39.8 39.4 38.6 38.8 39.4 39 38.7 41.2 0 0 0 0 0 0 0 0 0 0 0 0 0 0
0 0 0 0 0 0 0 0 0 0 0 0 0 0 0 0 0 0 0 0 0 0 0 0 0 0 0 0 0 0 20.3 14.8 0 0 0 0 0 0 0 0 0 24.3 20.3 20.8 18.4 21.9 25.7 34 0 0 22.6 23.6 25.2 25.3 25.5 26.4 27.7 29.3 31.2 33.2 35.7 37.8 39.4 40.4 40.8 40.6 38.8 36 40.1 39 40.2 39.1 39.2 39.2 38.9 38.3 37.7 37.7 38.4 45.6 0 0 0 0 0 0 0 0 0 0 0 0 0
0 0 0 0 0 0 0 0 0 0 0 0 0 0 0 0 0 0 0 0 0 0 0 0 0 0 0 0 0 0 24.1 18.2 30.1 0 0 0 0 32 0 0 0 0 23.9 23.2 22.4 27.5 0 18.5 21 0 27.3 17.7 23 25.6 25.8 26.5 27.7 29.2 31 32.6 35 37.2 38.7 39.8 40.4 40.8 40.7 38.6 38.2 39.6 39.4 39.3 38.8 38.2 38.2 38.8 38.5 38.4 39.8 45.2 0 0 0 0 0 0 0 0 0 0 0 0 0
0 0 0 0 0 0 0 0 0 0 0 0 0 0 0 0 0 0 0 0 0 0 0 0 0 0 0 0 0 0 27.9 24 31.2 0 0 0 0 32.1 30.6 0 0 28.8 25.2 27.3 32.6 0 0 0 17.8 19.9 33.2 26.2 22.3 25.9 26.2 26.8 27.8 29.4 30.9 32.2 34.1 36.5 38.2 39.2 39.9 40.3 40.3 39.3 37.7 39.4 38.2 38.9 38 37.4 36.3 38.5 40.9 47.5 0 0 0 0 0 0 0 0 0 0 0 0 0 0 0
0 0 0 0 0 0 0 0 0 0 0 0 0 0 0 0 0 0 0 0 0 0 0 0 0 0 0 0 0 0 28.9 27.8 29.8 30.1 30.9 30.2 30.9 28.7 29.3 31.1 29.3 29.1 27.2 31.2 0 0 0 0 15.3 17.5 17.4 34.3 20.8 25.7 26.2 26.6 27.4 28.1 29.3 30.6 31.8 34.1 35.2 37.6 38.5 39.4 39.9 39.4 37.9 37.5 37.5 39.2 38 35.9 41.5 46.9 0 0 0 0 0 0 0 0 0 0 0 0 0 0 0 0 0
0 0 0 0 0 0 0 0 0 0 0 0 0 0 0 0 0 0 0 0 0 0 0 0 0 0 0 0 0 0 30 29.7 29.2 28.8 27.7 24.5 23.8 18.1 18.1 28.5 22.8 24.4 26.8 26.9 30.6 0 0 0 23 20.4 32.2 44.2 25.9 22.3 25.7 26 26.9 27.1 24.7 23.9 26.7 30.5 33.1 34.9 35.9 37.3 39.4 39.3 39.2 38.5 38.3 37.8 37.8 38.3 40.1 0 0 0 0 0 0 0 0 0 0 0 0 0 0 0 0 0 0
0 0 0 0 0 0 0 0 0 0 0 0 0 0 0 0 0 0 0 0 0 0 0 0 0 0 0 0 0 28.9 29.5 29.4 25.9 0 0 28.8 31.8 18.5 26.3 39.5 27 26.5 29.3 28.1 27.7 0 0 0 22.7 20.1 0 0 0 23.4 21.2 21.4 20.9 21.2 18 18.4 22.1 26.1 29.7 31.8 32.8 35.1 38.2 38.6 39 39.2 38.5 37.6 37.5 38.5 39.8 47.8 0 0 0 0 0 0 0 0 0 0 0 0 0 0 0 0 0
0 0 0 0 0 0 0 0 0 0 0 0 0 0 0 0 0 0 0 0 0 0 0 0 0 0 0 0 28.1 28.7 28.7 28.5 0 0 0 0 26 30 15.8 22.1 16.9 0 0 31.2 28.8 30 49.1 0 27.3 19.7 0 0 0 0 22.4 18.7 13.6 16.3 16.6 16.9 19.6 23.2 26.7 28.7 29.3 32 36 37.6 38.1 38.7 38.2 37.3 36.2 35.4 38.4 45.9 48.8 51.8 0 0 0 0 0 0 0 0 0 0 0 0 0 0 0
0 0 0 0 0 0 0 0 0 0 0 0 0 0 0 0 0 0 0 0 0 0 0 0 0 0 0 0 28.2 28.4 28.3 28.1 27.6 0 0 0 38.7 0 19.5 24.5 19.4 0 0 29.4 23.5 20.8 31.4 0 0 23.4 23.6 0 0 0 0 19 18.9 13.5 11.8 12.9 15.7 17.5 22.3 26.6 27.9 30.6 34.1 36 36.6 37.7 38.1 37.1 37.3 37.9 40.5 47.1 51.6 0 0 0 0 0 0 0 0 0 0 0 0 0 0 0 0
0 0 0 0 0 0 0 0 0 0 0 0 0 0 0 0 0 0 0 0 0 0 0 0 0 0 0 0 28.3 28.3 28.1 0 0 0 0 0 24.2 30.6 16.2 27.5 25 29.4 26.7 17 13.2 11.7 13.3 21.3 0 24.1 16.9 18.8 20.4 30.2 0 16.2 21.8 29 21.2 18.4 14.5 15.2 20.6 25.5 27.1 29.7 33 34.2 34.8 35.6 36.5 36.4 34.4 34 44.4 0 0 0 0 0 0 0 0 0 0 0 0 0 0 0 0 0 0
0 0 0 0 0 0 0 0 0 0 0 0 0 0 0 0 0 0 0 0 0 0 0 0 0 0 0 27.7 28.1 28 0 0 0 0 0 37.5 24.3 22.9 20.1 26.7 28.8 25.6 20.1 9.4 7.3 7.9 9.4 11.6 15.2 11.3 12 14.6 14.4 13 13.7 6 6.4 9 7.2 8.4 11.2 13.3 19 24.4 26.3 30.3 32.9 33 35.5 32.2 34.3 36.4 36.2 35.4 37.2 0 0 0 0 0 0 0 0 0 0 0 0 0 0 0 0 0 0
0 0 0 0 0 0 0 0 0 0 0 0 0 0 0 0 0 0 0 0 0 0 0 0 0 0 0 27.8 27.9 0 0 0 0 0 33.8 24.6 18.2 23.3 26 23.2 29.1 25.3 13.1 6.9 10.7 12.5 11.2 10.4 11.6 11.2 12.8 14.7 15.9 14.1 11.9 7.1 5.9 6.9 8.2 10.7 13.2 16.1 26.5 22.7 24.4 29.6 31.4 31.4 37.1 35.4 32.7 34.5 35.4 35.9 35 50 0 0 0 0 0 0 0 0 0 0 0 0 0 0 0 0 0
0 0 0 0 0 0 0 0 0 0 0 0 0 0 0 0 0 0 0 0 0 0 0 0 0 0 27.7 27.8 27.8 0 0 0 0 0 20.9 22.5 18.5 39 32.1 19 27 27.5 12.2 8.6 25 0 25.8 13.9 14.7 16.1 15.8 14.6 14.3 12.7 13.2 8.9 8.5 11 16.5 14.9 15.6 15.9 29.1 22.5 20.1 26.3 30 30 31.5 42.2 31.9 33.2 35 37.3 37 37.9 0 0 0 0 0 0 0 0 0 0 0 0 0 0 0 0 0
0 0 0 0 0 0 0 0 0 0 0 0 0 0 0 0 0 0 0 0 0 0 0 27.4 27.5 27.6 27.7 0 27.1 0 0 0 0 39.4 23.5 39.1 20.5 49.6 40.1 19.5 19.3 19 14.2 12.1 22.6 0 50.6 23.5 17.2 19.9 17.4 15.8 13.7 12.8 13.8 18.4 15.8 18.1 19.8 17.6 16.6 25.7 25.6 28.2 23.5 23.7 28.5 30.5 33.8 47.3 36.7 32.7 35.2 37.3 38.9 39 54.2 0 0 0 0 0 0 0 0 0 0 0 0 0 0 0 0
0 0 0 0 0 0 0 0 0 0 0 0 0 0 0 0 0 0 0 0 0 0 0 27.5 0 0 0 0 0 0 0 0 0 0 24.4 0 21.2 44 44 27.5 21.3 16.9 16.6 16.4 17.5 32.5 49.7 42.7 18.6 19.4 18.7 18.7 23.6 23.7 21.5 26.2 26.2 31.6 19.3 16.3 17.8 29.9 30.9 0 37.7 26 26.9 29.4 35.2 43.2 30.4 32.7 35.4 37.1 38.7 40.8 0 0 0 0 0 0 0 0 0 0 0 0 0 0 0 0 0
0 0 0 0 0 0 0 0 0 0 0 0 0 0 0 0 0 0 0 0 0 0 0 0 0 0 0 0 0 0 0 0 0 0 28 0 24.1 42.2 0 31.7 19.6 13.9 13.7 11.5 11.4 12.6 17.5 35.1 25.1 16.9 18.9 22.6 32.6 48 0 0 0 22.3 14.4 15.5 17.5 17.9 20.9 40.4 33.6 25.4 25.7 27 26.9 33.5 31.4 34.9 35.3 36 36.6 49.7 0 0 0 0 0 0 0 0 0 0 0 0 0 0 0 0 0
53.9 0 0 0 0 0 0 0 0 0 0 0 0 0 0 0 0 0 0 0 0 0 0 0 0 0 0 0 0 0 0 0 0 36.3 31 41.4 20.9 45.1 0 25.5 12.6 10.6 10.5 11.9 16.2 16.7 26.2 33.4 33.2 15.2 18.7 24.9 24.4 36 0 0 24.8 12.4 12.1 15.9 20.9 22.9 20 20.6 18.9 19 24.8 29.8 29 33 33.4 33.2 36.1 35.6 42.9 0 0 0 0 0 0 0 0 0 0 0 0 0 0 0 0 0 0
44.4 52.2 0 0 0 0 0 0 0 0 0 0 0 0 0 0 0 0 0 0 0 0 0 0 0 0 0 0 0 0 0 0 0 32.1 31.6 30.2 22.1 35.8 25.1 16.3 10.4 11.1 10.6 18.9 42.3 27.4 26.6 35.5 29.4 17.7 19 18.6 22.5 20.1 22.2 17 10.6 10.9 18 34.4 0 37.9 38 27.8 21.7 22.9 36.3 33.6 31.2 29 30.9 32.7 35.7 36.9 55.2 0 0 0 0 0 0 0 0 0 0 0 0 0 0 0 0 0 0
42.1 44.8 0 0 0 0 0 0 0 0 0 0 0 0 0 0 0 0 0 0 0 0 0 0 0 0 0 0 0 0 0 0 50.7 29.6 29.3 22.9 22 44.4 28.4 13.3 12 12.2 25.3 0 54.5 56.7 0 27.8 22.4 16.4 21.2 17 19.4 14.3 12.5 12.7 18 31.3 0 0 0 0 0 33.2 28.9 25.3 28.8 31.8 31.9 30.7 29.2 37 37.6 42 55.1 0 0 0 0 0 0 0 0 0 0 0 0 0 0 0 0 0 0
48.1 44.3 39.8 45.8 53.9 0 0 0 0 0 0 0 0 0 0 0 0 0 0 0 0 0 0 0 0 0 0 0 0 0 0 0 38.1 27.8 27.9 25 25.4 33.4 33.7 15.6 11.2 13.6 31.4 0 0 0 0 0 36.1 16.8 19 16.9 19.9 25.5 0 0 0 0 0 0 49.2 0 0 0 34.3 34.2 34 29.1 31 30.7 27.5 34.7 42.6 47.9 53.5 0 0 0 0 0 0 0 0 0 0 0 0 0 0 0 0 0 0
49.2 46.4 40 37.3 43.5 51.3 0 0 0 0 0 0 0 0 0 0 0 0 0 0 0 0 0 0 0 0 0 0 0 0 0 0 36.1 31.8 26.4 31.9 29.6 24.2 31.5 19.2 14.6 16 33.6 0 0 0 0 0 32 20.5 25.6 26.6 0 0 0 0 0 0 0 0 47.2 51.4 0 0 0 30.8 29.4 25.7 27.4 28.6 27 36.9 55.8 47.8 48.2 0 0 0 0 0 0 0 0 0 0 0 0 0 0 0 0 0 0
50.4 49.7 46.9 44.5 36.7 42.2 57.7 57.3 0 0 0 0 0 0 0 0 0 0 0 0 0 0 0 0 0 0 0 0 0 0 0 0 37.6 28.8 28.2 32.4 29.9 24.9 21.7 21.1 22.3 21.3 0 49.4 48.5 0 0 0 39.2 23.1 33.4 43.3 0 0 52.5 0 0 0 0 48.5 45.5 0 0 0 0 30.7 24.4 35.6 31.3 26.3 26.8 0 0 42.6 0 0 0 0 0 0 0 0 0 0 0 0 0 0 0 0 0 0 0
50.4 49.7 48.1 45.9 40.4 35.3 44.2 0 0 0 0 0 0 0 0 0 0 0 0 0 0 0 0 0 58 0 0 0 0 0 0 0 0 30 26.5 29 30.3 30.2 22.1 24.9 25 26.6 0 50.4 0 0 0 0 0 24.4 30.6 42.6 43.8 0 48.9 51.2 0 0 0 0 47.7 0 0 0 0 0 21.5 29.8 31.7 25.3 29.3 44.7 0 36.7 0 0 0 0 0 0 0 0 0 0 0 0 0 0 0 0 0 0 0
51.4 50.8 49.5 47.7 44.5 36.9 32.3 44 0 0 0 0 0 0 0 0 0 0 0 0 0 0 54.5 51.6 55.7 0 0 0 0 0 0 0 0 34.2 27.1 31.7 32.7 31.6 25.3 22.3 25.1 27.5 50 51.5 0 0 0 0 0 22.5 23.6 43.9 53.7 46.3 36.2 0 0 0 0 0 44.6 0 0 0 0 0 26.1 18.2 21.2 23.3 24.7 33.2 0 33.8 0 0 42.1 35.6 34.3 36 36.5 43.1 0 0 0 0 0 0 0 0 0 0 0
