ncols         93
nrows         151
xllcorner     -123.807403564453
yllcorner     -226449.671875
cellsize      1500
NODATA_value  -9999
0.0 0 28.8 28.9 23.1 0 0 25.2 25.2 25.2 25.3 25.3 25.3 25.4 25.4 25.4 25.5 25.5 25.6 25.7 25.7 25.7 0 0 25.3 0 0 0 0 0 0 0 25.4 25.5 0 0 0 0 25.8 0 25.5 25.5 25.5 0 0 0 0 0 0 0 0 0 0 0 0 0 0 0 0 0 0 0 0 0 0 0 0 0 0 0 0 0 0 0 0 0 0 0 0 0 0 0 0 0 0 0 0 0 0 0 0 0 0
0 0 28.8 28.8 25.7 0 0 0 25.3 25.3 25.4 25.5 25.7 25.8 26 25.8 25.8 25.8 25.8 25.9 0 0 0 0 25.3 0 0 0 0 0 0 25.3 25.5 0 0 0 25.7 25.7 25.8 0 0 25.5 25.5 0 0 0 0 0 0 0 0 0 0 0 0 0 0 0 0 0 0 0 0 0 0 0 0 0 0 0 0 0 0 0 0 0 0 0 0 0 0 0 0 0 0 0 0 0 0 0 0 0 0
0 0 28.9 28.9 0 0 0 0 25.3 25.5 25.6 25.8 25.9 26.1 26.3 0 0 0 17.6 0 0 0 0 0 25.4 25.5 25.4 0 0 0 0 25.3 25.5 0 0 25.7 25.7 0 0 0 0 25.6 25.6 0 0 0 0 0 0 0 0 0 0 0 0 0 0 0 0 0 0 0 0 0 0 0 0 0 0 0 0 0 0 0 0 0 0 0 0 0 0 0 0 0 0 0 0 0 0 0 0 0 0
0 0 29 28.9 0 0 0 25.4 25.5 25.6 25.8 25.9 26.1 26.2 26.3 0 0 0 0 0 0 0 0 0 25.3 25.4 25.4 25.5 25.5 0 0 25.4 25.5 25.6 25.6 25.6 0 0 0 0 25.6 25.6 25.6 0 0 0 0 0 0 0 0 0 0 0 0 0 0 0 0 0 0 0 0 0 0 0 0 0 0 0 0 0 0 0 0 0 0 0 0 0 0 0 0 0 0 0 0 0 0 0 0 0 0
0 0 29.1 28.8 0 0 0 25.5 25.6 25.8 26 26.1 26.2 26.3 26.4 0 0 0 0 0 0 0 0 0 25.4 25.4 0 0 0 0 0 0 25.5 25.6 0 0 0 0 0 0 25.6 25.6 25.6 0 0 0 0 0 0 0 0 0 0 0 0 0 0 0 0 0 0 0 0 0 0 0 0 0 0 0 0 0 0 0 0 0 0 0 0 0 0 0 0 0 0 0 0 0 0 0 0 0 0
0 0 29 28.8 0 0 25.5 25.6 25.8 26 26.1 26.3 26.3 0 26.4 0 0 0 0 0 0 0 25.2 25.3 25.5 0 0 0 0 0 0 0 25.5 25.6 0 0 0 0 0 0 25.8 25.7 25.6 0 0 0 0 0 0 0 0 0 0 0 0 0 0 0 0 0 0 0 0 0 0 0 0 0 0 0 0 0 0 0 0 0 0 0 0 0 0 0 0 0 0 0 0 0 0 0 0 0 0
0 0 28.9 28.9 0 0 25.6 25.8 26 26.2 26.3 26.4 0 0 26.4 26.4 12.9 0 0 0 0 0 25.3 25.4 25.5 0 0 0 0 0 0 0 25.5 25.6 0 0 0 0 0 25.7 25.9 0 0 0 0 0 0 0 0 0 0 0 0 0 0 0 0 0 0 0 0 0 0 0 0 0 0 0 0 0 0 0 0 0 0 0 0 0 0 0 0 0 0 0 0 0 0 0 0 0 0 0 0
0 28.7 28.2 29 0 0 25.9 26 26.2 26.4 26.4 26.4 26.4 26.4 26.4 26.4 26.5 0 0 0 0 0 25.3 25.4 25.5 25.5 0 0 0 0 0 25.5 25.5 25.6 0 0 0 25.7 25.7 25.8 25.8 0 0 0 0 0 0 0 0 0 0 0 0 0 0 0 0 0 0 0 0 0 0 0 0 0 0 0 0 0 0 0 0 0 0 0 0 0 0 0 0 0 0 0 0 0 0 0 0 0 0 0 0
0 28.4 28.3 28.4 20.7 26.7 26.4 26.3 26.5 26.5 26.5 26.5 26.4 26.4 26.4 26.4 0 0 0 0 0 0 25.4 25.5 25.6 25.5 0 25.5 25.5 25.5 25.6 25.6 25.6 25.7 25.7 25.7 25.7 25.8 25.8 25.9 0 0 0 0 0 0 0 0 0 0 0 0 0 0 0 0 0 0 0 0 0 0 0 0 0 0 0 0 0 0 0 0 0 0 0 0 0 0 0 0 0 0 0 0 0 0 0 0 0 0 0 0 0
0 19.5 28 28.1 27.6 26.9 26.8 26.7 26.7 26.7 26.7 26.6 26.5 26.4 26.4 0 0 0 0 0 0 0 25.6 25.6 25.6 25.6 25.6 25.7 25.7 25.7 25.8 25.8 25.8 25.8 25.8 25.8 25.8 25.8 25.9 0 0 0 0 0 0 0 0 0 0 0 0 0 0 0 0 0 0 0 0 0 0 0 0 0 0 0 0 0 0 0 0 0 0 0 0 0 0 0 0 0 0 0 0 0 0 0 0 0 0 0 0 0 0
0 19.3 28.1 27.8 27.5 27.1 27 27 27 26.9 26.8 26.7 26.6 26.6 0 25.7 25.8 25.7 25.7 25.7 25.8 25.8 25.8 25.7 25.7 25.7 25.7 25.7 25.8 0 25.8 0 0 0 0 0 0 0 0 0 0 0 0 0 0 0 0 0 0 0 0 0 0 0 0 0 0 0 0 0 0 0 0 0 0 0 0 0 0 0 0 0 0 0 0 0 0 0 0 0 0 0 0 0 0 0 0 0 0 0 0 0 0
0 13.6 28.2 28 27.8 27.5 27.3 27.3 27.2 27.1 27 26.9 26.8 26.6 26.3 26.2 26.1 26 26 26 26.1 26.1 26.1 25.9 25.8 25.7 25.7 25.8 25.8 25.8 25.9 25.9 26 0 0 0 0 0 0 0 0 0 0 0 0 0 0 0 0 0 0 0 0 0 0 0 0 0 0 0 0 0 0 0 0 0 0 0 0 0 0 0 0 0 0 0 0 0 0 0 0 0 0 0 0 0 0 0 0 0 0 0 0
0 19.3 28.1 28.1 27.9 27.7 27.6 27.5 27.4 27.3 27.2 27.1 27 26.9 26.8 26.6 26.4 26.3 26.3 26.3 26.3 26.3 26.3 0 0 25.6 0 0 0 0 25.9 26 0 0 0 0 0 0 0 0 0 0 0 0 0 0 0 0 0 0 0 0 0 0 0 0 0 0 0 0 0 0 0 0 0 0 0 0 0 0 0 0 0 0 0 0 0 0 0 0 0 0 0 0 0 0 0 0 0 0 0 0 0
0 28 28.1 28.2 28.1 27.9 27.7 27.6 27.5 27.4 27.3 27.3 27.2 27.1 27 0 26.5 26.5 26.4 26.4 26.4 26.4 26.3 0 0 25.5 0 0 0 0 0 0 0 0 0 0 0 0 0 0 0 0 0 0 0 0 0 0 0 0 0 0 0 0 0 0 0 0 0 0 0 0 0 0 0 0 0 0 0 0 0 0 0 0 0 0 0 0 0 0 0 0 0 0 0 0 0 0 0 0 0 0 0
0 28 28.2 28.2 28.1 28 27.8 27.7 27.6 27.5 27.4 27.3 27.2 27.2 27.1 0 0 26.6 26.6 26.6 26.5 26.5 26.3 0 0 25.6 25.7 0 0 0 0 0 0 0 0 0 0 0 0 0 0 0 0 0 0 0 0 0 0 0 0 0 0 0 0 0 0 0 0 0 0 0 0 0 0 0 0 0 0 0 0 0 0 0 0 0 0 0 0 0 0 0 0 0 0 0 0 0 0 0 0 0 0
0 11.1 28.2 28.2 28.2 28 27.9 27.8 27.7 27.6 27.5 27.4 27.3 27.2 27.1 0 0 0 26.7 26.6 26.6 26.5 26.3 0 0 0 25.7 0 0 0 0 0 0 0 0 0 0 0 0 0 0 0 0 0 0 0 0 0 0 0 0 0 0 0 0 0 0 0 0 0 0 0 0 0 0 0 0 0 0 0 0 0 0 0 0 0 0 0 0 0 0 0 0 0 0 0 0 0 0 0 0 0 0
0 0 28.2 28.2 28.2 28.1 28 27.8 27.8 27.7 27.6 27.5 27.4 27.3 27.2 27 21.3 26.8 26.8 26.7 26.6 26.5 26.4 0 0 0 0 0 0 0 0 0 0 0 0 0 0 0 0 0 0 0 0 0 0 0 0 0 0 0 0 0 0 0 0 0 0 0 0 0 0 0 0 0 0 0 0 0 0 0 0 0 0 0 0 0 0 0 0 0 0 0 0 0 0 0 0 0 0 0 0 0 0
0 0 28 28.2 28.2 28.1 28 27.9 27.8 27.7 27.6 27.5 27.5 27.3 27.2 27.1 26.9 26.8 26.8 26.8 26.7 26.6 26.4 0 0 0 0 0 0 0 0 0 0 0 0 0 0 0 0 0 0 0 0 0 0 0 0 0 0 0 0 0 0 0 0 0 0 0 0 0 0 0 0 0 0 0 0 0 0 0 0 0 0 0 0 0 0 0 0 0 0 0 0 0 0 0 0 0 0 0 0 0 0
0 0 28.1 28.3 28.2 28.1 28 28 27.9 27.8 27.7 27.6 27.5 27.4 27.3 27.2 27.1 26.9 26.9 26.9 26.8 26.6 26.4 26.1 0 0 0 0 0 0 0 0 0 0 0 0 0 0 0 0 0 0 0 0 0 0 0 0 0 0 0 0 0 0 0 0 0 0 0 0 0 0 0 0 0 0 0 0 0 0 0 0 0 0 0 0 0 0 0 0 0 0 0 0 0 0 0 0 0 0 0 0 0
0 0 28 28.3 28.3 28.2 28.1 28 27.9 27.8 27.8 27.7 27.6 27.5 27.4 27.3 27.2 0 27 27 26.9 26.8 26.6 26.2 0 0 0 0 0 0 0 0 0 0 0 0 0 0 0 0 0 0 0 0 0 0 0 0 0 0 0 0 0 0 0 0 0 0 0 0 0 0 0 0 0 0 0 0 0 0 0 0 0 0 0 0 0 0 0 0 0 0 0 0 0 0 0 0 0 0 0 0 0
0 0 0 28.3 28.3 28.2 28.1 28 28 27.9 27.8 27.8 27.7 27.6 27.5 27.3 27.2 27.1 10.4 0 0 27 26.6 26.3 0 0 0 0 0 0 0 0 0 0 0 0 0 0 0 0 0 0 0 0 0 0 0 0 0 0 0 0 0 0 0 0 0 0 0 0 0 0 0 0 0 0 0 0 0 0 0 0 0 0 0 0 0 0 0 0 0 0 0 0 0 0 0 0 0 0 0 0 0
0 0 0 28.2 28.3 28.3 28.2 28.1 28 28 27.9 27.8 27.8 27.7 27.6 27.5 27.3 27.1 27 26.9 27 15.8 26.7 26.3 0 0 0 0 0 0 0 0 0 0 0 0 0 0 0 0 0 0 0 0 0 0 0 0 0 0 0 0 0 0 0 0 0 0 0 0 0 0 0 0 0 0 0 0 0 0 0 0 0 0 0 0 0 0 0 0 0 0 0 0 0 0 0 0 0 0 0 0 0
0 0 0 13.9 28.4 28.3 28.2 28.1 28.1 28 27.9 27.9 27.8 27.8 27.7 27.6 27.5 27.4 27.2 27.1 27.1 27 26.7 26.3 25.9 0 0 0 0 0 0 0 0 0 0 0 0 0 0 0 0 0 0 0 0 0 0 0 0 0 0 0 0 0 0 0 0 0 0 0 0 0 0 0 0 0 0 0 0 0 0 0 23.8 0 0 0 0 0 0 0 0 0 0 0 0 0 0 0 0 0 0 0 0
0 0 0 0 28.3 28.3 28.2 28.2 28.1 28 28 27.9 27.9 27.8 27.8 27.7 27.6 27.5 27.4 27.3 27.2 27.1 26.8 26.5 26.1 0 0 0 0 0 0 0 0 0 0 0 0 0 0 0 0 0 0 0 0 0 0 0 0 0 0 0 0 0 0 0 0 0 0 0 0 0 0 0 0 0 0 0 0 0 0 23.8 23.8 0 0 0 0 0 0 0 0 0 0 0 0 0 0 0 0 0 0 0 0
0 0 0 0 28.3 28.3 28.3 28.2 28.1 28.1 28 28 27.9 27.9 27.8 27.8 27.7 27.6 27.5 27.4 27.3 27.2 27 26.6 26.2 25.7 0 0 0 0 0 0 0 0 0 0 0 0 0 0 0 0 0 0 0 0 0 0 0 0 0 0 0 0 0 0 0 0 0 0 0 0 0 0 0 0 0 0 0 0 0 0 23.8 23.8 0 0 0 0 0 0 0 0 0 0 0 0 0 0 0 0 0 0 0
0 0 0 0 28.3 28.3 28.3 28.2 28.2 28.1 28 28 27.9 27.9 27.9 27.8 27.8 27.7 27.6 27.5 27.4 27.3 27.1 26.8 26.4 25.9 25.5 0 0 0 0 0 0 0 0 0 0 0 0 0 0 0 0 0 0 0 0 0 0 0 0 0 0 0 0 0 0 0 0 0 0 0 0 0 0 0 0 0 0 0 0 0 23.8 23.8 0 0 0 0 0 0 0 0 0 0 0 0 0 0 0 0 0 0 0
0 0 0 0 16.9 28.4 28.3 28.3 28.2 28.1 28.1 28 28 27.9 27.9 27.8 27.8 27.7 27.6 27.6 27.5 27.3 27.2 27 26.7 26.3 25.7 0 0 0 0 0 0 0 0 0 0 0 0 0 0 0 0 0 0 0 0 0 0 0 0 0 0 0 0 0 0 0 0 0 0 0 0 0 0 0 0 0 0 0 0 0 0 23.8 23.9 0 0 0 0 0 0 0 0 0 0 0 0 0 0 0 0 0 0
0 0 0 0 0 28.4 28.4 28.3 28.2 28.2 28.1 28 28 28 27.9 27.9 27.8 27.8 27.7 27.6 27.5 27.4 27.2 27.1 26.9 26.4 25.8 0 0 0 0 0 0 0 0 0 0 0 0 0 0 0 0 0 0 0 0 0 0 0 0 0 0 0 0 0 0 0 0 0 0 0 0 0 0 0 0 0 0 0 0 0 0 23.8 23.9 23.9 0 0 0 0 0 0 0 0 0 0 0 0 0 0 0 0 0
0 0 0 0 0 28.4 28.4 28.3 28.3 28.2 28.1 28.1 28 28 27.9 27.9 27.8 27.8 27.7 27.6 27.5 27.4 27.2 27.1 0 26.3 25.7 25.3 0 0 0 0 0 0 0 0 0 0 0 0 0 0 0 0 0 0 0 0 0 0 0 0 0 0 0 0 0 0 0 0 0 0 0 0 0 0 0 0 0 0 0 0 0 0 23.8 23.9 23.9 0 0 0 0 0 0 0 0 0 0 0 0 0 0 0 0
0 0 0 0 0 28.4 28.4 28.4 28.3 28.2 28.2 28.1 28 28 27.9 27.9 27.9 27.8 27.7 27.6 27.5 27.4 27.2 0 0 26.3 25.9 25.4 0 0 0 0 0 0 0 0 0 0 0 0 0 0 0 0 0 0 0 0 0 0 0 0 0 0 0 0 0 0 0 0 0 0 0 0 0 0 0 0 0 0 0 0 0 0 0 23.9 23.9 0 0 0 0 0 0 0 0 0 0 0 0 0 0 0 0
0 0 0 0 0 0 28.5 28.4 28.3 28.2 28.2 28.1 28.1 28 28 27.9 27.9 27.8 27.7 27.6 27.5 27.4 27.1 26.8 26.7 26.5 26 25.4 24.9 0 0 0 0 0 0 0 0 0 0 0 0 0 0 0 0 0 0 0 0 0 0 0 0 0 0 0 0 0 0 0 0 0 0 0 0 0 0 0 0 0 0 0 0 0 0 23.9 23.9 23.9 0 0 0 0 0 0 0 0 0 0 0 0 0 0 0
0 0 0 0 0 0 28.4 28.4 28.4 28.3 28.2 28.1 28.1 28 28 27.9 27.9 27.8 27.7 27.6 27.5 27.4 27.3 27.1 26.9 26.6 26.2 25.8 25.4 0 0 0 0 0 0 0 0 0 0 0 0 0 0 0 0 0 0 0 0 0 0 0 0 0 0 0 0 0 0 0 0 0 0 0 0 0 0 0 0 0 0 0 0 0 0 23.8 23.9 23.9 0 0 0 0 0 0 0 0 0 0 0 0 0 0 0
0 0 0 0 0 0 0 28.4 28.4 28.3 28.2 28.1 28.1 28 28 27.9 27.8 27.8 27.7 27.6 27.5 27.5 27.4 27.2 27 26.7 26.3 25.9 25.6 25.6 0 0 0 0 0 0 0 0 0 0 0 0 0 0 0 0 0 0 0 0 0 0 0 0 0 0 0 0 0 0 0 0 0 0 0 0 0 0 0 0 0 0 0 0 0 23.8 23.9 23.9 0 0 0 0 0 0 0 0 0 0 0 0 0 0 0
0 0 0 0 0 0 0 16.9 28.4 28.3 28.2 28.1 28.1 28 27.9 27.9 27.8 27.8 27.7 27.6 27.5 27.5 27.4 27.3 27.1 26.7 26.3 25.9 25.6 0 0 0 0 0 0 0 0 0 0 0 0 0 0 0 0 0 0 0 0 0 0 0 0 0 0 0 0 0 0 0 0 0 0 0 0 0 0 0 0 0 0 0 0 0 0 0 23.9 23.9 0 0 0 0 0 0 0 0 0 0 0 0 0 0 0
9.3 9.7 0 0 0 0 0 11.2 28.4 28.3 28.2 28.1 28.1 28 27.9 27.9 27.8 27.7 27.7 27.6 27.5 27.5 0 0 27 26.6 26.2 25.8 25.6 0 0 0 0 0 0 0 0 0 0 0 0 0 0 0 0 0 0 0 0 0 0 0 0 0 0 0 0 0 0 0 0 0 0 0 0 0 0 0 0 0 0 0 0 0 23.9 23.9 23.9 23.9 0 0 0 0 0 0 0 0 0 0 0 0 0 0 0
0 21.5 27.4 0 0 0 19.7 22.5 28.3 28.3 28.2 28.1 28 28 27.9 27.8 27.8 27.7 27.6 27.6 27.5 27.5 0 0 26.9 26.6 26.2 25.7 0 0 0 0 0 0 0 0 0 0 0 0 0 0 0 0 0 0 0 0 0 0 0 0 0 0 0 0 0 0 0 0 0 0 23.7 23.7 23.7 23.8 0 23.7 23.8 23.8 23.9 23.9 23.9 23.9 24 24 24 24 23.9 0 0 0 0 0 0 0 0 0 0 0 0 0 0
0 24.2 27.4 27.7 13.8 28.2 28.3 28.3 28.3 28.2 28.2 28.1 28 28 27.9 27.8 27.7 27.7 27.6 27.5 27.5 0 0 0 26.9 26.7 26.2 25.6 25.1 0 0 0 0 0 0 0 0 0 0 0 0 0 0 0 0 0 0 0 0 0 0 0 0 0 0 0 0 0 0 0 0 23.6 23.8 23.8 23.8 23.9 23.9 23.9 23.9 23.9 23.9 24 24 24 24 0 0 0 0 0 0 0 0 0 0 0 0 0 0 0 0 0 0
0 0 27.5 27.8 28.2 28.2 28.2 28.2 28.2 28.1 28.1 28.1 28 27.9 27.9 27.8 27.7 27.6 27.5 27.5 0 0 0 0 27 26.9 26.4 25.8 25.3 25 0 0 0 0 0 0 0 0 0 0 0 0 0 0 0 0 0 0 0 0 0 0 0 0 0 0 0 0 0 0 23.6 23.8 23.9 0 0 0 0 0 0 0 0 0 0 0 0 0 0 0 0 0 0 0 0 0 0 0 0 0 0 0 0 0 0
0 0 27.5 27.8 28.1 28.2 28.1 28.2 28.1 28.1 28.1 28 28 27.9 27.8 27.8 27.7 27.6 27.5 27.4 0 0 0 0 0 27 26.7 26.2 25.7 25.2 24.9 0 0 0 0 0 0 0 0 0 0 0 0 0 0 0 0 0 0 0 0 0 0 0 0 0 0 0 0 0 23.7 23.8 0 0 0 0 0 0 0 0 0 0 0 0 0 0 0 0 0 0 0 0 0 0 0 0 0 0 0 0 0 0 0
0 0 27.6 27.8 28.1 28.2 28.1 28.1 28.1 28.1 28.1 28 27.9 27.9 27.8 27.7 27.7 27.6 27.5 27.4 0 0 0 0 0 0 26.8 26.5 26 25.6 25.2 0 0 0 0 0 0 0 0 0 0 0 0 0 0 0 0 0 0 0 0 0 0 0 0 0 0 24.2 0 0 23.7 23.8 0 0 0 0 0 0 0 0 0 0 0 0 0 0 0 0 0 0 0 0 0 0 0 0 0 0 0 0 0 0 0
0 0 27.6 27.8 25.2 28.1 28.1 28.1 28.1 28.1 28 28 27.9 27.9 27.8 27.7 27.6 27.6 27.5 27.4 27.4 0 0 0 0 0 26.9 26.7 26.4 25.9 25.4 25 0 0 0 0 0 0 0 0 0 0 0 0 0 0 0 0 0 0 0 0 0 0 0 0 24.3 24.3 0 0 23.7 23.8 0 0 0 0 0 0 0 0 0 0 0 0 0 0 0 0 0 0 0 0 0 0 0 0 0 0 0 0 0 0 0
0 0 27.6 27.7 25.1 28.1 28.1 28.1 28.1 28.1 28 28 27.9 27.8 27.8 27.7 27.6 27.6 27.5 27.4 27.4 27.3 0 0 0 0 0 26.8 26.7 26.3 25.7 25.2 24.8 21.8 0 0 0 0 0 0 0 0 0 0 0 0 0 0 0 0 0 0 0 0 24.1 24.2 24.3 0 0 0 23.7 23.8 0 0 0 0 0 0 0 0 0 0 0 0 0 0 0 0 0 0 0 0 0 0 0 0 0 0 0 0 0 0 0
0 27.5 27.6 27.6 0 28 28.1 28.1 28.1 28.1 28 28 27.9 27.8 27.8 27.7 27.6 27.6 27.5 27.5 27.4 27.3 27.3 0 0 0 0 0 0 26.5 26.1 25.6 25.1 24.8 24.5 24.4 0 0 0 0 0 0 0 0 0 0 0 0 0 0 0 0 0 24 24.1 24.1 0 0 0 0 23.7 23.9 0 0 0 0 0 0 0 0 0 0 0 0 0 0 0 0 0 0 0 0 0 0 0 0 0 0 0 0 0 0 0
0 27.5 27.5 0 0 28 28.2 28.2 28.1 28.1 28 28 27.9 27.8 27.8 27.7 27.6 27.6 27.5 27.5 27.4 27.4 27.3 0 0 0 0 0 0 0 26.5 26.1 25.7 25.2 24.9 24.6 24.3 0 0 0 0 0 0 0 0 0 0 0 0 0 0 0 0 24 24.1 24.1 0 0 0 0 0 24 23.9 23.8 23.9 0 0 0 0 0 0 0 0 0 0 0 0 0 0 0 0 0 0 0 0 0 0 0 0 0 0 0 0
0 27.5 0 0 0 0 28.2 28.2 28.1 28.1 28 28 27.9 27.9 27.8 27.7 27.6 27.6 27.5 27.5 27.4 27.4 27.3 27.3 0 0 0 0 0 0 0 26.4 26 25.6 25.3 24.9 24.6 24.5 0 24.2 24.2 0 0 0 0 0 0 0 0 0 23.9 23.9 0 24 24 24 0 0 0 0 0 0 23.9 23.9 0 0 0 0 0 0 0 0 0 0 0 0 0 0 0 0 0 0 0 0 0 0 0 0 0 0 0 0 0
0 27.5 0 0 0 0 28.2 28.2 28.1 28.1 28.1 28 27.9 27.9 27.8 27.7 27.6 27.6 27.5 27.5 27.4 27.4 27.3 27.3 27.2 0 0 0 0 0 0 0 26.2 25.8 25.5 25.2 24.9 24.7 0 24.2 24.3 24.2 24.2 24.2 0 0 0 0 0 0 23.9 24 24 24 24 24 0 0 0 0 0 0 23.9 23.9 0 0 0 0 0 0 0 0 0 0 0 0 0 0 0 0 0 0 0 0 0 0 0 0 0 0 0 0 0
0 27.5 0 0 0 0 28.2 28.2 28.2 28.1 28.1 28 28 27.9 27.8 27.7 27.7 27.6 27.5 27.5 27.4 27.4 27.3 27.3 27.2 0 0 0 0 0 0 0 26.3 26 25.7 25.3 25.1 24.8 24.6 24.6 24.5 24.5 24.4 24.4 24.4 24.4 0 24 24 24.1 24.1 24 24 24 24 0 0 0 0 0 0 23.8 23.9 23.9 0 0 0 0 0 0 0 0 0 0 0 0 0 0 0 0 0 0 0 0 0 0 0 0 0 0 0 0 0
0 27.4 27.4 0 0 0 28.1 28.1 28.1 28.1 28.1 28.1 28 27.9 27.8 27.7 27.7 27.6 27.5 27.5 27.4 27.4 27.3 27.3 27.2 0 0 0 0 0 0 0 26.4 26.1 25.8 25.5 25.3 25 24.9 24.8 0 0 24.7 24.7 24.8 24.7 24.5 24.3 24.3 24.3 24.2 24.2 24.1 24 0 0 0 0 0 0 23.9 24 24.1 0 0 0 0 0 0 0 0 0 0 0 0 0 0 0 0 0 0 0 0 0 0 0 0 0 0 0 0 0 0
0 27.4 27.4 0 0 0 28.1 28.1 11.1 13.9 28.2 28.1 28.1 28 27.8 27.8 27.7 27.6 27.5 27.5 27.4 27.4 27.3 27.3 27.2 0 0 0 0 0 0 0 26.4 26.2 25.9 25.6 25.4 25.2 25 24.9 24.8 24.9 24.9 0 0 0 24.4 24.4 0 24.3 24.3 24.3 24.2 24.1 24 0 23.8 23.9 23.9 24 24.1 24.1 0 0 0 0 0 0 0 0 0 0 0 0 0 0 0 0 0 0 0 0 0 0 0 0 0 0 0 0 0 0 0
0 0 27.5 0 0 0 28 11.1 0 0 0 28.2 28.1 28 27.9 27.8 27.7 27.6 27.5 27.5 27.4 27.4 27.3 27.3 27.2 0 0 0 0 0 0 0 26.4 26.3 26 25.7 25.5 25.3 25.1 25.1 25 25 0 0 0 0 0 0 0 0 0 0 24.3 24.2 24.1 24 24 24.1 24.1 24.1 24.1 0 0 0 0 0 0 0 0 0 0 0 0 0 0 0 0 0 0 0 0 0 0 0 0 0 0 0 0 0 0 0 0
0 13.3 27.5 27.5 0 0 28 0 0 0 0 0 28.1 28 27.9 27.8 27.7 27.6 27.5 27.4 27.4 27.4 27.3 27.3 27.2 0 0 0 0 0 0 0 26.5 26.3 26.1 25.8 25.6 25.3 25.2 25.1 0 0 0 0 0 0 0 0 0 0 0 0 0 24.3 24.3 24.2 24.1 24.1 0 0 0 0 0 0 0 0 0 0 0 0 0 0 0 0 0 0 0 0 0 0 0 0 0 0 0 0 0 0 0 0 0 0 0
0 18.7 27.3 27.5 0 0 28.2 0 0 0 0 0 28.1 28 27.9 27.8 27.7 27.6 27.5 27.4 27.4 27.3 27.3 27.2 27.2 27.1 0 0 0 0 0 0 26.5 26.4 26.2 25.9 25.6 25.4 25.1 0 0 0 0 0 0 0 0 0 24.5 24.5 24.5 24.5 24.5 24.5 24.3 24.1 0 0 0 0 0 0 0 0 0 0 0 0 0 0 0 0 0 0 0 0 0 0 0 0 0 0 0 0 0 0 0 0 0 0 0 0 0
0 0 27.3 27.6 27.8 0 28.2 28.3 0 0 11.1 22.4 0 28 27.9 27.8 27.6 27.5 27.5 27.4 27.4 27.3 27.3 27.2 27.2 27.1 0 0 0 0 0 0 0 26.4 26.2 26 25.7 25.4 25.1 0 0 0 0 0 0 0 0 24.5 24.6 0 0 0 0 0 0 24 0 0 0 0 0 0 0 0 0 0 0 0 0 0 0 0 0 0 0 0 0 0 0 0 0 0 0 0 0 0 0 0 0 0 0 0 0
0 0 0 24.7 22.2 28 28.1 28.2 28.1 28.1 28.1 28 28 27.9 27.8 27.7 27.6 27.5 27.5 27.4 27.4 27.3 27.3 27.2 27.2 27.1 27 0 0 0 0 0 0 26.4 26.3 26 25.7 25.4 25.1 24.8 0 0 0 0 0 24.5 24.6 24.6 0 0 0 0 0 0 0 23.8 0 0 0 0 0 0 0 0 0 0 0 0 0 0 0 0 0 0 0 0 0 0 0 0 0 0 0 0 0 0 0 0 0 0 0 0 0
0 0 0 0 0 28 28.1 28.1 28.1 28.1 28 28 27.9 27.9 27.8 27.7 27.6 27.5 27.4 27.4 27.3 27.3 27.2 27.2 27.2 27.1 27 27 0 0 0 0 0 26.5 26.3 26.1 25.9 25.5 25.2 24.9 24.7 0 0 0 0 24.7 0 0 0 0 0 0 0 0 0 0 0 0 0 0 0 0 0 0 0 0 0 0 0 0 0 0 0 0 0 0 0 0 0 0 0 0 0 0 0 0 0 0 0 0 0 0 0
0 0 0 0 0 16.7 28.1 28.1 28.1 28 28 27.9 27.9 27.8 27.7 27.7 27.6 27.5 27.4 27.4 27.3 27.3 27.2 27.2 27.1 27.1 27 27 0 0 0 0 0 26.5 26.4 26.2 26 25.7 25.4 25.1 24.8 24.6 0 24.5 24.6 24.7 0 0 0 0 0 0 0 0 0 0 0 0 0 0 0 0 0 0 0 0 0 0 0 0 0 0 0 0 0 0 0 0 0 0 0 0 0 0 0 0 0 0 0 0 0 0 0
0 0 0 0 0 0 28.1 28.1 28 28 27.9 27.9 27.8 27.8 27.7 27.6 27.6 27.5 27.4 27.4 27.3 27.2 27.2 27.2 27.1 27.1 27 27 26.9 0 0 0 0 0 26.5 26.3 26 25.8 25.5 25.2 25 24.7 24.7 24.7 0 0 0 0 0 0 0 0 0 0 0 0 0 0 0 0 0 0 0 0 0 0 0 0 0 0 0 0 0 0 0 0 0 0 0 0 0 0 0 0 0 0 0 0 0 0 0 0 0
0 0 0 0 0 0 28 28 28 28 27.9 27.9 27.8 27.8 27.7 27.6 27.6 27.5 27.4 27.4 27.3 27.3 27.3 27.2 27.2 27.1 27.1 27 27 0 0 0 0 0 26.5 26.3 26.1 25.8 25.6 25.3 25 24.9 24.8 24.8 0 0 0 0 0 0 0 0 0 0 0 0 0 0 0 0 0 0 0 0 0 0 0 0 0 0 0 0 0 0 0 0 0 0 0 0 0 0 0 0 0 0 0 0 0 0 0 0 0
0 0 0 0 0 0 16.7 28 28 27.9 27.9 27.9 27.8 27.8 27.7 27.6 27.6 27.5 27.4 27.4 27.3 27.3 27.3 0 27.2 27.2 27.2 27.1 27 26.9 0 0 0 0 26.5 26.4 26.2 25.9 25.6 25.4 25.1 24.9 24.9 24.8 0 0 0 0 0 0 0 0 0 0 0 0 0 0 0 0 0 0 0 0 0 0 0 0 0 0 0 0 0 0 0 0 0 0 0 0 0 0 0 0 0 0 0 0 0 0 0 0 0
0 0 0 0 0 0 11.1 28 28 27.9 27.9 27.8 27.8 27.8 27.7 27.7 27.6 27.5 27.4 27.4 27.3 27.2 27.2 0 0 0 27.2 27.1 27 26.9 26.9 0 0 0 26.6 26.5 26.2 26 25.7 25.4 25.2 25 24.9 0 0 0 0 0 0 0 0 0 0 0 0 0 0 0 0 0 0 0 0 0 0 0 0 0 0 0 0 0 0 0 0 0 0 0 0 0 0 0 0 0 0 0 0 0 0 0 0 0 0
0 0 0 0 0 0 0 22.2 28 27.9 27.9 27.8 27.8 27.8 27.7 27.7 27.6 27.5 27.4 27.4 27.3 27.2 27.2 0 0 0 0 27.2 27.1 27 26.9 0 0 0 0 26.5 26.3 26 25.8 25.5 25.3 25.1 25 19.2 0 0 0 0 0 0 0 0 0 0 0 0 0 0 0 0 0 0 0 0 0 0 0 0 0 0 0 0 0 0 0 0 0 0 0 0 0 0 0 0 0 0 0 0 0 0 0 0 0
0 0 0 0 0 0 0 13.8 28 27.9 27.9 27.9 27.8 27.8 27.7 27.7 27.6 27.5 27.4 27.4 27.3 27.2 27.2 0 0 0 0 0 27.2 27.1 26.9 26.8 0 0 0 26.5 26.3 26.1 25.8 25.6 25.4 25.2 25 24.8 0 0 0 0 0 0 0 0 0 0 0 0 0 0 0 0 0 0 0 0 0 0 0 0 0 0 0 0 0 0 0 0 0 0 0 0 0 0 0 0 0 0 0 0 0 0 0 0 0
0 0 0 0 0 0 0 0 25.1 27.9 27.9 27.9 27.8 27.8 27.8 27.7 27.6 27.6 27.5 27.4 27.3 27.2 27.1 27 0 0 0 0 0 27.1 27 26.8 26.6 0 0 26.5 26.3 26.1 25.9 25.6 25.5 25.3 25.1 24.9 0 0 0 0 0 0 0 0 0 0 0 0 0 0 0 0 0 0 0 0 0 0 0 0 0 0 0 0 0 0 0 0 0 0 0 0 0 0 0 0 0 0 0 0 0 0 0 0 0
0 0 0 0 0 0 0 0 0 25.1 27.9 27.9 27.9 27.8 27.8 27.7 27.7 27.6 27.5 27.4 27.3 27.2 27.1 27 27 0 0 0 0 27.1 27 26.9 26.7 0 0 26.5 26.3 26.1 25.9 25.7 25.5 25.3 25.2 25 0 0 0 0 0 0 0 0 0 0 0 0 0 0 0 0 0 0 0 0 0 0 0 0 0 0 0 0 0 0 0 0 0 0 0 0 0 0 0 0 0 0 0 0 0 0 0 0 0
0 0 0 0 0 0 0 0 0 0 27.7 27.7 27.8 27.8 27.8 27.8 27.7 27.6 27.5 27.4 27.3 27.2 27.1 27.1 27 27 0 0 0 0 27.1 26.9 26.7 0 0 26.5 26.3 26.1 25.8 25.7 25.5 25.4 25.2 25 0 0 0 0 0 0 0 0 0 0 0 0 0 0 0 0 0 0 0 0 0 0 0 0 0 0 0 0 0 0 0 0 0 0 0 0 0 0 0 0 0 0 0 0 0 0 0 0 0
0 0 0 0 0 0 0 0 0 0 0 0 27.8 27.8 27.8 27.8 27.7 27.6 27.6 27.4 27.4 27.3 27.2 27.1 27 27 26.9 26.9 0 0 0 26.9 26.7 26.5 0 26.5 26.3 26 25.8 25.6 25.5 25.4 25.2 25 0 0 0 0 0 0 0 0 0 0 0 0 0 0 0 0 0 0 0 0 0 0 0 0 0 0 0 0 0 0 0 0 0 0 0 0 0 0 0 0 0 0 0 0 0 0 0 0 0
0 0 0 0 0 0 0 0 0 0 0 0 22.1 27.8 27.8 27.8 27.8 27.7 27.6 27.5 27.4 27.3 27.2 27.1 27 27 26.9 26.8 26.8 0 0 26.9 26.7 26.5 26.5 26.4 26.2 25.9 25.7 25.5 25.5 25.4 25.2 25 0 0 0 0 0 0 0 0 0 0 0 0 0 0 0 0 0 0 0 0 0 0 0 0 0 0 0 0 0 0 0 0 0 0 0 0 0 0 0 0 0 0 0 0 0 0 0 0 0
0 0 0 0 0 0 0 0 0 0 0 0 0 0 0 27.8 27.8 27.7 27.6 27.5 27.4 27.3 27.2 27.1 27.1 27 26.9 26.9 26.8 26.8 0 26.8 26.6 26.5 26.3 26.2 26 25.9 25.7 25.5 25.5 25.5 25.2 24.9 0 0 0 0 0 0 0 0 0 0 0 0 0 0 0 0 0 0 0 0 0 0 0 0 0 0 0 0 0 0 0 0 0 0 0 0 0 0 0 0 0 0 0 0 0 0 0 0 0
0 0 0 0 0 0 0 0 0 0 0 0 0 0 0 0 27.8 27.7 27.7 27.6 27.5 27.3 27.2 27.2 27.1 27 26.9 26.9 26.8 26.7 26.7 26.7 26.5 26.4 26.3 26.1 26 25.8 25.7 25.5 25.4 0 25.2 25 0 0 0 0 0 0 0 0 0 0 0 0 0 0 0 0 0 0 0 0 0 0 0 0 0 0 0 0 0 0 0 0 0 0 0 0 0 0 0 0 0 0 0 0 0 0 0 0 0
0 0 0 0 0 0 0 0 0 0 0 0 0 0 0 0 0 27.7 27.7 27.6 27.5 27.4 27.3 27.2 27.1 27 26.9 26.9 26.8 26.7 26.6 26.5 26.4 26.3 26.2 26.1 25.9 25.8 25.6 25.5 25.3 0 0 24.8 24.4 24.3 0 0 0 0 0 0 0 0 0 0 0 0 0 0 0 0 0 0 0 0 0 0 0 0 0 0 0 0 0 0 0 0 0 0 0 0 0 0 0 0 0 0 0 0 0 0 0
0 0 0 0 0 0 0 0 0 0 0 0 0 0 0 0 0 0 27.7 27.6 27.5 27.4 27.3 27.2 27.1 27 26.9 26.8 26.8 26.7 26.6 26.5 26.4 26.3 26.2 26 25.9 25.8 25.6 25.5 25.3 0 24.8 24.7 24.4 0 0 0 0 0 0 0 0 0 0 0 0 0 0 0 0 0 0 0 0 0 0 0 0 0 0 0 0 0 0 0 0 0 0 0 0 0 0 0 0 0 0 0 0 0 0 0 0
0 0 0 0 0 0 0 0 0 0 0 0 0 0 0 0 0 0 27.6 27.5 27.5 27.5 27.4 27.3 27.2 27.1 27 26.9 26.8 26.7 26.5 26.4 26.3 26.2 26.1 26 25.9 25.8 25.6 25.5 25.3 25 24.9 24.7 24.4 0 0 0 0 0 0 0 0 0 0 0 0 0 0 0 0 0 0 0 0 0 0 0 0 0 0 0 0 0 0 0 0 0 0 0 0 0 0 0 0 0 0 0 0 0 0 0 0
0 0 0 0 0 0 0 0 0 0 0 0 0 0 0 0 0 0 0 0 27.6 27.5 27.4 27.3 27.2 27.1 27 26.9 26.8 26.7 26.5 26.4 26.3 26.2 26.1 26 25.9 25.8 25.6 25.5 25.3 25.1 25 24.8 24.5 0 0 0 0 0 0 0 0 0 0 0 0 0 0 0 0 0 0 0 0 0 0 0 0 0 0 0 0 0 0 0 0 0 0 0 0 0 0 0 0 0 0 0 0 0 0 0 0
0 0 0 0 0 0 0 0 0 0 0 0 0 0 0 0 0 0 0 0 0 27.5 27.5 27.4 27.3 27.2 27.1 26.9 26.8 26.7 26.6 26.4 26.3 26.2 26.1 26 25.9 25.8 25.7 25.6 25.4 25.3 25.1 24.8 24.5 24.2 0 0 0 0 0 0 0 0 0 0 0 0 0 0 0 0 0 0 0 0 0 0 0 0 0 0 0 0 0 0 0 0 0 0 0 0 0 0 0 0 0 0 0 0 0 0 0
0 0 0 0 0 0 0 0 0 0 0 0 0 0 0 0 0 0 0 0 0 27.6 27.5 27.5 27.4 27.2 27.1 27 26.9 26.7 26.6 26.5 26.4 26.3 26.1 26 25.9 25.8 25.7 25.6 25.5 25.4 25.2 25 24.7 24.3 23.9 23.7 23.7 0 0 0 0 0 0 0 0 0 0 0 0 0 0 0 0 0 0 0 0 0 0 0 0 0 0 0 0 0 0 0 0 0 0 0 0 0 0 0 0 0 0 0 0
0 0 0 0 0 0 0 0 0 0 0 0 0 0 0 0 0 0 0 0 0 0 27.6 27.6 27.5 27.3 27.2 27.1 26.9 26.8 26.6 26.5 26.4 26.3 26.2 26.1 26 25.9 25.8 25.7 25.6 25.4 25.3 25.1 24.9 24.6 24.3 24.1 23.8 23.6 23.5 0 0 0 0 0 0 0 0 0 0 0 0 0 0 0 0 0 0 0 0 0 0 0 0 0 0 0 0 0 0 0 0 0 21.2 21.3 21.4 21.4 21.5 21.5 5 0 0
0 0 0 0 0 0 0 0 0 0 0 0 0 0 0 0 0 0 0 0 0 0 0 0 27.5 27.4 27.3 27.1 27 26.8 26.7 26.6 26.5 26.3 26.2 26.1 26 25.9 25.8 25.7 25.6 25.5 25.4 25.3 25.1 24.9 24.7 24.4 24.1 23.8 23.6 23.5 0 0 0 0 0 0 0 0 0 0 0 0 0 0 0 0 0 0 0 0 0 0 0 0 0 0 0 0 0 0 0 21.3 21.5 21.8 21.8 21.8 21.8 21.8 0 0 0
0 0 0 0 0 0 0 0 0 0 0 0 0 0 0 0 0 0 0 0 0 0 0 0 27.5 27.5 27.3 27.2 27 26.9 26.8 26.6 26.5 26.4 26.3 26.2 26.1 26 25.9 25.8 25.7 25.6 25.5 25.3 25.2 25 24.9 24.6 24.4 24.1 23.8 23.6 0 0 0 0 0 0 0 0 0 0 0 0 0 0 0 0 0 0 0 0 0 0 0 0 0 0 0 0 0 0 0 21.5 21.8 22.1 0 0 0 0 0 0 0
0 0 0 0 0 0 0 0 0 0 0 0 0 0 0 0 0 0 0 0 0 0 0 0 0 27.5 27.4 27.3 27.1 27 26.8 26.7 26.6 26.4 26.3 26.2 26.1 26 25.9 25.8 25.7 25.6 25.5 25.4 25.3 25.1 25 24.8 24.5 24.3 24 23.7 0 0 0 0 0 0 0 0 0 0 0 0 0 0 0 0 0 0 0 0 0 0 0 0 0 0 0 0 0 0 21.6 21.8 22 22.1 0 0 0 0 0 0 0
0 0 0 0 0 0 0 0 0 0 0 0 0 0 0 0 0 0 0 0 0 0 24.3 27.2 0 0 27.4 27.3 27.2 27 26.9 26.8 26.6 26.5 26.4 26.3 26.1 26 25.9 25.8 25.7 25.6 25.5 25.4 25.3 25.2 25 24.8 24.6 24.4 24.1 23.7 23.3 14.8 0 0 0 0 0 0 0 0 0 0 0 0 21.7 21.8 21.9 22 22 21.9 21.8 21.8 21.8 21.9 21.9 21.8 21.9 21.9 0 21.8 22.1 22.1 22.1 0 0 0 0 0 0 0 0
0 0 0 0 0 0 0 0 0 0 0 0 0 0 0 0 0 0 0 0 0 0 0 27.3 27.3 27.3 27.4 27.3 27.2 27.1 27 26.8 26.7 26.6 26.4 26.3 26.2 26.1 26 25.8 25.7 25.6 25.5 25.4 25.3 25.2 25.1 24.9 24.7 24.5 24.2 23.9 23.5 23.3 0 0 0 0 0 0 0 0 0 0 0 0 21.8 22 22.1 22.1 0 22 22 22 22 22.1 22.1 22 22 22.1 22.4 22.5 22.4 0 0 0 0 0 0 0 0 0 0
0 0 0 0 0 0 0 0 0 0 0 0 0 0 0 0 0 0 0 0 0 0 0 0 0 0 27.4 27.4 27.3 27.2 27.1 26.9 26.8 26.6 26.5 26.4 26.2 26.1 26 25.9 25.8 25.7 25.5 25.4 25.3 25.2 25.1 24.9 24.8 24.6 24.4 24.1 23.7 23.4 23.1 0 0 0 0 0 0 0 0 0 0 0 22 22.1 0 0 0 0 0 22.1 22.2 22.3 0 22.1 22.2 22.4 22.6 22.8 0 0 0 0 0 0 0 0 0 0 0
0 0 0 0 0 0 0 0 0 0 0 0 0 0 0 0 0 0 0 0 0 0 0 0 0 0 0 27.4 27.4 27.3 27.2 27 26.9 26.7 26.6 26.4 26.3 26.2 26 25.9 25.8 25.7 25.6 25.4 25.3 25.2 25.1 25 24.8 24.7 24.5 24.2 23.9 23.6 23.2 23 0 0 0 0 0 0 0 0 0 22 22.2 0 0 0 0 0 0 22.1 22.2 22.3 0 22.3 22.5 22.7 22.8 0 0 0 0 0 0 0 0 0 0 0 0
0 0 0 0 0 0 0 0 0 0 0 0 0 0 0 0 0 0 0 0 0 0 0 0 0 0 0 0 27.4 27.4 27.3 27.1 27 26.8 26.7 26.5 26.4 26.2 26.1 25.9 25.8 25.7 25.6 25.4 25.3 25.2 25.1 25 24.9 24.7 24.5 24.3 24.1 23.8 23.4 23.1 22.9 0 0 0 0 0 0 0 0 22 22.2 0 0 0 0 0 0 22.1 22.2 22.4 22.6 22.8 22.8 22.8 0 0 0 0 0 0 0 0 0 0 0 0 0
0 0 0 0 0 0 0 0 0 0 0 0 0 0 0 0 0 0 0 0 0 0 0 0 0 0 0 0 0 18.9 27.4 27.2 27.1 26.9 26.7 26.6 26.4 26.3 26.1 26 25.8 25.7 25.6 25.4 25.3 25.2 25.1 25 24.9 24.7 24.6 24.4 24.2 23.9 23.6 23.3 23.1 22.9 0 0 0 0 0 0 22 22.1 22.3 0 22.4 22.4 22.5 0 0 22.2 22.4 22.5 22.8 23.1 0 0 0 0 0 0 0 0 0 0 0 0 0 0 0
0 0 0 0 0 0 0 0 0 0 0 0 0 0 0 0 0 0 0 0 0 0 0 0 0 0 0 0 0 0 21.7 27.3 27.2 27 26.8 26.7 26.5 26.3 26.2 26 25.8 25.7 25.6 25.4 25.3 25.2 25.1 25 24.9 24.8 24.6 24.5 24.3 24.1 23.8 23.5 23.3 23.1 0 0 0 0 0 22.1 22.2 22.3 22.4 22.4 22.4 22.4 22.5 16.8 0 22.2 22.5 22.7 22.9 23 0 0 0 0 0 0 0 0 0 0 0 0 0 0 0
0 0 0 0 0 0 0 0 0 0 0 0 0 0 0 0 0 0 0 0 0 0 0 0 0 0 0 0 0 0 0 27.3 27.2 27.1 26.9 26.7 26.6 26.4 26.2 26 25.9 25.7 25.6 25.4 25.3 25.2 25.1 25 24.9 24.8 24.7 24.5 24.4 24.2 24 23.7 23.5 23.2 23 0 0 22.3 22.4 22.4 22.4 22.5 22.5 22.6 22.5 22.5 22.5 0 0 22.4 22.6 22.8 23 23.1 0 0 0 0 0 0 0 0 0 0 0 0 0 0 0
0 0 0 0 0 0 0 0 0 0 0 0 0 0 0 0 0 0 0 0 0 0 0 0 0 0 0 0 0 0 0 0 27.3 27.1 26.9 26.8 26.6 26.4 26.3 26.1 25.9 25.8 25.6 25.5 25.3 25.2 25.1 25 24.9 24.8 24.7 24.6 24.5 24.3 24.1 23.9 23.6 23.4 23.2 22.9 22.7 22.7 22.7 0 22.6 22.7 22.8 22.9 22.8 22.8 22.7 22.6 22.6 22.7 22.8 22.9 23 0 0 0 0 0 0 0 0 0 0 0 0 0 0 0 0
0 0 0 0 0 0 0 0 0 0 0 0 0 0 0 0 0 0 0 0 0 0 0 0 0 0 0 0 0 0 27.2 27.2 27.2 27.1 27 26.8 26.7 26.5 26.3 26.1 26 25.8 25.6 25.5 25.4 25.2 25.1 25 24.9 24.8 24.8 24.7 24.5 24.4 24.3 24.1 23.9 23.6 23.4 23.2 23.1 23 22.9 23 23 23 23.1 23.2 23.1 23.1 23 22.8 22.8 22.8 22.9 23 23.1 0 0 0 0 0 0 0 0 0 0 0 0 0 0 0 0
0 0 0 0 0 0 0 0 0 0 0 0 0 0 0 0 0 0 0 0 0 0 0 0 0 0 0 0 0 0 0 0 27.2 27.1 27 26.9 26.8 26.6 26.4 26.2 26 25.8 25.7 25.5 25.4 25.3 25.2 25.1 25 24.9 24.8 24.7 24.6 24.5 24.4 24.2 24.1 23.9 23.7 23.5 23.4 23.3 23.2 23.2 23.2 23.2 23.3 0 0 0 23 23 22.9 22.9 23 23.1 0 0 0 0 0 0 0 0 0 0 0 0 0 0 0 0 0
0 0 0 0 0 0 0 0 0 0 0 0 0 0 0 0 0 0 0 0 0 0 0 0 0 0 0 0 0 0 10.2 13 27.1 27 27 26.9 26.9 26.7 26.5 26.3 26.1 25.9 25.7 25.6 25.4 25.3 25.2 25.1 25 24.9 24.8 24.8 24.7 24.6 24.5 24.4 24.2 24.1 23.9 23.8 23.6 23.5 23.4 23.4 0 0 0 0 0 0 0 23.1 23 23 23 23 0 0 0 0 0 0 0 0 0 0 0 0 0 0 0 0 0
0 0 0 0 0 0 0 0 0 0 0 0 0 0 0 0 0 0 0 0 0 0 0 0 0 0 0 0 0 0 21.4 27 27.1 27.1 27.1 24.2 27 26.8 26.6 26.4 26.2 26 25.8 25.6 25.5 25.3 25.2 25.1 25 25 24.9 24.8 24.8 24.7 24.6 24.5 24.4 24.2 24.1 23.9 23.7 23.6 23.4 0 0 0 0 0 0 22.9 23 23.1 23 23 23 0 0 0 0 0 0 0 0 0 0 0 0 0 0 0 0 0 0
0 0 0 0 0 0 0 0 0 0 0 0 0 0 0 0 0 0 0 0 0 0 0 0 0 0 0 0 0 0 10.3 27 27.1 27.1 0 0 0 26.8 26.7 26.5 26.3 26.1 25.9 25.7 25.5 25.4 25.3 25.2 25.1 25 24.9 24.9 24.8 24.8 24.7 24.6 24.5 24.4 24.2 24.1 23.9 23.7 23.5 0 0 0 0 0 22.9 22.9 23 23 23 23 0 0 0 0 0 0 0 0 0 0 0 0 0 0 0 0 0 0 0
0 0 0 0 0 0 0 0 0 0 0 0 0 0 0 0 0 0 0 0 0 0 0 0 0 0 0 0 0 0 10.1 21.2 27.1 27.1 0 0 0 26.8 26.8 26.6 26.4 26.2 26 25.8 25.6 25.4 25.3 25.2 25.1 25 25 24.9 24.9 24.8 24.8 24.7 24.6 24.5 24.4 24.2 24 23.8 23.6 23.3 23.1 0 22.9 22.9 23 22.9 23 23 0 0 0 0 0 0 0 0 0 0 0 0 0 0 0 0 0 0 0 0 0
0 0 0 0 0 0 0 0 0 0 0 0 0 0 0 0 0 0 0 0 0 0 0 0 0 0 0 0 0 0 0 0 27.1 27.3 0 0 0 0 26.8 26.7 26.5 26.3 26.1 25.9 25.7 25.5 25.4 25.2 25.2 25.1 25 25 24.9 24.9 24.8 24.8 24.7 24.6 24.5 24.4 24.2 23.9 23.7 23.5 23.3 23.2 23.1 23 23 22.9 22.9 0 0 0 0 0 0 0 0 0 0 0 0 0 0 0 0 0 0 0 0 0 0
0 0 0 0 0 0 0 0 0 0 0 0 0 0 0 0 0 0 0 0 0 0 0 0 0 0 0 0 0 0 0 0 0 27.4 27.1 0 0 0 15.7 26.8 26.7 26.4 26.2 25.9 25.7 25.6 25.4 25.3 25.2 25.1 25.1 25 25 25 24.9 24.9 24.8 24.7 24.6 24.5 24.3 24.1 23.9 23.7 23.5 23.3 23.2 23.1 23 22.9 22.9 0 0 0 0 0 0 0 0 0 0 0 0 0 0 0 0 0 0 0 0 0 0
0 0 0 0 0 0 0 0 0 0 0 0 0 0 0 0 0 0 0 0 0 0 0 0 0 0 0 0 0 0 0 0 0 0 27 27 0 0 0 0 26.8 26.6 26.3 26 25.8 25.6 25.5 25.4 25.3 25.2 25.1 25.1 25.1 25 25 25 24.9 24.9 24.8 24.6 24.5 24.3 24.1 23.9 23.7 23.4 23.3 23.1 23 22.9 22.9 22.9 0 0 0 0 0 0 0 0 0 0 0 0 0 0 0 0 0 0 0 0 0
0 0 0 0 0 0 0 0 0 0 0 0 0 0 0 0 0 0 0 0 0 0 0 0 0 0 0 0 0 0 0 0 0 0 0 26.9 10.3 0 0 0 0 26.6 26.4 26.1 25.9 25.7 25.5 25.4 25.3 25.2 25.2 25.2 25.1 25.1 25.1 25.1 25 25 24.9 24.8 24.6 24.4 24.2 24 23.8 23.5 23.3 23.2 23 22.9 22.9 22.9 22.9 14.3 0 0 0 0 0 0 0 0 0 0 0 0 0 0 0 0 0 0 0
0 0 0 0 0 0 0 0 0 0 0 0 0 0 0 0 0 0 0 0 0 0 0 0 0 0 0 0 0 0 0 0 0 0 23.9 26.7 26.5 26.5 0 10.4 0 26.6 26.4 26.1 25.9 25.8 25.6 25.5 25.4 25.3 25.3 25.2 25.2 25.2 25.2 25.1 25.1 25.1 25 24.9 24.7 24.5 24.3 24.1 23.8 23.6 23.4 23.2 23.1 22.9 22.8 22.8 22.9 22.9 0 0 0 0 0 0 0 0 0 0 0 0 0 0 0 0 0 0 0
0 0 0 0 0 0 0 0 0 0 0 0 0 0 0 0 0 0 0 0 0 0 0 0 0 0 0 0 0 0 0 0 0 0 26.6 26.6 26.6 26.7 26.9 27 27 26.8 26.4 26.2 26 25.8 25.7 25.5 25.4 25.4 25.3 25.3 25.3 25.2 25.2 25.2 25.2 25.1 25.1 24.9 24.8 24.6 24.4 24.1 23.8 23.5 23.4 23.4 23.3 23.1 22.9 22.9 22.9 22.9 23 0 0 0 0 0 0 0 0 0 0 0 0 0 0 0 0 0 0
0 0 0 0 0 0 0 0 0 0 0 0 0 0 0 0 0 0 0 0 0 0 0 0 0 0 0 0 0 0 0 0 0 0 26.6 26.6 26.6 26.6 26.6 0 26.8 26.7 26.4 26.2 26 25.9 25.7 25.6 25.5 25.4 25.4 25.3 25.3 25.3 25.3 25.3 25.3 25.2 25.1 25 24.9 24.6 0 0 0 0 0 0 0 11.7 23 23 23 23 23 0 0 0 0 0 0 0 0 0 0 0 0 0 0 0 0 0 0
0 0 0 0 0 0 0 0 0 0 0 0 0 0 0 0 0 0 0 0 0 0 0 0 0 0 0 0 0 0 0 0 0 0 26.6 26.5 26.5 26.5 26.5 0 0 26.6 26.4 26.3 26.1 25.9 25.7 25.6 25.5 25.5 25.4 25.4 25.4 25.4 25.4 25.4 25.4 25.3 25.2 25.1 24.9 0 0 0 0 0 0 0 0 0 6.7 23 23.1 23.1 0 0 0 0 0 0 0 0 0 0 0 0 0 0 0 0 0 0 0
0 0 0 0 0 0 0 0 0 0 0 0 0 0 0 0 0 0 0 0 0 0 0 0 0 0 0 0 0 0 0 0 0 0 26.5 26.5 26.5 26.5 26.6 0 26.8 26.7 26.5 26.3 26.1 25.9 25.8 25.7 25.6 25.5 25.5 25.4 25.4 25.4 25.4 25.4 25.4 25.4 25.3 25.1 24.9 0 0 0 0 0 0 0 0 0 0 0 12.1 12.1 0 0 0 0 0 0 0 0 0 0 0 0 0 0 0 0 0 0 0
0 0 0 0 0 0 0 0 0 0 0 0 0 0 0 0 0 0 0 0 0 0 0 0 0 0 0 0 0 0 0 0 0 0 26.5 26.4 26.5 26.6 26.8 27.2 27.3 27 26.5 26.3 26.1 25.9 25.8 25.7 25.6 25.5 25.5 25.5 25.5 25.5 25.5 25.5 25.5 25.4 25.3 25.1 0 0 0 0 0 0 0 0 0 0 0 0 0 0 0 0 0 0 0 0 0 0 0 0 0 0 0 0 0 0 0 0 0
0 0 0 0 0 0 0 0 0 0 0 0 0 0 0 0 0 0 0 0 0 0 0 0 0 0 0 0 0 0 0 0 26.5 26.5 26.5 26.5 26.6 26.7 26.8 26.9 0 26.7 26.4 26.3 26.1 26 25.8 25.7 25.6 25.6 25.5 25.5 25.5 25.6 25.6 25.6 25.6 25.5 25.4 0 0 0 0 0 0 0 0 0 0 0 0 0 0 0 0 0 0 0 0 0 0 0 0 0 0 0 0 0 0 0 0 0 0
0 0 0 0 0 0 0 0 0 0 0 0 0 0 0 0 0 0 0 0 0 0 0 0 0 0 0 0 0 10.3 0 0 26.5 26.5 26.5 26.5 26.6 26.7 26.8 0 0 26.5 26.4 26.3 26.1 26 25.9 25.8 25.7 25.6 25.6 25.6 25.6 25.6 25.6 25.7 25.6 25.6 25.4 0 0 0 0 0 0 0 0 0 0 0 0 0 0 0 0 0 0 0 0 0 0 0 0 0 0 0 0 0 0 0 0 0 0
0 0 0 0 0 0 0 0 0 0 0 0 0 0 0 0 0 0 0 0 0 0 0 0 0 0 0 0 0 18.3 18.3 0 26.5 26.6 26.6 26.7 26.7 26.7 26.8 26.8 0 26.6 26.5 26.3 26.2 26 25.9 25.8 25.7 25.7 25.6 25.6 25.6 25.7 25.7 25.7 25.7 25.7 0 0 0 0 0 0 0 0 0 0 0 0 0 0 0 0 0 0 0 0 0 0 0 0 0 0 0 0 0 0 0 0 0 0 0
0 0 0 0 0 0 0 0 0 0 0 0 0 0 0 0 0 0 0 0 0 0 0 0 0 0 0 0 0 18.3 26.5 26.5 26.6 26.6 26.7 0 13 26.7 26.7 26.8 0 26.6 26.6 26.4 26.3 26.1 26 25.8 25.8 25.7 25.7 25.7 25.7 25.7 25.8 25.8 25.8 25.7 0 0 0 0 0 0 0 0 0 0 0 0 0 0 0 0 0 0 0 0 0 0 0 0 0 0 0 0 0 0 0 0 0 0 0
0 0 0 0 0 0 0 0 0 0 0 0 0 0 0 0 0 0 0 0 0 0 0 0 0 0 0 0 0 0 26.5 26.5 26.6 26.7 26.7 0 0 26.7 26.7 26.9 0 26.8 26.7 26.5 26.3 26.1 26 25.9 25.8 25.7 25.7 25.7 25.7 25.8 25.8 25.8 25.8 25.8 0 0 0 0 0 0 0 0 0 0 0 0 0 0 0 0 0 0 0 0 0 0 0 0 0 0 0 0 0 0 0 0 0 0 0
0 0 0 0 0 0 0 0 0 0 0 0 0 0 0 0 0 0 0 0 0 0 0 0 0 0 0 0 0 0 26.5 26.5 26.6 26.7 26.7 0 10.4 26.8 27 27.5 27.8 27.4 26.7 26.6 26.4 26.2 26 25.9 25.8 25.8 25.8 25.8 25.8 25.8 25.9 25.9 25.9 25.9 0 0 0 0 0 0 0 0 0 0 0 0 0 0 0 0 0 0 0 0 0 0 0 0 0 0 0 0 0 0 0 0 0 0 0
0 0 0 0 0 0 0 0 0 0 0 0 0 0 0 0 0 0 0 0 0 0 0 0 0 0 0 0 0 0 26.5 26.5 26.6 26.6 26.7 10.4 0 26.8 27.2 27.5 27.8 0 26.6 26.5 26.4 26.2 26.1 26 25.9 25.8 25.8 25.8 25.8 25.9 25.9 26 25.9 26 0 0 0 0 0 0 0 0 0 0 0 0 0 0 0 0 0 0 0 0 0 0 0 0 0 0 0 0 0 0 0 0 0 0 0
0 0 0 0 0 0 0 0 0 0 0 0 0 0 0 0 0 0 0 0 0 0 0 0 0 0 0 0 0 0 0 26.5 26.5 26.6 26.7 0 0 27 27.2 27.6 0 0 26.6 26.5 26.4 26.3 26.1 26 26 25.9 25.9 25.9 25.9 25.9 26 26.1 26.1 26.1 0 0 0 0 0 0 0 0 0 0 0 0 0 0 0 0 0 0 0 0 0 0 0 0 0 0 0 0 0 0 0 0 0 0 0
0 0 0 0 0 0 0 0 0 0 0 0 0 0 0 0 0 0 0 0 0 0 0 0 0 0 0 0 0 0 0 26.4 26.5 26.5 26.7 0 21.3 27.1 27.3 27.6 0 0 26.6 26.6 26.5 26.3 26.2 26.1 26 26 25.9 25.9 26 26 26.1 26.1 26.2 26.3 0 0 0 0 0 0 0 0 0 0 0 0 0 0 0 0 0 0 0 0 0 0 0 0 0 0 0 0 0 0 0 0 0 0 0
0 0 0 0 0 0 0 0 0 0 0 0 0 0 0 0 0 0 0 0 0 0 0 0 0 0 0 0 0 0 0 9.9 26.4 26.5 26.7 26.8 26.8 27 27.3 27.7 27.7 0 26.7 26.6 26.5 26.4 26.3 26.2 26.1 26 26 26 26 26.1 26.1 26.2 26.3 26.4 0 0 0 0 0 0 0 0 0 0 0 0 0 0 0 0 0 0 0 0 0 0 0 0 0 0 0 0 0 0 0 0 0 0 0
0 0 0 0 0 0 0 0 0 0 0 0 0 0 0 0 0 0 0 0 0 0 0 0 0 0 0 0 0 0 0 9.8 26.4 26.5 26.7 26.7 26.7 0 27.1 27.5 27.7 0 26.7 26.7 26.6 26.5 26.4 26.3 26.2 26.1 26.1 26.1 26.1 26.1 26.2 26.2 26.3 26.5 0 0 0 0 0 0 0 0 0 0 0 0 0 0 0 0 0 0 0 0 0 0 0 0 0 0 0 0 0 0 0 0 0 0 0
0 0 0 0 0 0 0 0 0 0 0 0 0 0 0 0 0 0 0 0 0 0 0 0 0 0 0 0 0 0 0 9.9 26.4 26.5 26.6 26.7 26.7 0 0 27.5 27.6 0 0 26.7 26.7 26.6 26.5 26.3 26.2 26.2 26.1 26.1 26.1 26.2 26.2 26.3 26.4 26.5 0 0 0 0 0 0 0 0 0 0 0 0 0 0 0 0 0 0 0 0 0 0 0 0 0 0 0 0 0 0 0 0 0 0 0
0 0 0 0 0 0 0 0 0 0 0 0 0 0 0 0 0 0 0 0 0 0 0 0 0 0 0 0 0 0 0 0 12.7 26.5 26.6 26.6 0 0 0 27.5 27.7 27.7 0 0 26.7 26.6 26.5 26.4 26.3 26.3 26.2 26.2 26.2 26.2 26.3 26.4 26.4 26.5 0 0 0 0 0 0 0 0 0 0 0 0 0 0 0 0 0 0 0 0 0 0 0 0 0 0 0 0 0 0 0 0 0 0 0
0 0 0 0 0 0 0 0 0 0 0 0 0 0 0 0 0 0 0 0 0 0 0 0 0 0 0 0 0 0 0 0 26.3 26.4 26.5 26.6 0 0 0 0 27.7 27.8 27.8 0 26.7 26.6 26.6 26.5 26.4 26.3 26.3 26.3 26.3 26.3 26.4 26.4 26.5 26.6 0 0 0 0 0 0 0 0 0 0 0 0 0 0 0 0 0 0 0 0 0 0 0 0 0 0 0 0 0 0 0 0 0 0 0
0 0 0 0 0 0 0 0 0 0 0 0 0 0 0 0 0 0 0 0 0 0 0 0 0 0 0 0 0 0 0 0 0 26.4 26.5 26.7 0 0 0 0 27.8 27.9 27.9 25.1 0 26.7 26.7 26.6 26.5 26.4 26.4 26.3 26.3 26.4 26.4 26.5 26.6 26.7 0 0 0 0 0 0 0 0 0 0 0 0 0 0 0 0 0 0 0 0 0 0 0 0 0 0 0 0 0 0 0 0 0 0 0
0 0 0 0 0 0 0 0 0 0 0 0 0 0 0 0 0 0 0 0 0 0 0 0 0 0 0 0 0 0 0 0 0 26.4 26.6 26.7 26.7 0 0 0 27.7 27.9 27.9 28 0 0 26.7 26.6 26.6 26.5 26.4 26.4 26.4 26.4 26.5 26.6 26.7 26.8 0 0 0 0 0 0 0 0 0 0 0 0 0 0 0 0 0 0 0 0 0 0 0 0 0 0 0 0 0 0 0 0 0 0 0
0 0 0 0 0 0 0 0 0 0 0 0 0 0 0 0 0 0 0 0 0 0 0 0 0 0 0 0 0 0 0 0 0 26.6 26.7 26.7 0 0 0 0 0 27.9 28 28 22.3 0 26.7 26.7 26.6 26.6 26.5 26.5 26.5 26.5 26.5 26.6 26.7 26.9 27.1 0 0 0 0 0 0 0 0 0 11.7 11.7 11.7 11.7 11.6 0 0 0 0 0 0 0 0 0 0 0 0 0 0 0 0 0 0 0 0
0 0 0 0 0 0 0 0 0 0 0 0 0 0 0 0 0 0 0 0 0 0 0 0 0 0 0 0 0 0 0 0 0 26.7 0 0 0 0 0 0 0 28 28 28 0 0 0 26.8 26.8 26.7 26.7 26.6 26.6 26.6 26.6 26.7 26.8 27 27.2 0 0 0 0 0 0 0 0 0 11.7 11.7 11.7 11.7 11.6 11.6 11.6 11.6 11.6 11.6 11.6 0 0 0 0 0 0 0 0 0 0 0 0 0 0
0 0 0 0 0 0 0 0 0 0 0 0 0 0 0 0 0 0 0 0 0 0 0 0 0 0 0 0 0 0 0 26.5 26.6 26.9 0 0 0 0 0 11.2 0 28.1 28.1 28.1 28.1 0 0 0 26.9 26.9 26.8 26.7 26.7 26.6 26.7 26.8 26.9 27.1 27.3 27.6 0 0 0 0 0 0 0 0 11.7 11.7 11.7 11.7 11.7 11.6 11.6 11.6 11.6 11.6 11.6 0 0 0 0 0 0 0 0 0 0 0 0 0 0
0 0 0 0 0 0 0 0 0 0 0 0 0 0 0 0 0 0 0 0 0 0 0 0 0 0 0 0 0 0 0 0 0 27.1 0 0 0 0 0 11.2 11.2 28.2 28.1 28.1 28.2 0 0 0 27.2 27.1 27 26.8 26.8 26.7 26.7 26.8 27 27.2 27.5 27.8 28.1 28.4 0 0 0 0 0 0 11.7 17.6 17.6 14.6 11.7 11.7 11.6 11.6 11.6 0 0 0 0 0 0 0 0 0 0 0 0 0 0 0 0
0 0 0 0 0 0 0 0 0 0 0 0 0 0 0 0 0 0 0 0 0 0 0 0 0 0 0 0 0 0 0 0 27.8 27.5 27.2 0 0 0 0 0 28.2 28.3 28.2 28.1 28.1 28.1 0 0 18.8 27.7 27.3 27 26.9 26.8 26.8 26.9 27.1 27.3 27.6 27.9 28.2 28.6 28.8 29.2 0 0 0 11.7 14.7 17.6 20.5 20.5 17.6 17.5 14.6 11.6 11.6 0 0 0 0 0 0 0 0 0 0 0 0 0 0 0 0
0 0 0 0 0 0 0 0 0 0 0 0 0 0 0 0 0 0 0 0 0 0 0 0 0 0 0 0 26.8 0 0 28.2 28.2 0 0 0 0 0 0 0 28.2 28.3 28.4 0 28.1 28.3 28.7 28.7 28.5 27.9 27.4 27.1 26.9 26.9 26.9 27 27.2 27.4 27.7 28 28.4 28.7 28.9 29.2 29.3 29.4 17.6 17.6 26.5 29.4 29.4 29.4 23.5 20.5 17.5 14.6 11.6 0 0 0 0 0 0 0 0 0 0 0 0 0 0 0 0
0 0 0 0 0 0 0 0 0 0 0 0 0 0 0 0 0 0 0 0 0 0 0 0 0 0 0 0 26.8 27.1 0 28.2 0 0 0 0 0 0 0 0 28.2 28.4 28.5 0 28.2 28.4 28.6 28.5 28.4 0 27.2 27 26.9 26.9 26.9 27 27.2 27.5 27.8 28.1 28.4 28.7 28.9 29.1 29.3 29.4 29.5 29.5 29.5 29.5 29.4 29.4 29.4 29.4 26.4 20.4 17.5 14.5 11.6 0 0 0 0 0 0 0 0 0 0 0 0 0 0
0 0 0 0 0 0 0 0 0 0 0 0 0 0 0 0 0 0 0 0 0 0 0 0 0 0 0 0 0 27.2 27.6 27.9 0 0 0 0 0 0 0 0 0 28.4 28.6 28.5 28.4 28.5 28.7 0 0 0 27.2 27.1 27 26.9 27 27.1 27.3 27.5 27.8 28.2 28.5 28.8 29 29.1 29.3 29.4 29.5 29.5 29.5 29.5 29.4 29.4 29.4 29.4 29.4 29.3 29.3 29.2 26.2 0 0 0 0 0 0 0 0 0 0 0 0 0 0
0 0 0 0 0 0 0 0 0 0 0 0 0 0 0 0 0 0 0 0 0 0 0 0 0 0 0 0 0 0 27.7 28 0 0 0 0 0 0 0 0 0 28.5 28.6 28.5 28.6 28.6 28.6 28.5 0 0 27.3 27.2 27.1 27 27 27.1 27.3 27.6 27.9 28.2 28.5 28.8 29 29.2 29.3 29.4 29.5 29.5 29.5 29.5 29.5 29.5 29.4 29.4 29.4 29.3 29.3 29.2 29.1 20.2 0 0 0 0 0 0 0 0 0 0 0 0 0
0 0 0 0 0 0 0 0 0 0 0 0 0 0 0 0 0 0 0 0 0 0 0 0 0 0 0 0 0 0 27.8 28.1 28.1 0 0 0 0 28.2 0 0 0 0 28.4 28.4 28.6 28.6 0 28.2 27.8 0 27.5 27.5 27.2 27.1 27.1 27.2 27.4 27.6 28 28.3 28.6 28.8 29 29.2 29.3 29.4 29.5 29.5 29.5 29.5 29.5 29.5 29.4 29.4 29.4 29.3 29.3 29.2 29.2 20.2 0 0 0 0 0 0 0 0 0 0 0 0 0
0 0 0 0 0 0 0 0 0 0 0 0 0 0 0 0 0 0 0 0 0 0 0 0 0 0 0 0 0 0 27.8 28.1 28 0 0 0 0 28.2 28.2 0 0 28.5 28.6 28.5 28.6 0 0 0 27.7 27.8 25 28 27.4 27.2 27.2 27.3 27.4 27.7 28 28.3 28.6 28.9 29.1 29.2 29.3 29.4 29.4 29.5 29.5 29.5 29.5 29.5 29.5 29.4 29.4 29.4 29.3 20.4 0 11.3 0 0 0 0 0 0 0 0 0 0 0 0 0
0 0 0 0 0 0 0 0 0 0 0 0 0 0 0 0 0 0 0 0 0 0 0 0 0 0 0 0 0 0 27.7 27.9 28 28.1 28.1 28.1 28.2 28.3 28.2 28.3 28.4 28.5 28.6 28.7 0 0 0 0 27.8 27.9 28 28.1 27.8 27.4 27.2 27.3 27.4 27.7 28 28.3 28.7 28.9 29.1 29.2 29.3 29.4 29.4 29.5 29.5 29.5 29.5 29.5 29.5 29.5 29.4 23.5 0 0 0 11.1 0 0 0 0 0 0 0 0 0 0 0 0 0
0 0 0 0 0 0 0 0 0 0 0 0 0 0 0 0 0 0 0 0 0 0 0 0 0 0 0 0 0 0 27.6 27.7 27.7 27.7 27.8 28.1 28.3 28.4 28.4 28.4 28.5 28.5 28.6 28.8 28.9 0 0 0 27.9 28.1 25 13.8 27.7 27.3 27.3 27.3 27.5 27.8 28.1 28.4 28.7 28.9 29.1 29.2 29.3 29.4 29.4 29.5 29.5 29.5 29.5 29.5 29.5 29.5 29.5 0 0 0 0 0 0 0 0 0 0 0 0 0 0 0 0 0 0
0 0 0 0 0 0 0 0 0 0 0 0 0 0 0 0 0 0 0 0 0 0 0 0 0 0 0 0 0 27.5 27.5 27.4 27.4 0 0 28 27.9 28.7 28.8 25.7 28.8 28.6 28.5 28.7 28.9 0 0 0 28 28.3 0 0 0 27.3 27.3 27.3 27.5 27.8 28 28.4 28.7 29 29.1 29.3 29.3 29.4 29.5 29.5 29.5 29.5 29.5 29.5 29.5 29.5 29.5 23.5 0 0 0 0 0 0 0 0 0 0 0 0 0 0 0 0 0
0 0 0 0 0 0 0 0 0 0 0 0 0 0 0 0 0 0 0 0 0 0 0 0 0 0 0 0 27.4 27.4 27.3 27.2 0 0 0 0 28.2 28.8 28.8 28.7 28.8 0 0 28.8 29 29.2 17.4 0 28.1 28.4 0 0 0 0 27.3 27.8 27.8 27.6 27.8 28.2 28.6 28.9 29.2 29.3 29.4 29.4 29.5 29.5 29.5 29.5 29.5 29.5 29.6 29.6 29.5 26.5 20.5 14.5 0 0 0 0 0 0 0 0 0 0 0 0 0 0 0
0 0 0 0 0 0 0 0 0 0 0 0 0 0 0 0 0 0 0 0 0 0 0 0 0 0 0 0 27.3 27.3 27.2 27.2 27.2 0 0 11.3 22.6 0 28.5 28.6 28.7 0 0 28.8 29 29.2 29.2 0 0 28.7 29 0 0 0 0 28.2 28.4 28.7 28.7 28.6 28.7 29 29.1 29.3 29.4 29.4 29.5 29.5 29.5 29.5 29.5 29.5 29.6 29.6 29.5 23.5 14.5 11.5 0 0 0 0 0 0 0 0 0 0 0 0 0 0 0
0 0 0 0 0 0 0 0 0 0 0 0 0 0 0 0 0 0 0 0 0 0 0 0 0 0 0 0 27.3 27.2 27.1 0 0 0 0 0 28.6 28.7 28.7 28.7 28.8 28.9 29 29 29.1 29.2 29.2 29.3 0 28.8 29.1 29.3 29.3 29.2 0 28.4 28.8 29 29 28.8 28.9 29.1 29.2 29.3 29.4 29.4 29.5 29.5 29.5 29.5 29.5 29.6 29.6 29.6 29.6 0 0 0 0 0 0 0 0 0 0 0 0 0 0 0 0 0 0
0 0 0 0 0 0 0 0 0 0 0 0 0 0 0 0 0 0 0 0 0 0 0 0 0 0 0 27.2 27.1 27.1 0 0 0 0 0 28.7 28.7 28.8 28.8 28.7 28.9 29 29.1 29.2 29.2 29.3 29.2 29.3 29.2 29.1 29.2 29.3 29.3 29.3 29.2 29 28.9 29.1 29 29 29 29.1 29.2 29.3 29.4 29.4 29.5 29.5 29.6 29.6 29.6 29.6 29.6 29.6 29.7 0 0 0 0 0 0 0 0 0 0 0 0 0 0 0 0 0 0
0 0 0 0 0 0 0 0 0 0 0 0 0 0 0 0 0 0 0 0 0 0 0 0 0 0 0 27.1 27 0 0 0 0 0 28.7 28.7 28.8 28.9 28.8 28.9 29.1 29.2 29.3 29.4 29.4 29.3 29.2 29.1 29.1 29 29.1 29.1 29.2 29.2 29.1 28.9 28.7 28.9 28.9 28.9 29 29.2 29.2 29.3 29.4 29.4 29.5 29.5 29.6 29.6 29.6 29.6 29.6 29.6 29.7 20.7 0 0 0 0 0 0 0 0 0 0 0 0 0 0 0 0 0
0 0 0 0 0 0 0 0 0 0 0 0 0 0 0 0 0 0 0 0 0 0 0 0 0 0 27 27 26.9 0 0 0 0 0 28.8 28.8 28.9 28.9 28.9 28.9 29.1 29.3 29.5 29.6 29.7 0 29.2 29.1 29.1 29.1 29.1 29.1 29.1 29.1 29 28.9 28.8 29 29 29.1 29.1 29.2 29.3 29.4 29.4 29.4 29.5 29.5 29.6 29.6 29.6 29.6 29.6 29.7 29.7 29.7 0 0 0 0 0 0 0 0 0 0 0 0 0 0 0 0 0
0 0 0 0 0 0 0 0 0 0 0 0 0 0 0 0 0 0 0 0 0 0 0 26.8 26.8 26.8 26.8 0 26.9 0 0 0 0 25.8 28.8 28.8 28.9 17.3 28.9 29 29.2 29.4 29.5 29.6 29.7 0 20.5 29.3 29.1 29.1 29.1 29.1 29.1 29 29.1 29 29 29.1 29 29.1 29.2 29.3 29.5 29.4 29.5 29.5 29.5 29.5 29.6 29.6 29.6 29.6 29.6 29.7 29.7 29.7 14.8 0 0 0 0 0 0 0 0 0 0 0 0 0 0 0 0
0 0 0 0 0 0 0 0 0 0 0 0 0 0 0 0 0 0 0 0 0 0 0 26.6 0 0 0 0 0 0 0 0 0 0 28.8 0 29 23.1 23.1 29 29.2 29.4 29.6 29.6 29.7 29.8 26.6 29.4 29.3 29.2 29.3 29.3 29.3 29.1 29.1 29 29.1 29.1 29.1 29.1 29.3 29.3 29.5 0 29.5 29.5 29.5 29.5 29.6 29.6 29.6 29.6 29.7 29.7 29.7 29.7 0 0 0 0 0 0 0 0 0 0 0 0 0 0 0 0 0
0 0 0 0 0 0 0 0 0 0 0 0 0 0 0 0 0 0 0 0 0 0 0 0 0 0 0 0 0 0 0 0 0 0 28.8 11.5 29.1 26.1 0 29.2 29.2 29.5 29.6 29.7 29.7 29.7 29.9 29.9 29.7 29.4 29.4 29.5 29.5 23.4 0 0 0 29 29.2 29.2 29.3 29.4 29.5 29.6 29.6 29.6 29.5 29.6 29.6 29.7 29.6 29.6 29.7 29.7 29.7 23.7 0 0 0 0 0 0 0 0 0 0 0 0 0 0 0 0 0
24.6 0 0 0 0 0 0 0 0 0 0 0 0 0 0 0 0 0 0 0 0 0 0 0 0 0 0 0 0 0 0 0 0 28.8 28.9 26 29.1 23.2 0 29.3 29.4 29.5 29.7 29.8 29.8 29.7 29.9 29.9 29.8 29.7 29.6 29.6 29.6 29.6 0 0 29.1 29.2 29.4 29.5 29.4 29.5 29.5 29.6 29.5 29.5 29.5 29.6 29.6 29.6 29.6 29.7 29.7 29.7 29.7 0 0 0 0 0 0 0 0 0 0 0 0 0 0 0 0 0 0
30.9 30.7 0 0 0 0 0 0 0 0 0 0 0 0 0 0 0 0 0 0 0 0 0 0 0 0 0 0 0 0 0 0 0 28.9 28.9 29 29.2 29.4 29.3 29.4 29.5 29.7 29.9 30 30 30 30 30 29.9 29.8 29.7 29.7 29.7 29.7 29.6 29.6 29.5 29.5 29.5 29.5 0 29.4 29.5 29.6 29.5 29.5 29.5 29.6 29.6 29.7 29.7 29.7 29.7 29.7 14.8 0 0 0 0 0 0 0 0 0 0 0 0 0 0 0 0 0 0
30.9 30.8 0 0 0 0 0 0 0 0 0 0 0 0 0 0 0 0 0 0 0 0 0 0 0 0 0 0 0 0 0 0 14.5 29 29.1 29.2 29.3 29.5 29.5 29.5 29.6 29.9 30.1 0 20.8 17.9 0 29.9 29.8 29.8 29.8 29.8 29.8 29.7 29.6 29.6 29.5 29.6 0 0 0 0 0 29.6 29.5 29.5 29.6 29.6 29.6 29.7 29.7 29.7 29.8 29.7 14.7 11.7 11.7 0 0 0 0 0 0 0 0 0 0 0 0 0 0 0 0
30.8 30.8 30.8 30.8 27.5 0 0 0 0 0 0 0 0 0 0 0 0 0 0 0 0 0 0 0 0 0 0 0 0 0 0 11.6 29.2 29.1 29.2 29.3 29.3 29.6 29.6 29.7 29.7 30 30.1 0 11.9 0 0 0 29.7 29.8 29.8 29.8 29.8 29.8 0 0 0 0 0 0 29.9 0 0 0 29.5 29.6 29.6 29.6 29.7 29.7 29.7 29.8 29.8 29.6 14.7 11.7 11.7 0 0 0 0 0 0 0 0 0 0 0 0 0 0 0 0
30.8 30.9 30.9 30.9 30.8 30.6 0 0 0 0 0 0 0 0 0 0 0 0 0 0 0 0 0 0 0 0 0 0 0 0 0 11.6 29.2 29.3 29.3 29.4 29.5 29.8 29.8 29.8 29.8 30.1 30.1 0 11.9 0 0 0 29.7 29.8 29.9 30.1 0 0 0 0 0 0 0 0 29.9 26.9 0 0 0 29.6 29.6 29.6 29.7 29.7 29.8 29.8 14.8 23.5 20.4 11.7 0 0 0 0 0 0 0 0 0 0 0 0 0 0 0 0 0
30.8 30.8 30.8 30.9 30.8 30.7 17.7 17.2 0 0 0 0 0 0 0 0 0 0 0 0 0 0 0 0 0 0 0 0 0 0 0 0 29.2 29.3 29.4 29.6 29.6 29.8 29.8 29.9 29.9 30.2 0 29.8 29.8 0 0 0 29.8 29.9 30 30.1 0 0 30 0 0 0 0 29.9 29.9 0 0 0 0 29.6 29.6 29.7 29.7 29.8 29.8 0 0 26.1 11.6 0 0 0 0 0 0 0 0 0 0 0 0 0 0 0 0 0 0
30.7 30.8 30.8 30.9 30.9 31 30.8 0 0 0 0 0 0 0 0 0 0 0 0 0 0 0 0 0 15.3 0 0 0 0 0 0 0 0 29.4 29.5 29.6 29.7 29.9 29.9 30 30.1 30.3 0 29.9 0 0 0 0 0 29.9 30 30.1 30.1 0 30 30 0 0 0 0 29.9 0 0 0 0 0 29.7 29.7 29.7 29.8 29.8 29.7 0 28.7 0 0 0 10.3 10.2 10.1 10 10 0 0 0 0 0 0 0 0 0 0 0
30.7 30.7 30.8 30.8 30.9 30.9 30.9 31 0 0 0 0 0 0 0 0 0 0 0 0 0 0 24.5 30.7 21.5 0 0 0 0 0 0 0 0 29.5 29.6 29.7 29.8 30 30.1 30.1 30.2 30.3 30.1 30 0 0 0 0 0 29.9 30.1 30.2 27.1 30.1 30 0 0 0 0 0 29.9 0 0 0 0 0 29.6 29.7 29.7 29.8 29.8 29.7 0 28.4 11 10.9 13.6 25.2 28 25 24.9 16.1 10.3 0 0 0 0 0 0 0 0 0 0
