ncols         93
nrows         151
xllcorner     -123.807403564453
yllcorner     -226449.671875
cellsize      1500
NODATA_value  -9999
0.0 0 8.03 8.052 6.499 0 0 6.719 6.722 6.751 6.784 6.81 6.827 6.822 6.825 6.844 6.837 6.839 6.839 6.853 6.856 6.868 0 0 6.737 0 0 0 0 0 0 0 6.425 6.48 0 0 0 0 6.29 0 6.418 6.422 6.415 0 0 0 0 0 0 0 0 0 0 0 0 0 0 0 0 0 0 0 0 0 0 0 0 0 0 0 0 0 0 0 0 0 0 0 0 0 0 0 0 0 0 0 0 0 0 0 0 0 0
0 0 8.052 8.063 7.157 0 0 0 6.758 6.801 6.844 6.881 6.913 6.929 6.968 6.947 6.923 6.915 6.91 6.91 0 0 0 0 6.724 0 0 0 0 0 0 6.376 6.419 0 0 0 6.308 6.314 6.316 0 0 6.467 6.484 0 0 0 0 0 0 0 0 0 0 0 0 0 0 0 0 0 0 0 0 0 0 0 0 0 0 0 0 0 0 0 0 0 0 0 0 0 0 0 0 0 0 0 0 0 0 0 0 0 0
0 0 8.098 8.089 0 0 0 0 6.799 6.851 6.907 6.944 6.977 6.997 7.037 0 0 0 4.821 0 0 0 0 0 6.698 6.648 6.612 0 0 0 0 6.39 6.418 0 0 6.348 6.352 0 0 0 0 6.493 6.472 0 0 0 0 0 0 0 0 0 0 0 0 0 0 0 0 0 0 0 0 0 0 0 0 0 0 0 0 0 0 0 0 0 0 0 0 0 0 0 0 0 0 0 0 0 0 0 0 0 0
0 0 8.137 8.109 0 0 0 6.844 6.847 6.91 6.958 6.99 7.012 7.026 7.063 0 0 0 0 0 0 0 0 0 6.7 6.671 6.639 6.625 6.641 0 0 6.399 6.422 6.415 6.402 6.4 0 0 0 0 6.478 6.515 6.491 0 0 0 0 0 0 0 0 0 0 0 0 0 0 0 0 0 0 0 0 0 0 0 0 0 0 0 0 0 0 0 0 0 0 0 0 0 0 0 0 0 0 0 0 0 0 0 0 0 0
0 0 8.16 8.117 0 0 0 6.877 6.912 6.977 7.013 7.04 7.048 7.044 7.086 0 0 0 0 0 0 0 0 0 6.684 6.659 0 0 0 0 0 0 6.435 6.445 0 0 0 0 0 0 6.488 6.487 6.474 0 0 0 0 0 0 0 0 0 0 0 0 0 0 0 0 0 0 0 0 0 0 0 0 0 0 0 0 0 0 0 0 0 0 0 0 0 0 0 0 0 0 0 0 0 0 0 0 0 0
0 0 8.174 8.127 0 0 6.918 6.929 6.991 7.056 7.08 7.094 7.096 0 7.109 0 0 0 0 0 0 0 6.673 6.675 6.681 0 0 0 0 0 0 0 6.45 6.468 0 0 0 0 0 0 6.562 6.551 6.56 0 0 0 0 0 0 0 0 0 0 0 0 0 0 0 0 0 0 0 0 0 0 0 0 0 0 0 0 0 0 0 0 0 0 0 0 0 0 0 0 0 0 0 0 0 0 0 0 0 0
0 0 8.137 8.123 0 0 6.984 7.014 7.084 7.126 7.131 7.126 0 0 7.123 7.14 3.568 0 0 0 0 0 6.685 6.676 6.677 0 0 0 0 0 0 0 6.475 6.493 0 0 0 0 0 6.548 6.585 0 0 0 0 0 0 0 0 0 0 0 0 0 0 0 0 0 0 0 0 0 0 0 0 0 0 0 0 0 0 0 0 0 0 0 0 0 0 0 0 0 0 0 0 0 0 0 0 0 0 0 0
0 8.09 7.974 8.087 0 0 7.008 7.106 7.181 7.194 7.174 7.148 7.111 7.12 7.115 7.132 7.171 0 0 0 0 0 6.692 6.685 6.676 6.655 0 0 0 0 0 6.512 6.51 6.523 0 0 0 6.542 6.574 6.597 6.601 0 0 0 0 0 0 0 0 0 0 0 0 0 0 0 0 0 0 0 0 0 0 0 0 0 0 0 0 0 0 0 0 0 0 0 0 0 0 0 0 0 0 0 0 0 0 0 0 0 0 0 0
0 8.018 7.989 8.028 5.732 7.231 7.17 7.237 7.263 7.263 7.224 7.183 7.141 7.133 7.124 7.15 0 0 0 0 0 0 6.714 6.708 6.693 6.666 0 6.575 6.579 6.583 6.587 6.58 6.594 6.594 6.595 6.596 6.601 6.606 6.628 6.638 0 0 0 0 0 0 0 0 0 0 0 0 0 0 0 0 0 0 0 0 0 0 0 0 0 0 0 0 0 0 0 0 0 0 0 0 0 0 0 0 0 0 0 0 0 0 0 0 0 0 0 0 0
0 5.545 7.877 7.924 7.64 7.44 7.371 7.335 7.361 7.337 7.282 7.24 7.184 7.141 7.143 0 0 0 0 0 0 0 6.746 6.728 6.711 6.69 6.674 6.666 6.684 6.686 6.689 6.683 6.681 6.679 6.675 6.666 6.656 6.655 6.662 0 0 0 0 0 0 0 0 0 0 0 0 0 0 0 0 0 0 0 0 0 0 0 0 0 0 0 0 0 0 0 0 0 0 0 0 0 0 0 0 0 0 0 0 0 0 0 0 0 0 0 0 0 0
0 5.502 7.947 7.783 7.754 7.5 7.476 7.485 7.468 7.428 7.364 7.303 7.235 7.175 0 6.928 6.932 6.889 6.858 6.836 6.816 6.812 6.796 6.781 6.773 6.752 6.735 6.729 6.738 0 6.718 0 0 0 0 0 0 0 0 0 0 0 0 0 0 0 0 0 0 0 0 0 0 0 0 0 0 0 0 0 0 0 0 0 0 0 0 0 0 0 0 0 0 0 0 0 0 0 0 0 0 0 0 0 0 0 0 0 0 0 0 0 0
0 3.878 7.982 7.955 7.834 7.661 7.645 7.62 7.57 7.52 7.453 7.382 7.301 7.21 7.118 7.066 7.038 6.988 6.954 6.919 6.901 6.894 6.889 6.866 6.841 6.816 6.791 6.791 6.784 6.785 6.773 6.781 6.791 0 0 0 0 0 0 0 0 0 0 0 0 0 0 0 0 0 0 0 0 0 0 0 0 0 0 0 0 0 0 0 0 0 0 0 0 0 0 0 0 0 0 0 0 0 0 0 0 0 0 0 0 0 0 0 0 0 0 0 0
0 5.442 7.937 7.963 7.887 7.816 7.747 7.711 7.655 7.595 7.527 7.455 7.385 7.311 7.257 7.194 7.132 7.069 7.024 6.98 6.957 6.954 6.962 0 0 6.853 0 0 0 0 6.815 6.823 0 0 0 0 0 0 0 0 0 0 0 0 0 0 0 0 0 0 0 0 0 0 0 0 0 0 0 0 0 0 0 0 0 0 0 0 0 0 0 0 0 0 0 0 0 0 0 0 0 0 0 0 0 0 0 0 0 0 0 0 0
0 7.86 7.942 7.988 7.956 7.869 7.805 7.766 7.711 7.649 7.576 7.508 7.441 7.369 7.313 0 7.158 7.112 7.071 7.035 7.013 7.003 6.995 0 0 6.861 0 0 0 0 0 0 0 0 0 0 0 0 0 0 0 0 0 0 0 0 0 0 0 0 0 0 0 0 0 0 0 0 0 0 0 0 0 0 0 0 0 0 0 0 0 0 0 0 0 0 0 0 0 0 0 0 0 0 0 0 0 0 0 0 0 0 0
0 7.872 7.943 7.977 7.963 7.897 7.84 7.795 7.74 7.677 7.603 7.531 7.449 7.379 7.316 0 0 7.169 7.119 7.072 7.049 7.033 7.018 0 0 6.869 6.882 0 0 0 0 0 0 0 0 0 0 0 0 0 0 0 0 0 0 0 0 0 0 0 0 0 0 0 0 0 0 0 0 0 0 0 0 0 0 0 0 0 0 0 0 0 0 0 0 0 0 0 0 0 0 0 0 0 0 0 0 0 0 0 0 0 0
0 3.142 7.95 7.965 7.96 7.906 7.853 7.815 7.763 7.702 7.632 7.555 7.478 7.395 7.326 0 0 0 7.149 7.11 7.083 7.061 7.035 0 0 0 6.892 0 0 0 0 0 0 0 0 0 0 0 0 0 0 0 0 0 0 0 0 0 0 0 0 0 0 0 0 0 0 0 0 0 0 0 0 0 0 0 0 0 0 0 0 0 0 0 0 0 0 0 0 0 0 0 0 0 0 0 0 0 0 0 0 0 0
0 0 7.934 7.966 7.955 7.907 7.868 7.827 7.778 7.716 7.646 7.571 7.488 7.405 7.328 7.3 5.77 7.209 7.175 7.152 7.119 7.087 7.061 0 0 0 0 0 0 0 0 0 0 0 0 0 0 0 0 0 0 0 0 0 0 0 0 0 0 0 0 0 0 0 0 0 0 0 0 0 0 0 0 0 0 0 0 0 0 0 0 0 0 0 0 0 0 0 0 0 0 0 0 0 0 0 0 0 0 0 0 0 0
0 0 7.932 7.982 7.957 7.917 7.879 7.842 7.79 7.73 7.662 7.594 7.516 7.442 7.367 7.325 7.27 7.248 7.231 7.199 7.156 7.115 7.081 0 0 0 0 0 0 0 0 0 0 0 0 0 0 0 0 0 0 0 0 0 0 0 0 0 0 0 0 0 0 0 0 0 0 0 0 0 0 0 0 0 0 0 0 0 0 0 0 0 0 0 0 0 0 0 0 0 0 0 0 0 0 0 0 0 0 0 0 0 0
0 0 7.946 7.976 7.955 7.922 7.888 7.852 7.802 7.746 7.675 7.606 7.53 7.459 7.387 7.316 7.273 7.271 7.261 7.225 7.187 7.134 7.077 7.024 0 0 0 0 0 0 0 0 0 0 0 0 0 0 0 0 0 0 0 0 0 0 0 0 0 0 0 0 0 0 0 0 0 0 0 0 0 0 0 0 0 0 0 0 0 0 0 0 0 0 0 0 0 0 0 0 0 0 0 0 0 0 0 0 0 0 0 0 0
0 0 7.952 7.987 7.964 7.928 7.898 7.861 7.813 7.755 7.691 7.618 7.552 7.479 7.398 7.32 7.235 0 7.304 7.278 7.249 7.19 7.137 7.065 0 0 0 0 0 0 0 0 0 0 0 0 0 0 0 0 0 0 0 0 0 0 0 0 0 0 0 0 0 0 0 0 0 0 0 0 0 0 0 0 0 0 0 0 0 0 0 0 0 0 0 0 0 0 0 0 0 0 0 0 0 0 0 0 0 0 0 0 0
0 0 0 7.981 7.973 7.943 7.912 7.87 7.82 7.766 7.696 7.629 7.565 7.496 7.424 7.335 7.251 7.192 2.874 0 0 7.238 7.161 7.076 0 0 0 0 0 0 0 0 0 0 0 0 0 0 0 0 0 0 0 0 0 0 0 0 0 0 0 0 0 0 0 0 0 0 0 0 0 0 0 0 0 0 0 0 0 0 0 0 0 0 0 0 0 0 0 0 0 0 0 0 0 0 0 0 0 0 0 0 0
0 0 0 7.952 7.978 7.957 7.923 7.877 7.83 7.77 7.706 7.638 7.575 7.513 7.449 7.376 7.3 7.224 7.177 7.159 7.149 4.27 7.154 7.071 0 0 0 0 0 0 0 0 0 0 0 0 0 0 0 0 0 0 0 0 0 0 0 0 0 0 0 0 0 0 0 0 0 0 0 0 0 0 0 0 0 0 0 0 0 0 0 0 0 0 0 0 0 0 0 0 0 0 0 0 0 0 0 0 0 0 0 0 0
0 0 0 3.939 7.973 7.958 7.93 7.885 7.834 7.77 7.704 7.642 7.58 7.518 7.461 7.402 7.345 7.292 7.244 7.204 7.192 7.196 7.177 7.06 6.984 0 0 0 0 0 0 0 0 0 0 0 0 0 0 0 0 0 0 0 0 0 0 0 0 0 0 0 0 0 0 0 0 0 0 0 0 0 0 0 0 0 0 0 0 0 0 0 8.563 0 0 0 0 0 0 0 0 0 0 0 0 0 0 0 0 0 0 0 0
0 0 0 0 7.957 7.956 7.934 7.89 7.834 7.772 7.705 7.642 7.582 7.522 7.463 7.409 7.359 7.311 7.271 7.239 7.207 7.214 7.178 7.1 7.026 0 0 0 0 0 0 0 0 0 0 0 0 0 0 0 0 0 0 0 0 0 0 0 0 0 0 0 0 0 0 0 0 0 0 0 0 0 0 0 0 0 0 0 0 0 0 8.858 8.663 0 0 0 0 0 0 0 0 0 0 0 0 0 0 0 0 0 0 0 0
0 0 0 0 7.953 7.965 7.939 7.891 7.83 7.768 7.701 7.641 7.579 7.522 7.466 7.414 7.362 7.32 7.289 7.253 7.227 7.217 7.187 7.117 7.036 6.963 0 0 0 0 0 0 0 0 0 0 0 0 0 0 0 0 0 0 0 0 0 0 0 0 0 0 0 0 0 0 0 0 0 0 0 0 0 0 0 0 0 0 0 0 0 0 8.542 8.477 0 0 0 0 0 0 0 0 0 0 0 0 0 0 0 0 0 0 0
0 0 0 0 7.937 7.97 7.949 7.89 7.825 7.761 7.696 7.636 7.578 7.524 7.467 7.415 7.365 7.326 7.299 7.27 7.245 7.227 7.204 7.157 7.089 6.999 6.921 0 0 0 0 0 0 0 0 0 0 0 0 0 0 0 0 0 0 0 0 0 0 0 0 0 0 0 0 0 0 0 0 0 0 0 0 0 0 0 0 0 0 0 0 0 8.614 8.495 0 0 0 0 0 0 0 0 0 0 0 0 0 0 0 0 0 0 0
0 0 0 0 4.742 7.96 7.94 7.889 7.822 7.754 7.692 7.632 7.574 7.522 7.469 7.421 7.371 7.325 7.295 7.266 7.249 7.23 7.21 7.175 7.131 7.065 6.975 0 0 0 0 0 0 0 0 0 0 0 0 0 0 0 0 0 0 0 0 0 0 0 0 0 0 0 0 0 0 0 0 0 0 0 0 0 0 0 0 0 0 0 0 0 0 8.384 8.342 0 0 0 0 0 0 0 0 0 0 0 0 0 0 0 0 0 0
0 0 0 0 0 7.951 7.94 7.887 7.823 7.758 7.689 7.63 7.567 7.51 7.461 7.408 7.363 7.324 7.289 7.266 7.246 7.226 7.204 7.175 7.158 7.08 6.975 0 0 0 0 0 0 0 0 0 0 0 0 0 0 0 0 0 0 0 0 0 0 0 0 0 0 0 0 0 0 0 0 0 0 0 0 0 0 0 0 0 0 0 0 0 0 8.314 8.286 8.237 0 0 0 0 0 0 0 0 0 0 0 0 0 0 0 0 0
0 0 0 0 0 7.931 7.94 7.89 7.824 7.757 7.687 7.624 7.556 7.502 7.45 7.399 7.356 7.318 7.283 7.262 7.24 7.216 7.187 7.167 0 7.057 6.96 6.887 0 0 0 0 0 0 0 0 0 0 0 0 0 0 0 0 0 0 0 0 0 0 0 0 0 0 0 0 0 0 0 0 0 0 0 0 0 0 0 0 0 0 0 0 0 0 8.238 8.206 8.265 0 0 0 0 0 0 0 0 0 0 0 0 0 0 0 0
0 0 0 0 0 7.928 7.937 7.889 7.829 7.758 7.686 7.62 7.552 7.491 7.436 7.386 7.344 7.309 7.278 7.254 7.233 7.209 7.173 0 0 7.071 6.998 6.928 0 0 0 0 0 0 0 0 0 0 0 0 0 0 0 0 0 0 0 0 0 0 0 0 0 0 0 0 0 0 0 0 0 0 0 0 0 0 0 0 0 0 0 0 0 0 0 8.122 8.136 0 0 0 0 0 0 0 0 0 0 0 0 0 0 0 0
0 0 0 0 0 0 7.939 7.891 7.832 7.766 7.689 7.616 7.544 7.482 7.421 7.374 7.329 7.298 7.271 7.247 7.228 7.206 7.168 7.128 7.119 7.089 7.01 6.921 6.86 0 0 0 0 0 0 0 0 0 0 0 0 0 0 0 0 0 0 0 0 0 0 0 0 0 0 0 0 0 0 0 0 0 0 0 0 0 0 0 0 0 0 0 0 0 0 8.055 8.065 8.128 0 0 0 0 0 0 0 0 0 0 0 0 0 0 0
0 0 0 0 0 0 7.891 7.889 7.84 7.773 7.695 7.611 7.535 7.469 7.411 7.361 7.32 7.291 7.266 7.244 7.23 7.213 7.192 7.165 7.146 7.104 7.036 6.952 6.883 0 0 0 0 0 0 0 0 0 0 0 0 0 0 0 0 0 0 0 0 0 0 0 0 0 0 0 0 0 0 0 0 0 0 0 0 0 0 0 0 0 0 0 0 0 0 8.065 7.986 7.998 0 0 0 0 0 0 0 0 0 0 0 0 0 0 0
0 0 0 0 0 0 0 7.853 7.837 7.764 7.684 7.6 7.518 7.45 7.389 7.342 7.308 7.282 7.256 7.238 7.229 7.211 7.203 7.188 7.165 7.123 7.052 6.975 6.907 6.885 0 0 0 0 0 0 0 0 0 0 0 0 0 0 0 0 0 0 0 0 0 0 0 0 0 0 0 0 0 0 0 0 0 0 0 0 0 0 0 0 0 0 0 0 0 7.941 7.915 7.936 0 0 0 0 0 0 0 0 0 0 0 0 0 0 0
0 0 0 0 0 0 0 4.656 7.809 7.736 7.656 7.572 7.492 7.422 7.367 7.325 7.292 7.265 7.245 7.229 7.22 7.203 7.203 7.198 7.17 7.12 7.054 6.973 6.919 0 0 0 0 0 0 0 0 0 0 0 0 0 0 0 0 0 0 0 0 0 0 0 0 0 0 0 0 0 0 0 0 0 0 0 0 0 0 0 0 0 0 0 0 0 0 0 7.834 7.87 0 0 0 0 0 0 0 0 0 0 0 0 0 0 0
2.865 2.875 0 0 0 0 0 3.079 7.732 7.684 7.607 7.53 7.456 7.399 7.346 7.306 7.28 7.255 7.236 7.219 7.203 7.199 0 0 7.159 7.113 7.042 6.954 6.92 0 0 0 0 0 0 0 0 0 0 0 0 0 0 0 0 0 0 0 0 0 0 0 0 0 0 0 0 0 0 0 0 0 0 0 0 0 0 0 0 0 0 0 0 0 7.558 7.659 7.762 7.812 0 0 0 0 0 0 0 0 0 0 0 0 0 0 0
0 5.923 7.451 0 0 0 5.34 6.105 7.672 7.624 7.553 7.481 7.424 7.371 7.322 7.291 7.267 7.241 7.222 7.202 7.196 7.205 0 0 7.158 7.115 7.034 6.925 0 0 0 0 0 0 0 0 0 0 0 0 0 0 0 0 0 0 0 0 0 0 0 0 0 0 0 0 0 0 0 0 0 0 6.886 6.957 7.002 7.049 0 7.234 7.274 7.306 7.375 7.432 7.502 7.577 7.657 7.745 7.828 7.889 8.052 0 0 0 0 0 0 0 0 0 0 0 0 0 0
0 6.668 7.451 7.499 3.764 7.627 7.615 7.607 7.595 7.546 7.492 7.439 7.387 7.348 7.31 7.279 7.253 7.23 7.21 7.189 7.196 0 0 0 7.158 7.122 7.043 6.921 6.832 0 0 0 0 0 0 0 0 0 0 0 0 0 0 0 0 0 0 0 0 0 0 0 0 0 0 0 0 0 0 0 0 7.02 7.027 7.12 7.156 7.188 7.232 7.25 7.285 7.351 7.409 7.462 7.519 7.571 7.645 0 0 0 0 0 0 0 0 0 0 0 0 0 0 0 0 0 0
0 0 7.454 7.486 7.566 7.601 7.568 7.538 7.51 7.476 7.442 7.401 7.366 7.33 7.297 7.266 7.246 7.221 7.202 7.188 0 0 0 0 7.175 7.146 7.09 6.991 6.884 6.811 0 0 0 0 0 0 0 0 0 0 0 0 0 0 0 0 0 0 0 0 0 0 0 0 0 0 0 0 0 0 6.895 6.976 6.995 0 0 0 0 0 0 0 0 0 0 0 0 0 0 0 0 0 0 0 0 0 0 0 0 0 0 0 0 0 0
0 0 7.452 7.477 7.543 7.583 7.547 7.518 7.489 7.452 7.418 7.378 7.347 7.317 7.29 7.262 7.239 7.217 7.197 7.186 0 0 0 0 0 7.161 7.126 7.053 6.965 6.865 6.802 0 0 0 0 0 0 0 0 0 0 0 0 0 0 0 0 0 0 0 0 0 0 0 0 0 0 0 0 0 6.869 6.967 0 0 0 0 0 0 0 0 0 0 0 0 0 0 0 0 0 0 0 0 0 0 0 0 0 0 0 0 0 0 0
0 0 7.441 7.46 7.506 7.55 7.523 7.49 7.453 7.421 7.396 7.366 7.336 7.309 7.285 7.257 7.236 7.213 7.193 7.177 0 0 0 0 0 0 7.136 7.089 7.023 6.94 6.857 0 0 0 0 0 0 0 0 0 0 0 0 0 0 0 0 0 0 0 0 0 0 0 0 0 0 6.402 0 0 6.864 6.932 0 0 0 0 0 0 0 0 0 0 0 0 0 0 0 0 0 0 0 0 0 0 0 0 0 0 0 0 0 0 0
0 0 7.417 7.423 6.72 7.529 7.526 7.492 7.457 7.423 7.392 7.362 7.337 7.308 7.282 7.257 7.232 7.212 7.193 7.17 7.16 0 0 0 0 0 7.152 7.125 7.068 6.985 6.884 6.827 0 0 0 0 0 0 0 0 0 0 0 0 0 0 0 0 0 0 0 0 0 0 0 0 6.438 6.433 0 0 6.839 6.904 0 0 0 0 0 0 0 0 0 0 0 0 0 0 0 0 0 0 0 0 0 0 0 0 0 0 0 0 0 0 0
0 0 7.388 7.377 6.691 7.509 7.514 7.48 7.45 7.42 7.391 7.365 7.34 7.312 7.286 7.254 7.232 7.213 7.198 7.178 7.154 7.151 0 0 0 0 0 7.153 7.127 7.064 6.959 6.871 6.813 6.094 0 0 0 0 0 0 0 0 0 0 0 0 0 0 0 0 0 0 0 0 6.357 6.424 6.452 0 0 0 6.829 6.881 0 0 0 0 0 0 0 0 0 0 0 0 0 0 0 0 0 0 0 0 0 0 0 0 0 0 0 0 0 0 0
0 7.341 7.358 7.331 0 7.497 7.536 7.502 7.469 7.434 7.404 7.377 7.346 7.32 7.288 7.26 7.235 7.216 7.196 7.18 7.16 7.136 7.14 0 0 0 0 0 0 7.114 7.048 6.957 6.882 6.821 6.788 6.77 0 0 0 0 0 0 0 0 0 0 0 0 0 0 0 0 0 6.355 6.38 6.445 0 0 0 0 6.805 6.886 0 0 0 0 0 0 0 0 0 0 0 0 0 0 0 0 0 0 0 0 0 0 0 0 0 0 0 0 0 0 0
0 7.327 7.335 0 0 7.499 7.536 7.508 7.476 7.448 7.422 7.391 7.364 7.329 7.296 7.269 7.242 7.216 7.199 7.182 7.16 7.14 7.131 0 0 0 0 0 0 0 7.102 7.042 6.974 6.909 6.852 6.804 6.776 0 0 0 0 0 0 0 0 0 0 0 0 0 0 0 0 6.39 6.423 6.467 0 0 0 0 0 6.928 6.897 6.914 6.903 0 0 0 0 0 0 0 0 0 0 0 0 0 0 0 0 0 0 0 0 0 0 0 0 0 0 0 0
0 7.317 0 0 0 0 7.55 7.534 7.5 7.471 7.446 7.416 7.383 7.342 7.31 7.281 7.25 7.222 7.202 7.182 7.162 7.147 7.129 7.129 0 0 0 0 0 0 0 7.085 7.034 6.972 6.911 6.849 6.801 6.78 0 6.629 6.638 0 0 0 0 0 0 0 0 0 6.432 6.447 0 6.439 6.47 6.497 0 0 0 0 0 0 6.846 6.881 0 0 0 0 0 0 0 0 0 0 0 0 0 0 0 0 0 0 0 0 0 0 0 0 0 0 0 0 0
0 7.311 0 0 0 0 7.554 7.545 7.516 7.495 7.478 7.446 7.405 7.361 7.325 7.29 7.259 7.231 7.208 7.186 7.167 7.15 7.132 7.121 7.11 0 0 0 0 0 0 0 7.057 7.009 6.954 6.898 6.852 6.817 0 6.668 6.688 6.682 6.684 6.671 0 0 0 0 0 0 6.463 6.48 6.48 6.488 6.513 6.532 0 0 0 0 0 0 6.817 6.86 0 0 0 0 0 0 0 0 0 0 0 0 0 0 0 0 0 0 0 0 0 0 0 0 0 0 0 0 0
0 7.297 0 0 0 0 7.551 7.553 7.535 7.525 7.513 7.48 7.434 7.383 7.338 7.303 7.268 7.237 7.215 7.19 7.171 7.152 7.139 7.12 7.118 0 0 0 0 0 0 0 7.08 7.038 6.988 6.934 6.888 6.846 6.796 6.789 6.781 6.765 6.759 6.723 6.705 6.699 0 6.54 6.567 6.553 6.542 6.557 6.546 6.551 6.551 0 0 0 0 0 0 6.804 6.853 6.898 0 0 0 0 0 0 0 0 0 0 0 0 0 0 0 0 0 0 0 0 0 0 0 0 0 0 0 0 0
0 7.277 7.256 0 0 0 7.549 7.55 7.539 7.546 7.542 7.518 7.464 7.403 7.351 7.314 7.278 7.247 7.217 7.192 7.175 7.154 7.138 7.123 7.121 0 0 0 0 0 0 0 7.094 7.057 7.012 6.969 6.929 6.897 6.875 6.872 0 0 6.826 6.811 6.797 6.762 6.69 6.658 6.692 6.666 6.639 6.633 6.619 6.602 0 0 0 0 0 0 6.781 6.85 6.896 0 0 0 0 0 0 0 0 0 0 0 0 0 0 0 0 0 0 0 0 0 0 0 0 0 0 0 0 0 0
0 7.263 7.26 0 0 0 7.53 7.513 3.016 3.771 7.575 7.548 7.488 7.42 7.362 7.32 7.284 7.253 7.222 7.198 7.177 7.158 7.141 7.123 7.121 0 0 0 0 0 0 0 7.101 7.069 7.03 6.992 6.961 6.934 6.911 6.905 6.9 6.909 6.897 0 0 0 6.718 6.708 0 6.736 6.713 6.713 6.689 6.657 6.65 0 6.684 6.743 6.785 6.83 6.867 6.915 0 0 0 0 0 0 0 0 0 0 0 0 0 0 0 0 0 0 0 0 0 0 0 0 0 0 0 0 0 0 0
0 0 7.257 0 0 0 7.53 3.018 0 0 0 7.595 7.521 7.441 7.375 7.327 7.287 7.257 7.228 7.202 7.18 7.159 7.142 7.126 7.124 0 0 0 0 0 0 0 7.111 7.077 7.041 7.009 6.982 6.954 6.94 6.947 6.956 6.973 0 0 0 0 0 0 0 0 0 0 6.739 6.731 6.735 6.771 6.786 6.857 6.872 6.882 6.912 0 0 0 0 0 0 0 0 0 0 0 0 0 0 0 0 0 0 0 0 0 0 0 0 0 0 0 0 0 0 0 0
0 3.608 7.24 7.243 0 0 7.538 0 0 0 0 0 7.521 7.443 7.374 7.326 7.288 7.258 7.228 7.205 7.182 7.164 7.145 7.129 7.123 0 0 0 0 0 0 0 7.11 7.083 7.05 7.017 6.991 6.967 6.962 6.978 0 0 0 0 0 0 0 0 0 0 0 0 0 6.813 6.855 6.888 6.879 6.916 0 0 0 0 0 0 0 0 0 0 0 0 0 0 0 0 0 0 0 0 0 0 0 0 0 0 0 0 0 0 0 0 0 0 0
0 5.056 7.214 7.236 0 0 7.563 0 0 0 0 0 7.556 7.469 7.378 7.326 7.288 7.259 7.23 7.204 7.185 7.163 7.147 7.132 7.122 7.124 0 0 0 0 0 0 7.131 7.102 7.064 7.029 7 6.974 6.964 0 0 0 0 0 0 0 0 0 6.988 7.002 7.004 6.999 6.985 6.951 6.988 7 0 0 0 0 0 0 0 0 0 0 0 0 0 0 0 0 0 0 0 0 0 0 0 0 0 0 0 0 0 0 0 0 0 0 0 0 0
0 0 7.185 7.225 7.254 0 7.566 7.597 0 0 2.997 5.953 0 7.469 7.374 7.323 7.29 7.257 7.234 7.209 7.187 7.167 7.149 7.14 7.123 7.122 0 0 0 0 0 0 0 7.1 7.072 7.036 7.006 6.981 6.962 0 0 0 0 0 0 0 0 7.005 7.039 0 0 0 0 0 0 7.035 0 0 0 0 0 0 0 0 0 0 0 0 0 0 0 0 0 0 0 0 0 0 0 0 0 0 0 0 0 0 0 0 0 0 0 0 0
0 0 0 6.533 5.849 7.409 7.475 7.523 7.515 7.491 7.472 7.464 7.428 7.402 7.348 7.316 7.286 7.256 7.236 7.211 7.191 7.17 7.156 7.142 7.128 7.125 7.134 0 0 0 0 0 0 7.109 7.08 7.05 7.016 6.988 6.956 6.932 0 0 0 0 0 7.005 7.025 7.049 0 0 0 0 0 0 0 7.026 0 0 0 0 0 0 0 0 0 0 0 0 0 0 0 0 0 0 0 0 0 0 0 0 0 0 0 0 0 0 0 0 0 0 0 0 0
0 0 0 0 0 7.424 7.475 7.494 7.476 7.465 7.452 7.427 7.388 7.364 7.331 7.314 7.288 7.263 7.239 7.213 7.194 7.178 7.165 7.15 7.137 7.131 7.129 7.146 0 0 0 0 0 7.116 7.087 7.06 7.028 7.002 6.981 6.95 6.93 0 0 0 0 7.054 0 0 0 0 0 0 0 0 0 0 0 0 0 0 0 0 0 0 0 0 0 0 0 0 0 0 0 0 0 0 0 0 0 0 0 0 0 0 0 0 0 0 0 0 0 0 0
0 0 0 0 0 4.443 7.454 7.466 7.446 7.425 7.412 7.392 7.37 7.356 7.335 7.317 7.295 7.27 7.245 7.215 7.194 7.181 7.17 7.159 7.146 7.137 7.134 7.142 0 0 0 0 0 7.152 7.113 7.076 7.042 7.015 6.999 6.98 6.959 6.963 0 7.028 7.054 7.096 0 0 0 0 0 0 0 0 0 0 0 0 0 0 0 0 0 0 0 0 0 0 0 0 0 0 0 0 0 0 0 0 0 0 0 0 0 0 0 0 0 0 0 0 0 0 0
0 0 0 0 0 0 7.455 7.454 7.435 7.408 7.391 7.374 7.361 7.348 7.335 7.324 7.306 7.283 7.252 7.225 7.206 7.192 7.189 7.18 7.168 7.156 7.144 7.147 7.154 0 0 0 0 0 7.114 7.083 7.053 7.03 7.01 6.995 6.991 7.001 7.025 7.062 0 0 0 0 0 0 0 0 0 0 0 0 0 0 0 0 0 0 0 0 0 0 0 0 0 0 0 0 0 0 0 0 0 0 0 0 0 0 0 0 0 0 0 0 0 0 0 0 0
0 0 0 0 0 0 7.456 7.453 7.43 7.407 7.387 7.369 7.361 7.354 7.345 7.333 7.315 7.295 7.263 7.23 7.204 7.2 7.208 7.217 7.197 7.172 7.155 7.153 7.154 0 0 0 0 0 7.125 7.094 7.064 7.038 7.018 7.009 7.003 7.019 7.043 7.074 0 0 0 0 0 0 0 0 0 0 0 0 0 0 0 0 0 0 0 0 0 0 0 0 0 0 0 0 0 0 0 0 0 0 0 0 0 0 0 0 0 0 0 0 0 0 0 0 0
0 0 0 0 0 0 4.459 7.45 7.427 7.404 7.387 7.374 7.367 7.361 7.352 7.344 7.331 7.307 7.274 7.241 7.217 7.209 7.228 0 7.198 7.206 7.17 7.161 7.159 7.171 0 0 0 0 7.133 7.1 7.071 7.046 7.028 7.019 7.022 7.052 7.08 7.084 0 0 0 0 0 0 0 0 0 0 0 0 0 0 0 0 0 0 0 0 0 0 0 0 0 0 0 0 0 0 0 0 0 0 0 0 0 0 0 0 0 0 0 0 0 0 0 0 0
0 0 0 0 0 0 2.981 7.463 7.44 7.415 7.393 7.384 7.376 7.374 7.367 7.357 7.342 7.317 7.289 7.255 7.225 7.21 7.208 0 0 0 7.192 7.169 7.162 7.172 7.188 0 0 0 7.167 7.128 7.088 7.057 7.037 7.026 7.04 7.07 7.1 0 0 0 0 0 0 0 0 0 0 0 0 0 0 0 0 0 0 0 0 0 0 0 0 0 0 0 0 0 0 0 0 0 0 0 0 0 0 0 0 0 0 0 0 0 0 0 0 0 0
0 0 0 0 0 0 0 5.96 7.454 7.423 7.399 7.388 7.383 7.38 7.378 7.37 7.354 7.329 7.303 7.267 7.239 7.219 7.217 0 0 0 0 7.182 7.165 7.178 7.192 0 0 0 0 7.134 7.093 7.064 7.041 7.037 7.047 7.076 7.094 5.642 0 0 0 0 0 0 0 0 0 0 0 0 0 0 0 0 0 0 0 0 0 0 0 0 0 0 0 0 0 0 0 0 0 0 0 0 0 0 0 0 0 0 0 0 0 0 0 0 0
0 0 0 0 0 0 0 3.716 7.453 7.437 7.41 7.396 7.397 7.39 7.39 7.38 7.366 7.343 7.313 7.276 7.248 7.223 7.215 0 0 0 0 0 7.188 7.197 7.205 7.201 0 0 0 7.135 7.096 7.067 7.047 7.044 7.061 7.081 7.098 7.095 0 0 0 0 0 0 0 0 0 0 0 0 0 0 0 0 0 0 0 0 0 0 0 0 0 0 0 0 0 0 0 0 0 0 0 0 0 0 0 0 0 0 0 0 0 0 0 0 0
0 0 0 0 0 0 0 0 6.703 7.448 7.432 7.412 7.402 7.398 7.394 7.389 7.372 7.353 7.321 7.288 7.256 7.229 7.219 7.226 0 0 0 0 0 7.21 7.207 7.197 7.182 0 0 7.138 7.102 7.069 7.05 7.048 7.062 7.084 7.093 7.091 0 0 0 0 0 0 0 0 0 0 0 0 0 0 0 0 0 0 0 0 0 0 0 0 0 0 0 0 0 0 0 0 0 0 0 0 0 0 0 0 0 0 0 0 0 0 0 0 0
0 0 0 0 0 0 0 0 0 6.695 7.444 7.424 7.417 7.407 7.4 7.393 7.381 7.359 7.328 7.301 7.269 7.239 7.22 7.217 7.224 0 0 0 0 7.235 7.217 7.209 7.189 0 0 7.139 7.103 7.073 7.057 7.056 7.065 7.087 7.097 7.106 0 0 0 0 0 0 0 0 0 0 0 0 0 0 0 0 0 0 0 0 0 0 0 0 0 0 0 0 0 0 0 0 0 0 0 0 0 0 0 0 0 0 0 0 0 0 0 0 0
0 0 0 0 0 0 0 0 0 0 7.438 7.427 7.423 7.42 7.41 7.401 7.387 7.368 7.334 7.304 7.276 7.245 7.224 7.212 7.21 7.225 0 0 0 0 7.243 7.229 7.195 0 0 7.139 7.101 7.075 7.058 7.059 7.067 7.086 7.1 7.116 0 0 0 0 0 0 0 0 0 0 0 0 0 0 0 0 0 0 0 0 0 0 0 0 0 0 0 0 0 0 0 0 0 0 0 0 0 0 0 0 0 0 0 0 0 0 0 0 0
0 0 0 0 0 0 0 0 0 0 0 0 7.434 7.427 7.421 7.413 7.401 7.376 7.342 7.316 7.291 7.262 7.239 7.223 7.201 7.205 7.205 7.204 0 0 0 7.227 7.191 7.152 0 7.131 7.097 7.076 7.066 7.07 7.082 7.102 7.115 7.127 0 0 0 0 0 0 0 0 0 0 0 0 0 0 0 0 0 0 0 0 0 0 0 0 0 0 0 0 0 0 0 0 0 0 0 0 0 0 0 0 0 0 0 0 0 0 0 0 0
0 0 0 0 0 0 0 0 0 0 0 0 5.928 7.432 7.423 7.417 7.405 7.383 7.349 7.318 7.287 7.264 7.246 7.228 7.214 7.201 7.193 7.188 7.186 0 0 7.208 7.177 7.15 7.132 7.116 7.091 7.074 7.069 7.082 7.111 7.111 7.124 7.152 0 0 0 0 0 0 0 0 0 0 0 0 0 0 0 0 0 0 0 0 0 0 0 0 0 0 0 0 0 0 0 0 0 0 0 0 0 0 0 0 0 0 0 0 0 0 0 0 0
0 0 0 0 0 0 0 0 0 0 0 0 0 0 0 7.433 7.415 7.399 7.358 7.329 7.3 7.276 7.256 7.237 7.219 7.205 7.195 7.189 7.182 7.18 0 7.2 7.166 7.14 7.119 7.101 7.089 7.084 7.093 7.131 7.185 7.2 7.139 7.165 0 0 0 0 0 0 0 0 0 0 0 0 0 0 0 0 0 0 0 0 0 0 0 0 0 0 0 0 0 0 0 0 0 0 0 0 0 0 0 0 0 0 0 0 0 0 0 0 0
0 0 0 0 0 0 0 0 0 0 0 0 0 0 0 0 7.404 7.411 7.37 7.333 7.309 7.282 7.264 7.244 7.229 7.21 7.2 7.188 7.184 7.178 7.184 7.176 7.149 7.128 7.114 7.105 7.095 7.097 7.113 7.137 7.157 0 7.164 7.179 0 0 0 0 0 0 0 0 0 0 0 0 0 0 0 0 0 0 0 0 0 0 0 0 0 0 0 0 0 0 0 0 0 0 0 0 0 0 0 0 0 0 0 0 0 0 0 0 0
0 0 0 0 0 0 0 0 0 0 0 0 0 0 0 0 0 7.413 7.389 7.35 7.322 7.296 7.273 7.252 7.238 7.221 7.207 7.194 7.184 7.174 7.17 7.157 7.14 7.125 7.113 7.105 7.102 7.108 7.119 7.133 7.14 0 0 7.164 7.117 7.112 0 0 0 0 0 0 0 0 0 0 0 0 0 0 0 0 0 0 0 0 0 0 0 0 0 0 0 0 0 0 0 0 0 0 0 0 0 0 0 0 0 0 0 0 0 0 0
0 0 0 0 0 0 0 0 0 0 0 0 0 0 0 0 0 0 7.408 7.368 7.34 7.31 7.283 7.265 7.249 7.233 7.216 7.201 7.185 7.174 7.165 7.153 7.138 7.126 7.117 7.116 7.114 7.119 7.128 7.138 7.145 0 7.153 7.153 7.13 0 0 0 0 0 0 0 0 0 0 0 0 0 0 0 0 0 0 0 0 0 0 0 0 0 0 0 0 0 0 0 0 0 0 0 0 0 0 0 0 0 0 0 0 0 0 0 0
0 0 0 0 0 0 0 0 0 0 0 0 0 0 0 0 0 0 7.398 7.381 7.358 7.332 7.302 7.282 7.265 7.245 7.23 7.214 7.197 7.183 7.17 7.156 7.143 7.131 7.124 7.122 7.12 7.128 7.133 7.142 7.149 7.146 7.151 7.139 7.121 0 0 0 0 0 0 0 0 0 0 0 0 0 0 0 0 0 0 0 0 0 0 0 0 0 0 0 0 0 0 0 0 0 0 0 0 0 0 0 0 0 0 0 0 0 0 0 0
0 0 0 0 0 0 0 0 0 0 0 0 0 0 0 0 0 0 0 0 7.38 7.353 7.32 7.297 7.279 7.262 7.245 7.228 7.208 7.193 7.18 7.162 7.149 7.142 7.135 7.131 7.129 7.128 7.131 7.138 7.139 7.144 7.15 7.144 7.122 0 0 0 0 0 0 0 0 0 0 0 0 0 0 0 0 0 0 0 0 0 0 0 0 0 0 0 0 0 0 0 0 0 0 0 0 0 0 0 0 0 0 0 0 0 0 0 0
0 0 0 0 0 0 0 0 0 0 0 0 0 0 0 0 0 0 0 0 0 7.371 7.342 7.315 7.299 7.277 7.259 7.243 7.223 7.205 7.19 7.173 7.16 7.149 7.143 7.135 7.134 7.132 7.135 7.137 7.138 7.139 7.138 7.131 7.113 7.074 0 0 0 0 0 0 0 0 0 0 0 0 0 0 0 0 0 0 0 0 0 0 0 0 0 0 0 0 0 0 0 0 0 0 0 0 0 0 0 0 0 0 0 0 0 0 0
0 0 0 0 0 0 0 0 0 0 0 0 0 0 0 0 0 0 0 0 0 7.395 7.37 7.344 7.329 7.305 7.282 7.262 7.24 7.218 7.201 7.185 7.174 7.162 7.151 7.147 7.14 7.139 7.134 7.137 7.133 7.133 7.134 7.129 7.113 7.084 7.044 7.02 7.012 0 0 0 0 0 0 0 0 0 0 0 0 0 0 0 0 0 0 0 0 0 0 0 0 0 0 0 0 0 0 0 0 0 0 0 0 0 0 0 0 0 0 0 0
0 0 0 0 0 0 0 0 0 0 0 0 0 0 0 0 0 0 0 0 0 0 7.406 7.383 7.36 7.328 7.305 7.283 7.257 7.232 7.217 7.2 7.184 7.175 7.164 7.156 7.15 7.144 7.14 7.138 7.13 7.126 7.124 7.127 7.122 7.11 7.084 7.063 7.033 6.996 6.986 0 0 0 0 0 0 0 0 0 0 0 0 0 0 0 0 0 0 0 0 0 0 0 0 0 0 0 0 0 0 0 0 0 7.484 7.54 7.597 7.65 7.689 7.736 2.689 0 0
0 0 0 0 0 0 0 0 0 0 0 0 0 0 0 0 0 0 0 0 0 0 0 0 7.384 7.357 7.33 7.302 7.273 7.251 7.231 7.215 7.198 7.188 7.18 7.169 7.161 7.155 7.15 7.141 7.135 7.126 7.119 7.117 7.116 7.115 7.107 7.091 7.07 7.041 7.006 6.983 0 0 0 0 0 0 0 0 0 0 0 0 0 0 0 0 0 0 0 0 0 0 0 0 0 0 0 0 0 0 0 7.432 7.501 7.559 7.609 7.645 7.679 7.725 0 0 0
0 0 0 0 0 0 0 0 0 0 0 0 0 0 0 0 0 0 0 0 0 0 0 0 7.415 7.388 7.356 7.324 7.295 7.267 7.248 7.23 7.213 7.2 7.192 7.18 7.17 7.162 7.154 7.146 7.139 7.127 7.119 7.114 7.11 7.109 7.105 7.098 7.08 7.06 7.034 7.006 0 0 0 0 0 0 0 0 0 0 0 0 0 0 0 0 0 0 0 0 0 0 0 0 0 0 0 0 0 0 0 7.412 7.49 7.545 0 0 0 0 0 0 0
0 0 0 0 0 0 0 0 0 0 0 0 0 0 0 0 0 0 0 0 0 0 0 0 0 7.419 7.386 7.344 7.313 7.284 7.262 7.247 7.226 7.216 7.203 7.191 7.18 7.166 7.158 7.147 7.136 7.124 7.116 7.11 7.103 7.103 7.1 7.095 7.086 7.068 7.043 7.014 0 0 0 0 0 0 0 0 0 0 0 0 0 0 0 0 0 0 0 0 0 0 0 0 0 0 0 0 0 0 7.331 7.407 7.444 7.48 0 0 0 0 0 0 0
0 0 0 0 0 0 0 0 0 0 0 0 0 0 0 0 0 0 0 0 0 0 6.673 7.419 0 0 7.41 7.364 7.326 7.299 7.276 7.256 7.238 7.226 7.215 7.199 7.187 7.173 7.163 7.151 7.137 7.125 7.115 7.107 7.1 7.096 7.094 7.091 7.086 7.074 7.048 7.016 6.979 4.806 0 0 0 0 0 0 0 0 0 0 0 0 6.851 6.886 6.908 6.936 6.944 6.932 6.93 6.943 6.957 6.979 6.993 7.004 7.022 7.05 0 7.284 7.353 7.385 7.407 0 0 0 0 0 0 0 0
0 0 0 0 0 0 0 0 0 0 0 0 0 0 0 0 0 0 0 0 0 0 0 7.412 7.414 7.412 7.413 7.378 7.345 7.317 7.291 7.272 7.253 7.24 7.224 7.21 7.194 7.183 7.17 7.152 7.14 7.128 7.115 7.107 7.098 7.088 7.089 7.09 7.082 7.081 7.065 7.044 7.016 6.992 0 0 0 0 0 0 0 0 0 0 0 0 6.877 6.927 6.95 6.98 0 6.955 6.972 6.982 7.004 7.032 7.054 7.057 7.087 7.15 7.262 7.329 7.353 0 0 0 0 0 0 0 0 0 0
0 0 0 0 0 0 0 0 0 0 0 0 0 0 0 0 0 0 0 0 0 0 0 0 0 0 7.43 7.398 7.364 7.338 7.307 7.289 7.269 7.252 7.237 7.225 7.205 7.192 7.173 7.158 7.141 7.129 7.119 7.106 7.099 7.089 7.086 7.082 7.081 7.078 7.072 7.059 7.035 7.002 6.972 0 0 0 0 0 0 0 0 0 0 0 6.922 6.946 0 0 0 0 0 7.004 7.021 7.046 0 7.1 7.145 7.213 7.299 7.356 0 0 0 0 0 0 0 0 0 0 0
0 0 0 0 0 0 0 0 0 0 0 0 0 0 0 0 0 0 0 0 0 0 0 0 0 0 0 7.429 7.402 7.374 7.339 7.308 7.286 7.267 7.25 7.234 7.211 7.199 7.179 7.161 7.144 7.134 7.119 7.109 7.101 7.092 7.085 7.084 7.085 7.083 7.078 7.074 7.058 7.038 7.001 6.973 0 0 0 0 0 0 0 0 0 6.919 6.964 0 0 0 0 0 0 7.013 7.034 7.06 0 7.133 7.201 7.265 7.32 0 0 0 0 0 0 0 0 0 0 0 0
0 0 0 0 0 0 0 0 0 0 0 0 0 0 0 0 0 0 0 0 0 0 0 0 0 0 0 0 7.415 7.419 7.375 7.338 7.312 7.284 7.265 7.248 7.225 7.204 7.185 7.165 7.148 7.134 7.122 7.111 7.103 7.096 7.086 7.082 7.084 7.084 7.084 7.08 7.073 7.057 7.037 7.005 6.985 0 0 0 0 0 0 0 0 6.934 6.976 0 0 0 0 0 0 7.032 7.066 7.118 7.193 7.236 7.262 7.287 0 0 0 0 0 0 0 0 0 0 0 0 0
0 0 0 0 0 0 0 0 0 0 0 0 0 0 0 0 0 0 0 0 0 0 0 0 0 0 0 0 0 5.171 7.405 7.371 7.336 7.311 7.285 7.258 7.233 7.213 7.191 7.172 7.155 7.139 7.126 7.115 7.104 7.096 7.089 7.086 7.086 7.088 7.09 7.088 7.085 7.076 7.061 7.044 7.019 7.007 0 0 0 0 0 0 6.942 6.969 7 0 7.041 7.056 7.075 0 0 7.054 7.099 7.158 7.223 7.278 0 0 0 0 0 0 0 0 0 0 0 0 0 0 0
0 0 0 0 0 0 0 0 0 0 0 0 0 0 0 0 0 0 0 0 0 0 0 0 0 0 0 0 0 0 5.912 7.401 7.366 7.328 7.302 7.272 7.241 7.218 7.196 7.177 7.159 7.142 7.131 7.118 7.11 7.101 7.093 7.088 7.089 7.094 7.095 7.094 7.094 7.092 7.08 7.066 7.055 7.045 0 0 0 0 0 6.965 6.992 7.028 7.051 7.061 7.061 7.072 7.086 5.571 0 7.072 7.125 7.184 7.244 7.275 0 0 0 0 0 0 0 0 0 0 0 0 0 0 0
0 0 0 0 0 0 0 0 0 0 0 0 0 0 0 0 0 0 0 0 0 0 0 0 0 0 0 0 0 0 0 7.413 7.403 7.35 7.321 7.287 7.253 7.228 7.204 7.181 7.166 7.148 7.135 7.123 7.115 7.109 7.098 7.096 7.095 7.096 7.098 7.101 7.104 7.099 7.094 7.086 7.076 7.068 7.067 0 0 7.011 7.047 7.044 7.062 7.087 7.096 7.101 7.096 7.092 7.095 0 0 7.097 7.156 7.217 7.267 7.284 0 0 0 0 0 0 0 0 0 0 0 0 0 0 0
0 0 0 0 0 0 0 0 0 0 0 0 0 0 0 0 0 0 0 0 0 0 0 0 0 0 0 0 0 0 0 0 7.416 7.37 7.335 7.302 7.271 7.237 7.212 7.19 7.173 7.153 7.144 7.131 7.123 7.114 7.105 7.1 7.103 7.103 7.105 7.108 7.112 7.114 7.11 7.107 7.1 7.098 7.092 7.081 7.08 7.078 7.111 0 7.105 7.132 7.144 7.147 7.142 7.134 7.117 7.101 7.118 7.145 7.194 7.243 7.28 0 0 0 0 0 0 0 0 0 0 0 0 0 0 0 0
0 0 0 0 0 0 0 0 0 0 0 0 0 0 0 0 0 0 0 0 0 0 0 0 0 0 0 0 0 0 7.471 7.431 7.416 7.391 7.361 7.326 7.289 7.254 7.227 7.2 7.179 7.163 7.15 7.138 7.128 7.119 7.111 7.108 7.107 7.108 7.113 7.117 7.12 7.125 7.128 7.131 7.13 7.128 7.134 7.137 7.141 7.132 7.144 7.15 7.151 7.177 7.193 7.198 7.191 7.19 7.172 7.145 7.161 7.191 7.232 7.273 7.295 0 0 0 0 0 0 0 0 0 0 0 0 0 0 0 0
0 0 0 0 0 0 0 0 0 0 0 0 0 0 0 0 0 0 0 0 0 0 0 0 0 0 0 0 0 0 0 0 7.443 7.425 7.402 7.366 7.321 7.279 7.242 7.212 7.188 7.168 7.152 7.144 7.133 7.123 7.118 7.112 7.111 7.117 7.12 7.121 7.128 7.134 7.141 7.147 7.147 7.153 7.159 7.166 7.168 7.166 7.169 7.177 7.182 7.196 7.221 0 0 0 7.197 7.184 7.197 7.217 7.252 7.284 0 0 0 0 0 0 0 0 0 0 0 0 0 0 0 0 0
0 0 0 0 0 0 0 0 0 0 0 0 0 0 0 0 0 0 0 0 0 0 0 0 0 0 0 0 0 0 3.013 3.756 7.472 7.476 7.464 7.429 7.373 7.315 7.266 7.227 7.196 7.176 7.158 7.149 7.139 7.128 7.123 7.119 7.118 7.123 7.126 7.13 7.136 7.146 7.152 7.161 7.166 7.17 7.178 7.182 7.184 7.185 7.186 7.187 0 0 0 0 0 0 0 7.203 7.218 7.245 7.275 7.29 0 0 0 0 0 0 0 0 0 0 0 0 0 0 0 0 0
0 0 0 0 0 0 0 0 0 0 0 0 0 0 0 0 0 0 0 0 0 0 0 0 0 0 0 0 0 0 6.038 7.525 7.514 7.553 7.54 6.733 7.427 7.363 7.301 7.253 7.214 7.189 7.17 7.156 7.145 7.136 7.128 7.124 7.126 7.131 7.134 7.14 7.147 7.155 7.163 7.174 7.179 7.188 7.193 7.196 7.2 7.199 7.2 0 0 0 0 0 0 7.185 7.197 7.212 7.24 7.266 7.292 0 0 0 0 0 0 0 0 0 0 0 0 0 0 0 0 0 0
0 0 0 0 0 0 0 0 0 0 0 0 0 0 0 0 0 0 0 0 0 0 0 0 0 0 0 0 0 0 3.029 7.556 7.574 7.621 0 0 0 7.391 7.337 7.283 7.237 7.203 7.179 7.166 7.154 7.143 7.135 7.135 7.135 7.135 7.144 7.149 7.158 7.171 7.178 7.184 7.194 7.204 7.206 7.211 7.213 7.215 7.219 0 0 0 0 0 7.2 7.211 7.23 7.256 7.272 7.286 0 0 0 0 0 0 0 0 0 0 0 0 0 0 0 0 0 0 0
0 0 0 0 0 0 0 0 0 0 0 0 0 0 0 0 0 0 0 0 0 0 0 0 0 0 0 0 0 0 3.017 6.052 7.605 7.638 0 0 0 7.409 7.385 7.329 7.27 7.228 7.196 7.18 7.164 7.154 7.146 7.145 7.146 7.149 7.155 7.162 7.171 7.184 7.194 7.201 7.209 7.216 7.223 7.227 7.228 7.227 7.228 7.22 7.221 0 7.204 7.211 7.216 7.235 7.265 7.279 0 0 0 0 0 0 0 0 0 0 0 0 0 0 0 0 0 0 0 0 0
0 0 0 0 0 0 0 0 0 0 0 0 0 0 0 0 0 0 0 0 0 0 0 0 0 0 0 0 0 0 0 0 7.634 7.694 0 0 0 0 7.401 7.361 7.294 7.254 7.215 7.194 7.173 7.163 7.157 7.152 7.159 7.16 7.166 7.177 7.188 7.197 7.206 7.215 7.221 7.233 7.238 7.239 7.241 7.239 7.243 7.242 7.237 7.23 7.229 7.235 7.235 7.253 7.284 0 0 0 0 0 0 0 0 0 0 0 0 0 0 0 0 0 0 0 0 0 0
0 0 0 0 0 0 0 0 0 0 0 0 0 0 0 0 0 0 0 0 0 0 0 0 0 0 0 0 0 0 0 0 0 7.711 7.619 0 0 0 4.442 7.401 7.342 7.288 7.24 7.212 7.189 7.176 7.166 7.168 7.171 7.172 7.18 7.192 7.201 7.215 7.223 7.231 7.238 7.246 7.253 7.254 7.256 7.256 7.256 7.256 7.257 7.254 7.248 7.249 7.255 7.272 7.3 0 0 0 0 0 0 0 0 0 0 0 0 0 0 0 0 0 0 0 0 0 0
0 0 0 0 0 0 0 0 0 0 0 0 0 0 0 0 0 0 0 0 0 0 0 0 0 0 0 0 0 0 0 0 0 0 7.555 7.491 0 0 0 0 7.382 7.32 7.264 7.226 7.204 7.19 7.182 7.182 7.184 7.189 7.195 7.205 7.218 7.229 7.236 7.246 7.252 7.261 7.266 7.268 7.273 7.272 7.272 7.271 7.268 7.266 7.263 7.266 7.274 7.291 7.322 7.359 0 0 0 0 0 0 0 0 0 0 0 0 0 0 0 0 0 0 0 0 0
0 0 0 0 0 0 0 0 0 0 0 0 0 0 0 0 0 0 0 0 0 0 0 0 0 0 0 0 0 0 0 0 0 0 0 7.429 2.944 0 0 0 0 7.36 7.299 7.244 7.218 7.2 7.194 7.194 7.198 7.203 7.214 7.222 7.233 7.247 7.254 7.26 7.266 7.272 7.275 7.283 7.286 7.286 7.285 7.284 7.28 7.274 7.271 7.274 7.284 7.297 7.327 7.373 7.408 5.149 0 0 0 0 0 0 0 0 0 0 0 0 0 0 0 0 0 0 0
0 0 0 0 0 0 0 0 0 0 0 0 0 0 0 0 0 0 0 0 0 0 0 0 0 0 0 0 0 0 0 0 0 0 6.604 7.338 7.27 7.268 0 2.946 0 7.37 7.323 7.263 7.233 7.211 7.207 7.206 7.214 7.22 7.231 7.243 7.252 7.261 7.268 7.274 7.281 7.286 7.291 7.296 7.298 7.298 7.298 7.292 7.287 7.277 7.275 7.284 7.3 7.319 7.339 7.378 7.422 7.442 0 0 0 0 0 0 0 0 0 0 0 0 0 0 0 0 0 0 0
0 0 0 0 0 0 0 0 0 0 0 0 0 0 0 0 0 0 0 0 0 0 0 0 0 0 0 0 0 0 0 0 0 0 7.294 7.31 7.275 7.273 7.272 7.299 7.31 7.356 7.316 7.276 7.244 7.226 7.217 7.219 7.226 7.236 7.245 7.26 7.269 7.277 7.284 7.289 7.296 7.301 7.306 7.311 7.311 7.313 7.305 7.302 7.297 7.285 7.278 7.299 7.32 7.336 7.342 7.38 7.428 7.459 7.502 0 0 0 0 0 0 0 0 0 0 0 0 0 0 0 0 0 0
0 0 0 0 0 0 0 0 0 0 0 0 0 0 0 0 0 0 0 0 0 0 0 0 0 0 0 0 0 0 0 0 0 0 7.284 7.279 7.266 7.271 7.276 0 7.307 7.367 7.32 7.286 7.257 7.241 7.235 7.234 7.24 7.25 7.262 7.274 7.281 7.29 7.297 7.302 7.308 7.312 7.316 7.32 7.318 7.319 0 0 0 0 0 0 0 4.367 7.407 7.417 7.458 7.491 7.522 0 0 0 0 0 0 0 0 0 0 0 0 0 0 0 0 0 0
0 0 0 0 0 0 0 0 0 0 0 0 0 0 0 0 0 0 0 0 0 0 0 0 0 0 0 0 0 0 0 0 0 0 7.278 7.276 7.269 7.278 7.288 0 0 7.374 7.325 7.291 7.268 7.253 7.247 7.246 7.253 7.261 7.269 7.282 7.293 7.299 7.308 7.314 7.318 7.323 7.325 7.325 7.324 0 0 0 0 0 0 0 0 0 2.942 7.489 7.526 7.566 0 0 0 0 0 0 0 0 0 0 0 0 0 0 0 0 0 0 0
0 0 0 0 0 0 0 0 0 0 0 0 0 0 0 0 0 0 0 0 0 0 0 0 0 0 0 0 0 0 0 0 0 0 7.277 7.27 7.268 7.281 7.296 0 7.351 7.381 7.334 7.3 7.278 7.263 7.26 7.26 7.266 7.27 7.28 7.288 7.298 7.305 7.316 7.32 7.327 7.333 7.333 7.336 7.331 0 0 0 0 0 0 0 0 0 0 0 4.55 4.576 0 0 0 0 0 0 0 0 0 0 0 0 0 0 0 0 0 0 0
0 0 0 0 0 0 0 0 0 0 0 0 0 0 0 0 0 0 0 0 0 0 0 0 0 0 0 0 0 0 0 0 0 0 7.273 7.273 7.277 7.308 7.326 7.365 7.38 7.41 7.335 7.309 7.286 7.274 7.274 7.27 7.275 7.279 7.287 7.295 7.304 7.31 7.32 7.328 7.332 7.34 7.342 7.343 0 0 0 0 0 0 0 0 0 0 0 0 0 0 0 0 0 0 0 0 0 0 0 0 0 0 0 0 0 0 0 0 0
0 0 0 0 0 0 0 0 0 0 0 0 0 0 0 0 0 0 0 0 0 0 0 0 0 0 0 0 0 0 0 0 7.25 7.254 7.265 7.271 7.279 7.305 7.318 7.344 0 7.389 7.338 7.313 7.291 7.282 7.278 7.277 7.281 7.288 7.295 7.303 7.308 7.317 7.325 7.335 7.343 7.351 7.356 0 0 0 0 0 0 0 0 0 0 0 0 0 0 0 0 0 0 0 0 0 0 0 0 0 0 0 0 0 0 0 0 0 0
0 0 0 0 0 0 0 0 0 0 0 0 0 0 0 0 0 0 0 0 0 0 0 0 0 0 0 0 0 2.908 0 0 7.235 7.24 7.245 7.252 7.257 7.286 7.301 0 0 7.382 7.342 7.32 7.299 7.289 7.284 7.284 7.291 7.297 7.301 7.306 7.313 7.321 7.329 7.336 7.35 7.36 7.363 0 0 0 0 0 0 0 0 0 0 0 0 0 0 0 0 0 0 0 0 0 0 0 0 0 0 0 0 0 0 0 0 0 0
0 0 0 0 0 0 0 0 0 0 0 0 0 0 0 0 0 0 0 0 0 0 0 0 0 0 0 0 0 5.052 5.053 0 7.234 7.233 7.227 7.231 7.252 7.273 7.299 7.315 0 7.392 7.357 7.33 7.306 7.294 7.29 7.293 7.299 7.302 7.304 7.309 7.315 7.322 7.329 7.344 7.36 7.368 0 0 0 0 0 0 0 0 0 0 0 0 0 0 0 0 0 0 0 0 0 0 0 0 0 0 0 0 0 0 0 0 0 0 0
0 0 0 0 0 0 0 0 0 0 0 0 0 0 0 0 0 0 0 0 0 0 0 0 0 0 0 0 0 5.05 7.195 7.206 7.218 7.221 7.232 0 3.675 7.286 7.303 7.316 0 7.399 7.36 7.34 7.317 7.303 7.297 7.301 7.303 7.307 7.31 7.312 7.317 7.326 7.334 7.348 7.368 7.38 0 0 0 0 0 0 0 0 0 0 0 0 0 0 0 0 0 0 0 0 0 0 0 0 0 0 0 0 0 0 0 0 0 0 0
0 0 0 0 0 0 0 0 0 0 0 0 0 0 0 0 0 0 0 0 0 0 0 0 0 0 0 0 0 0 7.214 7.208 7.215 7.22 7.233 0 0 7.286 7.29 7.301 0 7.394 7.385 7.357 7.332 7.313 7.305 7.306 7.306 7.31 7.313 7.316 7.318 7.328 7.338 7.357 7.38 7.392 0 0 0 0 0 0 0 0 0 0 0 0 0 0 0 0 0 0 0 0 0 0 0 0 0 0 0 0 0 0 0 0 0 0 0
0 0 0 0 0 0 0 0 0 0 0 0 0 0 0 0 0 0 0 0 0 0 0 0 0 0 0 0 0 0 7.195 7.191 7.204 7.211 7.217 0 2.96 7.29 7.312 7.401 7.444 7.426 7.378 7.369 7.337 7.32 7.312 7.312 7.312 7.312 7.315 7.32 7.324 7.33 7.345 7.368 7.392 7.404 0 0 0 0 0 0 0 0 0 0 0 0 0 0 0 0 0 0 0 0 0 0 0 0 0 0 0 0 0 0 0 0 0 0 0
0 0 0 0 0 0 0 0 0 0 0 0 0 0 0 0 0 0 0 0 0 0 0 0 0 0 0 0 0 0 7.187 7.178 7.203 7.217 7.223 2.946 0 7.295 7.328 7.39 7.442 0 7.386 7.361 7.339 7.323 7.317 7.313 7.314 7.317 7.32 7.324 7.328 7.335 7.349 7.38 7.404 7.421 0 0 0 0 0 0 0 0 0 0 0 0 0 0 0 0 0 0 0 0 0 0 0 0 0 0 0 0 0 0 0 0 0 0 0
0 0 0 0 0 0 0 0 0 0 0 0 0 0 0 0 0 0 0 0 0 0 0 0 0 0 0 0 0 0 0 7.193 7.205 7.223 7.228 0 0 7.299 7.304 7.382 0 0 7.382 7.367 7.344 7.328 7.322 7.317 7.316 7.319 7.323 7.329 7.331 7.337 7.356 7.384 7.419 7.431 0 0 0 0 0 0 0 0 0 0 0 0 0 0 0 0 0 0 0 0 0 0 0 0 0 0 0 0 0 0 0 0 0 0 0
0 0 0 0 0 0 0 0 0 0 0 0 0 0 0 0 0 0 0 0 0 0 0 0 0 0 0 0 0 0 0 7.178 7.2 7.216 7.219 0 5.824 7.285 7.307 7.368 0 0 7.396 7.377 7.35 7.333 7.324 7.32 7.319 7.324 7.326 7.331 7.334 7.34 7.362 7.388 7.42 7.433 0 0 0 0 0 0 0 0 0 0 0 0 0 0 0 0 0 0 0 0 0 0 0 0 0 0 0 0 0 0 0 0 0 0 0
0 0 0 0 0 0 0 0 0 0 0 0 0 0 0 0 0 0 0 0 0 0 0 0 0 0 0 0 0 0 0 2.869 7.184 7.218 7.232 7.262 7.271 7.297 7.297 7.348 7.362 0 7.398 7.384 7.362 7.342 7.33 7.323 7.32 7.318 7.324 7.331 7.335 7.342 7.362 7.387 7.417 7.439 0 0 0 0 0 0 0 0 0 0 0 0 0 0 0 0 0 0 0 0 0 0 0 0 0 0 0 0 0 0 0 0 0 0 0
0 0 0 0 0 0 0 0 0 0 0 0 0 0 0 0 0 0 0 0 0 0 0 0 0 0 0 0 0 0 0 2.877 7.188 7.21 7.224 7.236 7.245 0 7.285 7.313 7.339 0 7.416 7.397 7.37 7.35 7.334 7.326 7.322 7.319 7.327 7.331 7.337 7.344 7.361 7.384 7.411 7.438 0 0 0 0 0 0 0 0 0 0 0 0 0 0 0 0 0 0 0 0 0 0 0 0 0 0 0 0 0 0 0 0 0 0 0
0 0 0 0 0 0 0 0 0 0 0 0 0 0 0 0 0 0 0 0 0 0 0 0 0 0 0 0 0 0 0 2.884 7.178 7.191 7.211 7.223 7.238 0 0 7.318 7.339 0 0 7.42 7.396 7.37 7.345 7.327 7.322 7.319 7.321 7.329 7.335 7.343 7.358 7.379 7.41 7.44 0 0 0 0 0 0 0 0 0 0 0 0 0 0 0 0 0 0 0 0 0 0 0 0 0 0 0 0 0 0 0 0 0 0 0
0 0 0 0 0 0 0 0 0 0 0 0 0 0 0 0 0 0 0 0 0 0 0 0 0 0 0 0 0 0 0 0 3.597 7.199 7.214 7.23 0 0 0 7.317 7.332 7.334 0 0 7.408 7.386 7.364 7.344 7.332 7.325 7.327 7.33 7.336 7.344 7.356 7.375 7.403 7.43 0 0 0 0 0 0 0 0 0 0 0 0 0 0 0 0 0 0 0 0 0 0 0 0 0 0 0 0 0 0 0 0 0 0 0
0 0 0 0 0 0 0 0 0 0 0 0 0 0 0 0 0 0 0 0 0 0 0 0 0 0 0 0 0 0 0 0 7.146 7.186 7.204 7.227 0 0 0 0 7.33 7.334 7.327 0 7.426 7.4 7.367 7.347 7.335 7.325 7.325 7.328 7.333 7.34 7.352 7.371 7.396 7.425 0 0 0 0 0 0 0 0 0 0 0 0 0 0 0 0 0 0 0 0 0 0 0 0 0 0 0 0 0 0 0 0 0 0 0
0 0 0 0 0 0 0 0 0 0 0 0 0 0 0 0 0 0 0 0 0 0 0 0 0 0 0 0 0 0 0 0 0 7.195 7.214 7.232 0 0 0 0 7.327 7.337 7.34 6.628 0 7.423 7.4 7.371 7.346 7.331 7.329 7.333 7.338 7.343 7.353 7.371 7.389 7.42 0 0 0 0 0 0 0 0 0 0 0 0 0 0 0 0 0 0 0 0 0 0 0 0 0 0 0 0 0 0 0 0 0 0 0
0 0 0 0 0 0 0 0 0 0 0 0 0 0 0 0 0 0 0 0 0 0 0 0 0 0 0 0 0 0 0 0 0 7.198 7.211 7.246 7.293 0 0 0 7.333 7.346 7.349 7.355 0 0 7.403 7.382 7.363 7.341 7.327 7.324 7.331 7.338 7.352 7.368 7.388 7.417 0 0 0 0 0 0 0 0 0 0 0 0 0 0 0 0 0 0 0 0 0 0 0 0 0 0 0 0 0 0 0 0 0 0 0
0 0 0 0 0 0 0 0 0 0 0 0 0 0 0 0 0 0 0 0 0 0 0 0 0 0 0 0 0 0 0 0 0 7.231 7.247 7.268 0 0 0 0 0 7.367 7.363 7.38 5.927 0 7.428 7.403 7.379 7.367 7.357 7.347 7.343 7.345 7.353 7.367 7.388 7.415 7.443 0 0 0 0 0 0 0 0 0 2.96 2.958 2.954 2.949 2.947 0 0 0 0 0 0 0 0 0 0 0 0 0 0 0 0 0 0 0 0
0 0 0 0 0 0 0 0 0 0 0 0 0 0 0 0 0 0 0 0 0 0 0 0 0 0 0 0 0 0 0 0 0 7.233 0 0 0 0 0 0 0 7.386 7.376 7.388 0 0 0 7.426 7.41 7.368 7.344 7.333 7.335 7.345 7.354 7.368 7.392 7.42 7.445 0 0 0 0 0 0 0 0 0 2.963 2.957 2.953 2.949 2.946 2.943 2.935 2.924 2.912 2.899 2.892 0 0 0 0 0 0 0 0 0 0 0 0 0 0
0 0 0 0 0 0 0 0 0 0 0 0 0 0 0 0 0 0 0 0 0 0 0 0 0 0 0 0 0 0 0 7.288 7.252 7.242 0 0 0 0 0 3.115 0 7.417 7.395 7.405 7.428 0 0 0 7.442 7.433 7.408 7.368 7.347 7.341 7.353 7.369 7.39 7.419 7.447 7.467 0 0 0 0 0 0 0 0 2.957 2.952 2.944 2.942 2.94 2.94 2.936 2.928 2.916 2.902 2.896 0 0 0 0 0 0 0 0 0 0 0 0 0 0
0 0 0 0 0 0 0 0 0 0 0 0 0 0 0 0 0 0 0 0 0 0 0 0 0 0 0 0 0 0 0 0 0 7.243 0 0 0 0 0 3.088 3.04 7.448 7.413 7.408 7.445 0 0 0 7.48 7.409 7.399 7.379 7.366 7.357 7.363 7.374 7.398 7.424 7.453 7.472 7.482 7.49 0 0 0 0 0 0 2.952 4.401 4.39 3.656 2.93 2.93 2.934 2.931 2.93 0 0 0 0 0 0 0 0 0 0 0 0 0 0 0 0
0 0 0 0 0 0 0 0 0 0 0 0 0 0 0 0 0 0 0 0 0 0 0 0 0 0 0 0 0 0 0 0 7.322 7.282 7.265 0 0 0 0 0 7.494 7.447 7.423 7.402 7.434 7.462 0 0 5.253 7.541 7.461 7.4 7.371 7.361 7.36 7.373 7.398 7.431 7.46 7.478 7.487 7.493 7.493 7.502 0 0 0 2.962 3.677 4.383 5.089 5.089 4.37 4.376 3.655 2.925 2.93 0 0 0 0 0 0 0 0 0 0 0 0 0 0 0 0
0 0 0 0 0 0 0 0 0 0 0 0 0 0 0 0 0 0 0 0 0 0 0 0 0 0 0 0 7.241 0 0 7.355 7.345 0 0 0 0 0 0 0 7.473 7.445 7.454 0 7.457 7.516 7.58 7.581 7.577 7.544 7.505 7.436 7.402 7.38 7.374 7.382 7.411 7.437 7.467 7.484 7.496 7.504 7.504 7.5 7.503 7.484 4.47 4.434 6.59 7.273 7.242 7.243 5.805 5.085 4.365 3.649 2.926 0 0 0 0 0 0 0 0 0 0 0 0 0 0 0 0
0 0 0 0 0 0 0 0 0 0 0 0 0 0 0 0 0 0 0 0 0 0 0 0 0 0 0 0 7.239 7.268 0 7.358 0 0 0 0 0 0 0 0 7.494 7.483 7.492 0 7.481 7.53 7.563 7.57 7.578 0 7.458 7.423 7.403 7.381 7.376 7.385 7.41 7.44 7.475 7.491 7.505 7.515 7.518 7.517 7.505 7.486 7.446 7.373 7.327 7.304 7.293 7.289 7.275 7.244 6.52 5.08 4.362 3.645 2.928 0 0 0 0 0 0 0 0 0 0 0 0 0 0
0 0 0 0 0 0 0 0 0 0 0 0 0 0 0 0 0 0 0 0 0 0 0 0 0 0 0 0 0 7.262 7.293 7.317 0 0 0 0 0 0 0 0 0 7.497 7.507 7.518 7.515 7.553 7.562 0 0 0 7.505 7.473 7.446 7.408 7.394 7.398 7.422 7.447 7.48 7.5 7.518 7.525 7.531 7.534 7.534 7.522 7.488 7.438 7.421 7.39 7.384 7.374 7.346 7.301 7.26 7.221 7.19 7.156 6.451 0 0 0 0 0 0 0 0 0 0 0 0 0 0
0 0 0 0 0 0 0 0 0 0 0 0 0 0 0 0 0 0 0 0 0 0 0 0 0 0 0 0 0 0 7.306 7.341 0 0 0 0 0 0 0 0 0 7.508 7.524 7.536 7.54 7.56 7.538 7.538 0 0 7.508 7.465 7.438 7.411 7.396 7.396 7.42 7.451 7.484 7.507 7.526 7.539 7.545 7.547 7.549 7.545 7.535 7.51 7.488 7.472 7.456 7.422 7.375 7.323 7.271 7.222 7.182 7.145 7.113 5.021 0 0 0 0 0 0 0 0 0 0 0 0 0
0 0 0 0 0 0 0 0 0 0 0 0 0 0 0 0 0 0 0 0 0 0 0 0 0 0 0 0 0 0 7.326 7.376 7.411 0 0 0 0 7.565 0 0 0 0 7.517 7.523 7.528 7.536 0 7.519 7.505 0 7.505 7.536 7.498 7.443 7.418 7.412 7.433 7.458 7.492 7.519 7.543 7.557 7.562 7.567 7.573 7.57 7.563 7.548 7.528 7.506 7.478 7.435 7.375 7.305 7.243 7.184 7.14 7.104 7.072 4.98 0 0 0 0 0 0 0 0 0 0 0 0 0
0 0 0 0 0 0 0 0 0 0 0 0 0 0 0 0 0 0 0 0 0 0 0 0 0 0 0 0 0 0 7.329 7.372 7.414 0 0 0 0 7.513 7.514 0 0 7.528 7.526 7.547 7.546 0 0 0 7.494 7.499 6.756 7.536 7.495 7.446 7.426 7.415 7.427 7.454 7.493 7.524 7.55 7.565 7.576 7.586 7.59 7.592 7.59 7.581 7.561 7.533 7.496 7.448 7.364 7.281 7.219 7.168 7.147 5.016 0 2.881 0 0 0 0 0 0 0 0 0 0 0 0 0
0 0 0 0 0 0 0 0 0 0 0 0 0 0 0 0 0 0 0 0 0 0 0 0 0 0 0 0 0 0 7.347 7.379 7.422 7.439 7.446 7.456 7.472 7.474 7.474 7.494 7.512 7.525 7.525 7.552 0 0 0 0 7.521 7.539 7.548 7.561 7.554 7.485 7.442 7.433 7.45 7.47 7.503 7.537 7.567 7.581 7.594 7.604 7.608 7.61 7.609 7.599 7.585 7.556 7.52 7.465 7.378 7.307 7.259 5.782 0 0 0 2.896 0 0 0 0 0 0 0 0 0 0 0 0 0
0 0 0 0 0 0 0 0 0 0 0 0 0 0 0 0 0 0 0 0 0 0 0 0 0 0 0 0 0 0 7.326 7.349 7.387 7.398 7.412 7.428 7.462 7.474 7.487 7.488 7.52 7.522 7.53 7.582 7.608 0 0 0 7.522 7.547 6.804 3.794 7.566 7.505 7.458 7.448 7.446 7.457 7.491 7.531 7.566 7.589 7.606 7.616 7.623 7.629 7.623 7.615 7.602 7.576 7.541 7.495 7.417 7.356 7.329 0 0 0 0 0 0 0 0 0 0 0 0 0 0 0 0 0 0
0 0 0 0 0 0 0 0 0 0 0 0 0 0 0 0 0 0 0 0 0 0 0 0 0 0 0 0 0 7.31 7.326 7.367 7.389 0 0 7.44 7.451 7.513 7.523 6.762 7.548 7.546 7.538 7.561 7.596 0 0 0 7.535 7.563 0 0 0 7.528 7.488 7.452 7.465 7.481 7.509 7.548 7.583 7.605 7.622 7.629 7.637 7.639 7.635 7.625 7.611 7.586 7.559 7.513 7.452 7.393 7.377 5.944 0 0 0 0 0 0 0 0 0 0 0 0 0 0 0 0 0
0 0 0 0 0 0 0 0 0 0 0 0 0 0 0 0 0 0 0 0 0 0 0 0 0 0 0 0 7.347 7.341 7.367 7.418 0 0 0 0 7.485 7.522 7.535 7.548 7.56 0 0 7.579 7.609 7.638 4.598 0 7.552 7.574 0 0 0 0 7.505 7.517 7.515 7.465 7.465 7.491 7.558 7.611 7.632 7.643 7.651 7.648 7.64 7.632 7.617 7.594 7.569 7.535 7.488 7.441 7.414 6.675 5.21 3.752 0 0 0 0 0 0 0 0 0 0 0 0 0 0 0
0 0 0 0 0 0 0 0 0 0 0 0 0 0 0 0 0 0 0 0 0 0 0 0 0 0 0 0 7.377 7.389 7.414 7.437 7.474 0 0 3.056 6.015 0 7.513 7.543 7.552 0 0 7.581 7.608 7.637 7.644 0 0 7.584 7.602 0 0 0 0 7.553 7.575 7.586 7.568 7.578 7.584 7.613 7.637 7.649 7.654 7.655 7.643 7.633 7.619 7.605 7.581 7.549 7.507 7.459 7.421 5.93 3.729 3 0 0 0 0 0 0 0 0 0 0 0 0 0 0 0
0 0 0 0 0 0 0 0 0 0 0 0 0 0 0 0 0 0 0 0 0 0 0 0 0 0 0 0 7.409 7.426 7.44 0 0 0 0 0 7.531 7.547 7.54 7.562 7.583 7.597 7.598 7.604 7.627 7.635 7.638 7.643 0 7.597 7.632 7.653 7.653 7.643 0 7.577 7.609 7.627 7.614 7.607 7.605 7.626 7.638 7.651 7.659 7.654 7.639 7.628 7.617 7.608 7.591 7.564 7.535 7.498 7.461 0 0 0 0 0 0 0 0 0 0 0 0 0 0 0 0 0 0
0 0 0 0 0 0 0 0 0 0 0 0 0 0 0 0 0 0 0 0 0 0 0 0 0 0 0 7.448 7.442 7.449 0 0 0 0 0 7.563 7.548 7.559 7.552 7.566 7.588 7.602 7.618 7.627 7.646 7.647 7.643 7.641 7.635 7.634 7.655 7.657 7.653 7.649 7.633 7.622 7.635 7.653 7.639 7.633 7.626 7.632 7.642 7.648 7.649 7.648 7.637 7.621 7.604 7.601 7.597 7.583 7.564 7.533 7.511 0 0 0 0 0 0 0 0 0 0 0 0 0 0 0 0 0 0
0 0 0 0 0 0 0 0 0 0 0 0 0 0 0 0 0 0 0 0 0 0 0 0 0 0 0 7.468 7.469 0 0 0 0 0 7.573 7.559 7.557 7.565 7.562 7.587 7.613 7.624 7.637 7.65 7.664 7.655 7.657 7.648 7.645 7.641 7.645 7.643 7.639 7.639 7.632 7.62 7.619 7.64 7.627 7.62 7.624 7.638 7.642 7.649 7.648 7.643 7.632 7.615 7.586 7.578 7.581 7.583 7.577 7.562 7.555 5.31 0 0 0 0 0 0 0 0 0 0 0 0 0 0 0 0 0
0 0 0 0 0 0 0 0 0 0 0 0 0 0 0 0 0 0 0 0 0 0 0 0 0 0 7.509 7.478 7.484 0 0 0 0 0 7.561 7.558 7.557 7.571 7.573 7.597 7.619 7.633 7.652 7.674 7.678 0 7.66 7.655 7.648 7.644 7.647 7.646 7.643 7.64 7.637 7.633 7.631 7.645 7.632 7.631 7.633 7.65 7.649 7.652 7.649 7.644 7.629 7.611 7.58 7.567 7.574 7.593 7.589 7.572 7.554 7.563 0 0 0 0 0 0 0 0 0 0 0 0 0 0 0 0 0
0 0 0 0 0 0 0 0 0 0 0 0 0 0 0 0 0 0 0 0 0 0 0 7.621 7.588 7.557 7.525 0 7.495 0 0 0 0 6.839 7.57 7.57 7.565 4.56 7.586 7.602 7.632 7.653 7.662 7.673 7.683 0 5.38 7.671 7.651 7.653 7.653 7.653 7.653 7.647 7.649 7.643 7.638 7.641 7.632 7.638 7.646 7.654 7.654 7.652 7.652 7.642 7.63 7.613 7.581 7.572 7.567 7.591 7.602 7.587 7.575 7.59 3.844 0 0 0 0 0 0 0 0 0 0 0 0 0 0 0 0
0 0 0 0 0 0 0 0 0 0 0 0 0 0 0 0 0 0 0 0 0 0 0 7.616 0 0 0 0 0 0 0 0 0 0 7.572 0 7.566 6.08 6.084 7.607 7.627 7.652 7.67 7.677 7.684 7.69 6.915 7.691 7.674 7.66 7.669 7.667 7.663 7.658 7.654 7.649 7.645 7.643 7.641 7.642 7.655 7.655 7.653 0 7.653 7.649 7.637 7.615 7.585 7.569 7.572 7.599 7.604 7.589 7.578 7.58 0 0 0 0 0 0 0 0 0 0 0 0 0 0 0 0 0
0 0 0 0 0 0 0 0 0 0 0 0 0 0 0 0 0 0 0 0 0 0 0 0 0 0 0 0 0 0 0 0 0 0 7.576 3.05 7.574 6.845 0 7.617 7.636 7.665 7.682 7.685 7.69 7.683 7.706 7.71 7.698 7.677 7.683 7.679 7.676 6.142 0 0 0 7.644 7.643 7.649 7.658 7.657 7.652 7.649 7.645 7.646 7.63 7.624 7.603 7.586 7.59 7.616 7.603 7.586 7.576 6.081 0 0 0 0 0 0 0 0 0 0 0 0 0 0 0 0 0
0 0 0 0 0 0 0 0 0 0 0 0 0 0 0 0 0 0 0 0 0 0 0 0 0 0 0 0 0 0 0 0 0 7.588 7.577 6.833 7.573 6.079 0 7.632 7.648 7.672 7.683 7.695 7.691 7.696 7.701 7.707 7.703 7.693 7.684 7.683 7.679 7.678 0 0 7.655 7.651 7.654 7.658 7.658 7.654 7.657 7.655 7.653 7.648 7.644 7.641 7.625 7.619 7.602 7.61 7.592 7.582 7.595 0 0 0 0 0 0 0 0 0 0 0 0 0 0 0 0 0 0
0 0 0 0 0 0 0 0 0 0 0 0 0 0 0 0 0 0 0 0 0 0 0 0 0 0 0 0 0 0 0 0 0 7.593 7.582 7.591 7.594 7.639 7.629 7.653 7.654 7.684 7.695 7.708 7.711 7.703 7.706 7.709 7.704 7.696 7.689 7.69 7.685 7.679 7.67 7.669 7.659 7.663 7.666 7.664 0 7.652 7.647 7.655 7.651 7.648 7.644 7.633 7.62 7.616 7.607 7.6 7.581 7.59 3.84 0 0 0 0 0 0 0 0 0 0 0 0 0 0 0 0 0 0
0 0 0 0 0 0 0 0 0 0 0 0 0 0 0 0 0 0 0 0 0 0 0 0 0 0 0 0 0 0 0 0 3.838 7.602 7.59 7.597 7.602 7.636 7.648 7.656 7.664 7.698 7.714 0 5.464 4.655 0 7.709 7.708 7.702 7.694 7.692 7.686 7.683 7.681 7.678 7.676 7.68 0 0 0 0 0 7.663 7.66 7.659 7.648 7.641 7.629 7.617 7.604 7.588 7.578 7.586 3.847 3.117 3.135 0 0 0 0 0 0 0 0 0 0 0 0 0 0 0 0
0 0 0 0 0 0 0 0 0 0 0 0 0 0 0 0 0 0 0 0 0 0 0 0 0 0 0 0 0 0 0 3.103 7.65 7.606 7.609 7.618 7.614 7.658 7.662 7.667 7.671 7.718 7.723 0 3.144 0 0 0 7.709 7.706 7.704 7.703 7.702 7.694 0 0 0 0 0 0 6.878 0 0 0 7.655 7.652 7.649 7.64 7.625 7.606 7.602 7.585 7.572 7.59 3.844 3.111 3.134 0 0 0 0 0 0 0 0 0 0 0 0 0 0 0 0
0 0 0 0 0 0 0 0 0 0 0 0 0 0 0 0 0 0 0 0 0 0 0 0 0 0 0 0 0 0 0 3.102 7.655 7.627 7.626 7.636 7.643 7.682 7.683 7.682 7.688 7.733 7.736 0 3.136 0 0 0 7.718 7.715 7.708 7.707 0 0 0 0 0 0 0 0 6.89 6.226 0 0 0 7.655 7.651 7.643 7.627 7.611 7.594 7.587 3.803 6.062 5.348 3.093 0 0 0 0 0 0 0 0 0 0 0 0 0 0 0 0 0
0 0 0 0 0 0 0 0 0 0 0 0 0 0 0 0 0 0 0 0 0 0 0 0 0 0 0 0 0 0 0 0 7.651 7.642 7.648 7.664 7.664 7.681 7.686 7.691 7.704 7.745 0 7.795 7.809 0 0 0 7.723 7.717 7.71 7.711 0 0 7.694 0 0 0 0 6.882 6.901 0 0 0 0 7.661 7.65 7.635 7.622 7.603 7.586 0 0 6.785 3.054 0 0 0 0 0 0 0 0 0 0 0 0 0 0 0 0 0 0
0 0 0 0 0 0 0 0 0 0 0 0 0 0 0 0 0 0 0 0 0 0 0 0 3.975 0 0 0 0 0 0 0 0 7.667 7.662 7.669 7.676 7.693 7.7 7.711 7.724 7.766 0 7.775 0 0 0 0 0 7.711 7.705 7.711 7.716 0 7.701 7.689 0 0 0 0 7.052 0 0 0 0 0 7.646 7.627 7.621 7.6 7.585 7.571 0 7.498 0 0 0 2.912 2.897 2.892 2.89 2.896 0 0 0 0 0 0 0 0 0 0 0
0 0 0 0 0 0 0 0 0 0 0 0 0 0 0 0 0 0 0 0 0 0 6.313 7.883 5.537 0 0 0 0 0 0 0 0 7.673 7.678 7.688 7.694 7.706 7.712 7.733 7.744 7.77 7.737 7.754 0 0 0 0 0 7.707 7.706 7.703 6.942 7.697 7.68 0 0 0 0 0 7.213 0 0 0 0 0 7.644 7.633 7.613 7.601 7.585 7.568 0 7.502 3.002 2.975 3.676 6.512 7.221 6.498 6.488 4.34 2.906 0 0 0 0 0 0 0 0 0 0
